; generated by SuperSlicer 2.4 on 2023-05-18 at 16:21:35 UTC

; 

; external perimeters extrusion width = 0.42mm
; perimeters extrusion width = 0.45mm
; infill extrusion width = 0.45mm
; solid infill extrusion width = 0.45mm
; top infill extrusion width = 0.42mm
; support material extrusion width = 0.30mm


;TYPE:Custom
START_PRINT EXTRUDER_TEMP=220 BED_TEMP=90 SIZE=136.414_136.417_170.84_173.584
M107
G21 ; set units to millimeters
G90 ; use absolute coordinates
M82 ; use absolute distances for extrusion
G92 E0
; Filament gcode
;_TOOLCHANGE 0
M104 S220 ; set temperature
M109 S220 ; set temperature and wait for it to be reached
M190 S90 ; set bed temperature and wait for it to be reached
M107
;LAYER_CHANGE
;Z:0.3
;HEIGHT:0.3
;LAYER:0
G1 Z0.3 F7200
G1 E-4 F2700
M204 S300
G1 X137.778 Y143.594 F7200
G1 E0 F2700
;TYPE:Skirt
;WIDTH:0.45
G1 F1500
G1 X138.52 Y142.926 E0.04802
G1 X139.453 Y142.419 E0.09909
G1 X140.538 Y142.131 E0.15311
G1 X142.215 Y142.117 E0.23378
G1 X142.232 Y140.662 E0.30374
G1 X142.53 Y139.537 E0.35974
G1 X143.085 Y138.56 E0.41378
G1 X143.452 Y138.122 E0.44123
G1 X144.336 Y137.39 E0.49646
G1 X145.521 Y136.865 E0.55882
G1 X146.487 Y136.71 E0.60588
G1 X149.994 Y136.721 E0.77454
G1 X150.744 Y136.918 E0.81182
G1 X151.037 Y136.799 E0.82706
G1 X152.043 Y136.61 E0.87627
G1 X163.735 Y136.611 E1.43862
G1 X165.091 Y136.94 E1.50575
G1 X166.252 Y137.638 E1.5709
G1 X167.115 Y138.581 E1.6324
G1 X167.617 Y139.541 E1.68448
G1 X167.64 Y139.61 E1.68797
G1 X168.668 Y140.136 E1.74353
G1 X169.695 Y141.103 E1.81138
G1 X170.252 Y142.025 E1.86319
G1 X170.57 Y142.977 E1.91149
G1 X170.647 Y166.511 E3.04336
G1 X170.225 Y168.008 E3.11817
G1 X170.07 Y168.353 E3.13636
G1 X169.559 Y169.06 E3.17831
G1 X168.922 Y169.681 E3.22112
G1 X167.764 Y170.341 E3.28524
G1 X167.646 Y170.379 E3.29117
G1 X167.118 Y171.415 E3.34708
G1 X166.151 Y172.442 E3.41493
G1 X165.229 Y172.998 E3.46674
G1 X164.277 Y173.316 E3.51499
G1 X152.049 Y173.391 E4.10312
G1 X151.038 Y173.201 E4.1526
G1 X150.744 Y173.082 E4.16787
G1 X149.994 Y173.279 E4.20516
G1 X146.343 Y173.29 E4.38078
G1 X144.84 Y172.867 E4.45589
G1 X144.486 Y172.707 E4.47454
G1 X143.695 Y172.116 E4.52203
G1 X142.997 Y171.33 E4.57258
G1 X142.516 Y170.425 E4.62188
G1 X142.245 Y169.441 E4.671
G1 X142.212 Y165.142 E4.87777
G1 X140.56 Y165.126 E4.95726
G1 X139.433 Y164.827 E5.01331
G1 X138.457 Y164.272 E5.06735
G1 X138.016 Y163.902 E5.09502
G1 X137.251 Y162.964 E5.15324
G1 X136.703 Y161.626 E5.22275
G1 X136.607 Y160.872 E5.25934
G1 X136.607 Y146.232 E5.96348
G1 X137.03 Y144.735 E6.0383
G1 X137.19 Y144.382 E6.05691
G1 X137.742 Y143.643 E6.10131
G1 X138.05 Y143.875 F7200
G1 F1500
G1 X138.075 Y143.842 E6.1033
G1 X138.76 Y143.229 E6.14751
G1 X139.615 Y142.77 E6.19422
G1 X140.566 Y142.516 E6.24153
G1 X142.598 Y142.499 E6.33929
G1 X142.611 Y140.736 E6.4241
G1 X142.878 Y139.705 E6.4753
G1 X143.412 Y138.766 E6.52727
G1 X143.711 Y138.408 E6.5497
G1 X144.561 Y137.704 E6.60278
G1 X145.653 Y137.228 E6.66007
G1 X146.502 Y137.096 E6.70139
G1 X149.968 Y137.106 E6.86809
G1 X150.771 Y137.325 E6.90814
G1 X151.13 Y137.174 E6.92687
G1 X152.061 Y136.995 E6.97247
G1 X163.712 Y136.996 E7.53285
G1 X164.92 Y137.287 E7.59258
G1 X165.987 Y137.919 E7.65225
G1 X166.814 Y138.823 E7.71115
G1 X167.265 Y139.7 E7.75858
G1 X167.325 Y139.921 E7.76963
G1 X167.505 Y139.971 E7.77858
G1 X168.424 Y140.435 E7.82814
G1 X169.411 Y141.365 E7.89335
G1 X169.91 Y142.204 E7.94028
G1 X170.195 Y143.069 E7.98409
G1 X170.261 Y166.484 E9.1103
G1 X169.858 Y167.887 E9.1805
G1 X169.727 Y168.175 E9.1957
G1 X169.258 Y168.819 E9.23404
G1 X168.671 Y169.386 E9.27328
G1 X167.595 Y169.994 E9.33271
G1 X167.334 Y170.065 E9.34572
G1 X167.283 Y170.251 E9.35501
G1 X166.818 Y171.171 E9.40458
G1 X165.889 Y172.158 E9.46979
G1 X165.05 Y172.656 E9.51672
G1 X164.185 Y172.941 E9.5605
G1 X152.066 Y173.005 E10.1434
G1 X151.13 Y172.826 E10.18921
G1 X150.771 Y172.675 E10.20797
G1 X149.967 Y172.894 E10.24802
G1 X146.369 Y172.905 E10.42111
G1 X144.96 Y172.5 E10.4916
G1 X144.666 Y172.365 E10.50717
G1 X143.943 Y171.82 E10.55071
G1 X143.301 Y171.092 E10.59738
G1 X142.881 Y170.301 E10.64047
G1 X142.63 Y169.412 E10.68489
G1 X142.595 Y164.759 E10.90871
G1 X140.633 Y164.746 E11.00307
G1 X139.602 Y164.48 E11.05432
G1 X138.662 Y163.945 E11.1063
G1 X138.303 Y163.644 E11.12883
G1 X137.568 Y162.743 E11.18479
G1 X137.083 Y161.552 E11.24664
G1 X136.992 Y160.859 E11.28023
G1 X136.992 Y146.259 E11.98247
G1 X137.397 Y144.855 E12.05271
G1 X137.531 Y144.562 E12.06824
G1 X138.014 Y143.922 E12.10676
G1 X138.32 Y144.156 F7200
G1 F1500
G1 X138.37 Y144.09 E12.11073
G1 X138.998 Y143.532 E12.15114
G1 X139.777 Y143.12 E12.19349
G1 X140.593 Y142.901 E12.23417
G1 X142.983 Y142.882 E12.34908
G1 X142.99 Y140.809 E12.44875
G1 X143.244 Y139.827 E12.49754
G1 X143.737 Y138.973 E12.54497
G1 X143.971 Y138.694 E12.56246
G1 X144.786 Y138.019 E12.61336
G1 X145.782 Y137.592 E12.6655
G1 X146.515 Y137.481 E12.70115
G1 X149.94 Y137.492 E12.86589
G1 X150.799 Y137.733 E12.90879
G1 X151.224 Y137.548 E12.93111
G1 X152.08 Y137.381 E12.97303
G1 X163.69 Y137.382 E13.53143
G1 X164.75 Y137.634 E13.58384
G1 X165.723 Y138.202 E13.63805
G1 X166.483 Y139.022 E13.69182
G1 X166.912 Y139.856 E13.73692
G1 X167.007 Y140.239 E13.75589
G1 X167.35 Y140.325 E13.77288
G1 X168.225 Y140.767 E13.82004
G1 X169.126 Y141.625 E13.87988
G1 X169.566 Y142.38 E13.92192
G1 X169.818 Y143.159 E13.9613
G1 X169.876 Y166.458 E15.08188
G1 X169.492 Y167.765 E15.14741
G1 X169.386 Y167.995 E15.15962
G1 X168.957 Y168.577 E15.19437
G1 X168.422 Y169.091 E15.23005
G1 X167.43 Y169.644 E15.28468
G1 X167.017 Y169.745 E15.30514
G1 X166.929 Y170.096 E15.32256
G1 X166.487 Y170.971 E15.36972
G1 X165.628 Y171.872 E15.42956
G1 X164.873 Y172.313 E15.4716
G1 X164.095 Y172.565 E15.51096
G1 X152.083 Y172.619 E16.08868
G1 X151.225 Y172.452 E16.13075
G1 X150.799 Y172.267 E16.15309
G1 X149.94 Y172.508 E16.19599
G1 X146.395 Y172.519 E16.36648
G1 X145.082 Y172.134 E16.43229
G1 X144.847 Y172.024 E16.44476
G1 X144.192 Y171.525 E16.48438
G1 X143.607 Y170.856 E16.52716
G1 X143.233 Y170.14 E16.56599
G1 X143.009 Y169.333 E16.60626
G1 X142.979 Y164.374 E16.84479
G1 X140.707 Y164.367 E16.95406
G1 X139.724 Y164.113 E17.00289
G1 X138.87 Y163.62 E17.05032
G1 X138.591 Y163.387 E17.06782
G1 X137.885 Y162.521 E17.1215
G1 X137.462 Y161.477 E17.17571
G1 X137.378 Y160.847 E17.20629
G1 X137.378 Y146.286 E17.90659
G1 X137.763 Y144.978 E17.97217
G1 X137.872 Y144.744 E17.98462
G1 X138.284 Y144.204 E18.01727
G1 X138.587 Y144.435 F7200
G1 F1500
G1 X138.64 Y144.366 E18.02144
G1 X139.237 Y143.836 E18.05985
G1 X139.899 Y143.487 E18.09587
G1 X140.622 Y143.287 E18.13192
G1 X143.367 Y143.264 E18.26394
G1 X143.376 Y140.835 E18.38079
G1 X143.591 Y139.997 E18.42238
G1 X144.063 Y139.18 E18.46775
G1 X144.23 Y138.98 E18.48031
G1 X145.01 Y138.334 E18.52898
G1 X145.909 Y137.957 E18.57587
G1 X146.528 Y137.867 E18.60598
G1 X149.912 Y137.877 E18.76873
G1 X150.827 Y138.143 E18.81456
G1 X151.321 Y137.922 E18.8406
G1 X152.099 Y137.767 E18.87873
G1 X163.667 Y137.767 E19.43511
G1 X164.631 Y138.002 E19.48287
G1 X165.461 Y138.486 E19.52908
G1 X166.152 Y139.223 E19.57764
G1 X166.558 Y140.012 E19.62031
G1 X166.687 Y140.56 E19.6474
G1 X167.197 Y140.679 E19.67259
G1 X168.025 Y141.098 E19.71725
G1 X168.838 Y141.884 E19.77162
G1 X169.221 Y142.554 E19.80876
G1 X169.442 Y143.248 E19.84378
G1 X169.49 Y166.43 E20.95877
G1 X169.127 Y167.64 E21.01954
G1 X169.045 Y167.813 E21.02872
G1 X168.657 Y168.334 E21.05995
G1 X168.174 Y168.795 E21.09209
G1 X167.268 Y169.293 E21.14182
G1 X166.696 Y169.422 E21.17001
G1 X166.574 Y169.943 E21.19575
G1 X166.156 Y170.772 E21.24041
G1 X165.37 Y171.584 E21.29478
G1 X164.7 Y171.968 E21.33192
G1 X164.006 Y172.188 E21.36693
G1 X152.101 Y172.234 E21.93951
G1 X151.321 Y172.078 E21.97776
G1 X150.827 Y171.857 E22.0038
G1 X149.912 Y172.123 E22.04963
G1 X146.423 Y172.133 E22.21746
G1 X145.207 Y171.769 E22.27848
G1 X145.031 Y171.685 E22.28786
G1 X144.47 Y171.257 E22.32183
G1 X143.912 Y170.619 E22.36255
G1 X143.585 Y169.982 E22.39702
G1 X143.387 Y169.256 E22.43318
G1 X143.362 Y163.99 E22.68649
G1 X140.732 Y163.981 E22.81301
G1 X139.894 Y163.766 E22.85464
G1 X139.077 Y163.294 E22.90001
G1 X138.876 Y163.127 E22.91257
G1 X138.231 Y162.347 E22.96124
G1 X137.84 Y161.401 E23.0105
G1 X137.764 Y160.834 E23.03802
G1 X137.764 Y146.315 E23.73634
G1 X138.128 Y145.103 E23.79716
G1 X138.212 Y144.928 E23.80652
G1 X138.551 Y144.483 E23.83343
G1 X138.855 Y144.715 F7200
G1 F1500
G1 X138.91 Y144.642 E23.8378
G1 X139.476 Y144.14 E23.87419
G1 X140.025 Y143.852 E23.90402
G1 X140.651 Y143.672 E23.93537
G1 X143.751 Y143.646 E24.08446
G1 X143.761 Y140.86 E24.21848
G1 X143.939 Y140.167 E24.25288
G1 X144.389 Y139.387 E24.29619
G1 X144.492 Y139.264 E24.30392
G1 X145.186 Y138.679 E24.34759
G1 X146.035 Y138.322 E24.39186
G1 X146.54 Y138.253 E24.41642
G1 X149.883 Y138.263 E24.57718
G1 X150.856 Y138.554 E24.62602
G1 X151.42 Y138.295 E24.65589
G1 X152.118 Y138.152 E24.69016
G1 X163.644 Y138.153 E25.2445
G1 X164.464 Y138.35 E25.28506
G1 X165.201 Y138.772 E25.32594
G1 X165.822 Y139.424 E25.36919
G1 X166.204 Y140.166 E25.40935
G1 X166.346 Y140.805 E25.44086
G1 X166.351 Y140.906 E25.44572
G1 X166.497 Y140.913 E25.45273
G1 X167.044 Y141.034 E25.47969
G1 X167.825 Y141.429 E25.52176
G1 X168.548 Y142.139 E25.57053
G1 X168.875 Y142.725 E25.60277
G1 X169.065 Y143.335 E25.63352
G1 X169.104 Y166.402 E26.74296
G1 X168.763 Y167.512 E26.79885
G1 X168.707 Y167.627 E26.80499
G1 X168.378 Y168.068 E26.83145
G1 X167.965 Y168.469 E26.85913
G1 X167.107 Y168.942 E26.90623
G1 X166.347 Y169.101 E26.94358
G1 X166.341 Y169.243 E26.95044
G1 X166.219 Y169.79 E26.9774
G1 X165.825 Y170.571 E27.01947
G1 X165.114 Y171.294 E27.06824
G1 X164.529 Y171.621 E27.10048
G1 X163.919 Y171.812 E27.13122
G1 X152.12 Y171.848 E27.69871
G1 X151.42 Y171.705 E27.73305
G1 X150.856 Y171.446 E27.76293
G1 X149.883 Y171.737 E27.81177
G1 X146.451 Y171.748 E27.97686
G1 X145.335 Y171.405 E28.03297
G1 X145.219 Y171.347 E28.03923
G1 X144.746 Y170.987 E28.06783
G1 X144.243 Y170.42 E28.10425
G1 X143.951 Y169.861 E28.13461
G1 X143.766 Y169.18 E28.16855
G1 X143.747 Y163.605 E28.43665
G1 X140.757 Y163.596 E28.58045
G1 X140.064 Y163.419 E28.61487
G1 X139.284 Y162.968 E28.65818
G1 X139.16 Y162.865 E28.66592
G1 X138.575 Y162.171 E28.70958
G1 X138.219 Y161.323 E28.75384
G1 X138.149 Y160.82 E28.77823
G1 X138.149 Y146.343 E29.47453
G1 X138.492 Y145.232 E29.53048
G1 X138.549 Y145.115 E29.53674
G1 X138.818 Y144.762 E29.55806
G1 X139.122 Y144.994 F7200
G1 F1500
G1 X139.181 Y144.917 E29.56273
G1 X139.678 Y144.469 E29.59488
G1 X140.151 Y144.217 E29.62065
G1 X140.732 Y144.05 E29.64976
G1 X144.135 Y144.03 E29.81343
G1 X144.147 Y140.885 E29.96469
G1 X144.286 Y140.337 E29.99188
G1 X144.714 Y139.594 E30.03311
G1 X144.755 Y139.546 E30.03617
G1 X145.365 Y139.021 E30.07484
G1 X146.114 Y138.701 E30.11405
G1 X146.553 Y138.638 E30.13537
G1 X149.854 Y138.648 E30.29413
G1 X150.674 Y138.895 E30.3353
G1 X150.878 Y139.019 E30.34679
G1 X151.032 Y138.898 E30.35625
G1 X151.522 Y138.668 E30.38226
G1 X152.138 Y138.538 E30.41257
G1 X163.621 Y138.539 E30.96486
G1 X164.299 Y138.7 E30.99836
G1 X164.944 Y139.061 E31.03394
G1 X165.492 Y139.625 E31.07176
G1 X165.849 Y140.32 E31.10931
G1 X165.965 Y140.867 E31.13621
G1 X165.97 Y141.285 E31.15635
G1 X166.432 Y141.293 E31.17858
G1 X166.937 Y141.406 E31.20347
G1 X167.578 Y141.726 E31.23792
G1 X168.225 Y142.352 E31.28123
G1 X168.528 Y142.895 E31.31111
G1 X168.688 Y143.42 E31.33752
G1 X168.719 Y166.373 E32.44146
G1 X168.4 Y167.381 E32.49231
G1 X168.372 Y167.436 E32.49531
G1 X168.095 Y167.805 E32.51748
G1 X167.755 Y168.145 E32.54059
G1 X166.946 Y168.59 E32.585
G1 X166.343 Y168.715 E32.61466
G1 X165.968 Y168.719 E32.63268
G1 X165.96 Y169.179 E32.6548
G1 X165.848 Y169.684 E32.67969
G1 X165.527 Y170.324 E32.71414
G1 X164.901 Y170.972 E32.75745
G1 X164.359 Y171.275 E32.78733
G1 X163.834 Y171.434 E32.81374
G1 X152.139 Y171.462 E33.37621
G1 X151.522 Y171.332 E33.40656
G1 X151.032 Y171.102 E33.43257
G1 X150.878 Y170.98 E33.44203
G1 X150.674 Y171.105 E33.45352
G1 X149.854 Y171.352 E33.4947
G1 X146.479 Y171.362 E33.65701
G1 X145.468 Y171.042 E33.70804
G1 X145.411 Y171.013 E33.7111
G1 X145.02 Y170.715 E33.73472
G1 X144.573 Y170.218 E33.76689
G1 X144.318 Y169.739 E33.79302
G1 X144.145 Y169.103 E33.82471
G1 X144.131 Y163.221 E34.1076
G1 X140.782 Y163.21 E34.26871
G1 X140.233 Y163.071 E34.29592
G1 X139.491 Y162.643 E34.33715
G1 X139.442 Y162.602 E34.34021
G1 X138.918 Y161.992 E34.37888
G1 X138.597 Y161.243 E34.41808
G1 X138.535 Y160.807 E34.43928
G1 X138.535 Y146.373 E35.13349
G1 X138.854 Y145.364 E35.1844
G1 X138.884 Y145.308 E35.18746
G1 X139.086 Y145.042 E35.20352
G1 X139.393 Y145.272 F7200
G1 F1500
G1 X139.455 Y145.189 E35.20851
G1 X139.883 Y144.797 E35.23644
G1 X140.277 Y144.582 E35.25804
G1 X140.813 Y144.428 E35.28484
G1 X144.519 Y144.414 E35.46311
G1 X144.532 Y140.911 E35.63158
G1 X144.652 Y140.461 E35.65396
G1 X145.031 Y139.817 E35.6899
G1 X145.594 Y139.333 E35.72561
G1 X146.195 Y139.079 E35.757
G1 X146.566 Y139.024 E35.77507
G1 X149.824 Y139.034 E35.93175
G1 X150.534 Y139.255 E35.9675
G1 X150.907 Y139.5 E35.98899
G1 X151.219 Y139.236 E36.00861
G1 X151.665 Y139.027 E36.03232
G1 X152.158 Y138.923 E36.05655
G1 X163.599 Y138.924 E36.60681
G1 X164.137 Y139.051 E36.6334
G1 X164.688 Y139.351 E36.66356
G1 X165.195 Y139.873 E36.69855
G1 X165.493 Y140.469 E36.73062
G1 X165.583 Y140.924 E36.75293
G1 X165.586 Y141.668 E36.78872
G1 X166.368 Y141.674 E36.82637
G1 X166.831 Y141.777 E36.84916
G1 X167.334 Y142.026 E36.87614
G1 X167.903 Y142.566 E36.91387
G1 X168.181 Y143.064 E36.94131
G1 X168.31 Y143.503 E36.9633
G1 X168.333 Y166.342 E38.06182
G1 X168.043 Y167.231 E38.10679
G1 X167.812 Y167.542 E38.12542
G1 X167.503 Y167.852 E38.1465
G1 X166.789 Y168.237 E38.18546
G1 X166.288 Y168.333 E38.21003
G1 X165.586 Y168.333 E38.2438
G1 X165.579 Y169.115 E38.2814
G1 X165.477 Y169.577 E38.30419
G1 X165.228 Y170.08 E38.33117
G1 X164.688 Y170.649 E38.3689
G1 X164.19 Y170.927 E38.39634
G1 X163.751 Y171.057 E38.41833
G1 X152.159 Y171.077 E38.97589
G1 X151.665 Y170.973 E39.00014
G1 X151.219 Y170.764 E39.02385
G1 X150.907 Y170.5 E39.04348
G1 X150.534 Y170.745 E39.06497
G1 X149.824 Y170.966 E39.10072
G1 X146.509 Y170.976 E39.26016
G1 X145.617 Y170.685 E39.30526
G1 X145.293 Y170.441 E39.32479
G1 X144.9 Y170.013 E39.35272
G1 X144.684 Y169.616 E39.3745
G1 X144.524 Y169.026 E39.40388
G1 X144.517 Y162.987 E39.69436
G1 X144.554 Y162.837 E39.7018
G1 X140.808 Y162.825 E39.88198
G1 X140.358 Y162.705 E39.90437
G1 X139.714 Y162.326 E39.94031
G1 X139.23 Y161.764 E39.97601
G1 X138.975 Y161.163 E40.00741
G1 X138.921 Y160.793 E40.0254
G1 X138.921 Y146.403 E40.71746
G1 X139.211 Y145.514 E40.76248
G1 X139.357 Y145.32 E40.77413
G1 X139.665 Y145.548 F7200
G1 F1500
G1 X139.731 Y145.459 E40.77947
G1 X140.092 Y145.122 E40.80321
G1 X140.405 Y144.946 E40.82047
G1 X140.893 Y144.806 E40.84491
G1 X144.903 Y144.799 E41.03778
G1 X144.918 Y140.939 E41.22344
G1 X145.016 Y140.589 E41.2409
G1 X145.309 Y140.086 E41.2689
G1 X145.775 Y139.675 E41.2988
G1 X146.278 Y139.456 E41.32516
G1 X146.58 Y139.41 E41.33988
G1 X149.793 Y139.419 E41.49438
G1 X150.388 Y139.613 E41.52452
G1 X150.672 Y139.806 E41.54103
G1 X150.905 Y140.043 E41.55701
G1 X150.965 Y139.963 E41.56183
G1 X151.407 Y139.573 E41.59017
G1 X151.808 Y139.386 E41.61148
G1 X152.178 Y139.309 E41.62963
G1 X163.575 Y139.31 E42.17782
G1 X164.02 Y139.419 E42.19982
G1 X164.474 Y139.673 E42.22486
G1 X164.895 Y140.117 E42.25427
G1 X165.12 Y140.572 E42.27868
G1 X165.198 Y140.945 E42.29701
G1 X165.201 Y142.052 E42.35029
G1 X166.309 Y142.056 E42.40357
G1 X166.682 Y142.134 E42.42189
G1 X167.137 Y142.359 E42.4463
G1 X167.581 Y142.779 E42.47571
G1 X167.833 Y143.232 E42.50065
G1 X167.932 Y143.582 E42.51812
G1 X167.947 Y166.312 E43.61138
G1 X167.714 Y167.028 E43.64759
G1 X167.529 Y167.28 E43.66262
G1 X167.251 Y167.559 E43.68159
G1 X166.636 Y167.881 E43.71496
G1 X166.271 Y167.947 E43.73283
G1 X165.201 Y167.947 E43.78427
G1 X165.198 Y169.055 E43.83755
G1 X165.12 Y169.428 E43.85587
G1 X164.895 Y169.883 E43.88028
