; generated by SuperSlicer 2.4 on 2023-05-17 at 14:38:42 UTC

; 

; external perimeters extrusion width = 0.42mm
; perimeters extrusion width = 0.45mm
; infill extrusion width = 0.45mm
; solid infill extrusion width = 0.45mm
; top infill extrusion width = 0.42mm
; support material extrusion width = 0.30mm

; external perimeters extrusion width = 0.42mm
; perimeters extrusion width = 0.45mm
; infill extrusion width = 0.45mm
; solid infill extrusion width = 0.45mm
; top infill extrusion width = 0.42mm
; support material extrusion width = 0.30mm


;TYPE:Custom
START_PRINT EXTRUDER_TEMP=220 BED_TEMP=90 SIZE=124.978_135.675_179.486_174.325
M107
G21 ; set units to millimeters
G90 ; use absolute coordinates
M82 ; use absolute distances for extrusion
G92 E0
; Filament gcode
;_TOOLCHANGE 0
M104 S220 ; set temperature
M109 S220 ; set temperature and wait for it to be reached
M190 S90 ; set bed temperature and wait for it to be reached
M107
;LAYER_CHANGE
;Z:0.2
;HEIGHT:0.2
;LAYER:0
G1 Z0.2 F7200
G1 E-4 F2700
M204 S300
G1 X132.655 Y137.808 F7200
G1 E0 F2700
;TYPE:Skirt
;WIDTH:0.45
G1 F1500
G1 X133.488 Y137.226 E0.03442
G1 X134.425 Y136.837 E0.06874
G1 X135.482 Y136.654 E0.10508
G1 X152.601 Y136.654 E0.68452
G1 X153.546 Y136.799 E0.71687
G1 X154.32 Y137.076 E0.74471
G1 X154.608 Y137.246 E0.75604
G1 X155.082 Y136.812 E0.77779
G1 X155.805 Y136.365 E0.80656
G1 X156.662 Y136.036 E0.83764
G1 X157.569 Y135.879 E0.86882
G1 X174.879 Y135.88 E1.45474
G1 X175.785 Y136.04 E1.48588
G1 X176.669 Y136.386 E1.518
G1 X177.429 Y136.877 E1.54864
G1 X178.088 Y137.494 E1.5792
G1 X178.848 Y138.641 E1.62576
G1 X179.139 Y139.459 E1.65515
G1 X179.278 Y140.321 E1.68471
G1 X179.276 Y152.377 E2.09279
G1 X179.115 Y153.257 E2.12308
G1 X178.806 Y154.041 E2.1516
G1 X178.45 Y154.595 E2.1739
G1 X178.776 Y155.107 E2.19447
G1 X179.087 Y155.88 E2.22267
G1 X179.269 Y156.817 E2.25497
G1 X179.283 Y168.868 E2.66288
G1 X179.026 Y170.143 E2.70691
G1 X178.775 Y170.721 E2.72824
G1 X178.457 Y171.26 E2.74943
G1 X177.684 Y172.129 E2.7888
G1 X176.741 Y172.794 E2.82785
G1 X175.79 Y173.178 E2.86256
G1 X174.784 Y173.346 E2.89709
G1 X157.631 Y173.346 E3.4777
G1 X156.541 Y173.148 E3.5152
G1 X155.772 Y172.838 E3.54325
G1 X155.646 Y172.763 E3.54821
G1 X155.405 Y173.011 E3.55991
G1 X154.496 Y173.619 E3.59693
G1 X153.639 Y173.956 E3.62812
G1 X152.692 Y174.121 E3.66065
G1 X134.916 Y174.066 E4.26234
G1 X134.203 Y173.872 E4.28734
G1 X133.552 Y173.591 E4.31136
G1 X132.658 Y172.975 E4.3481
G1 X132.067 Y172.371 E4.37671
G1 X131.595 Y171.691 E4.40474
G1 X131.214 Y170.83 E4.43659
G1 X131.011 Y169.907 E4.46861
G1 X130.989 Y167.836 E4.53871
G1 X130.937 Y167.665 E4.54475
G1 X130.802 Y166.814 E4.5739
G1 X130.8 Y165.816 E4.60768
G1 X129.484 Y165.807 E4.65221
G1 X128.541 Y165.616 E4.68479
G1 X127.748 Y165.286 E4.71385
G1 X127.011 Y164.803 E4.74367
G1 X126.336 Y164.155 E4.77535
G1 X125.754 Y163.321 E4.80977
G1 X125.365 Y162.384 E4.84409
G1 X125.182 Y161.327 E4.88042
G1 X125.182 Y146.681 E5.37617
G1 X125.393 Y145.532 E5.4157
G1 X125.688 Y144.819 E5.44181
G1 X126.103 Y144.146 E5.46858
G1 X126.801 Y143.389 E5.50343
G1 X127.66 Y142.776 E5.53915
G1 X128.513 Y142.407 E5.57061
G1 X129.387 Y142.217 E5.6009
G1 X130.995 Y142.2 E5.65532
G1 X131.01 Y140.878 E5.70009
G1 X131.205 Y139.978 E5.73125
G1 X131.529 Y139.209 E5.7595
G1 X132.008 Y138.481 E5.789
G1 X132.613 Y137.852 E5.81853
G1 X132.905 Y138.135 F7200
G1 F1500
G1 X132.933 Y138.106 E5.81989
G1 X133.702 Y137.573 E5.85155
G1 X134.558 Y137.222 E5.88288
G1 X135.5 Y137.061 E5.9152
G1 X152.586 Y137.061 E6.49354
G1 X153.427 Y137.189 E6.52234
G1 X154.163 Y137.453 E6.54882
G1 X154.66 Y137.754 E6.56848
G1 X155.314 Y137.147 E6.59868
G1 X155.97 Y136.737 E6.62486
G1 X156.752 Y136.433 E6.65326
G1 X157.587 Y136.286 E6.68197
G1 X174.861 Y136.287 E7.26667
G1 X175.693 Y136.437 E7.29529
G1 X176.5 Y136.757 E7.32466
G1 X177.192 Y137.208 E7.35262
G1 X177.792 Y137.774 E7.38055
G1 X178.473 Y138.801 E7.42228
G1 X178.74 Y139.543 E7.44897
G1 X178.871 Y140.337 E7.47621
G1 X178.869 Y152.358 E7.88311
G1 X178.729 Y153.126 E7.90952
G1 X178.435 Y153.872 E7.93667
G1 X177.964 Y154.594 E7.96584
G1 X178.406 Y155.277 E7.99338
G1 X178.702 Y156.014 E8.02026
G1 X178.862 Y156.837 E8.04863
G1 X178.875 Y168.848 E8.45519
G1 X178.644 Y170.001 E8.49501
G1 X178.417 Y170.525 E8.51433
G1 X178.116 Y171.036 E8.53441
G1 X177.396 Y171.84 E8.57094
G1 X176.527 Y172.447 E8.60683
G1 X175.7 Y172.78 E8.63699
G1 X174.767 Y172.939 E8.66905
G1 X157.649 Y172.939 E9.24845
G1 X156.635 Y172.752 E9.28335
G1 X155.942 Y172.467 E9.30871
G1 X155.577 Y172.243 E9.3232
G1 X155.159 Y172.686 E9.34383
G1 X154.325 Y173.249 E9.37787
G1 X153.547 Y173.559 E9.40623
G1 X152.675 Y173.714 E9.43622
G1 X134.996 Y173.665 E10.03462
G1 X134.351 Y173.492 E10.05723
G1 X133.731 Y173.226 E10.08006
G1 X132.906 Y172.652 E10.11408
G1 X132.391 Y172.124 E10.13906
G1 X131.958 Y171.506 E10.16457
G1 X131.607 Y170.723 E10.19365
G1 X131.413 Y169.84 E10.22424
G1 X131.396 Y167.771 E10.29428
G1 X131.337 Y167.586 E10.30085
G1 X131.207 Y166.766 E10.32894
G1 X131.207 Y165.411 E10.37481
G1 X129.545 Y165.404 E10.43105
G1 X128.642 Y165.221 E10.46226
G1 X127.924 Y164.918 E10.48864
G1 X127.251 Y164.474 E10.51592
G1 X126.634 Y163.876 E10.545
G1 X126.101 Y163.107 E10.57666
G1 X125.75 Y162.251 E10.60799
G1 X125.589 Y161.309 E10.64031
G1 X125.589 Y146.699 E11.13484
G1 X125.778 Y145.667 E11.17037
G1 X126.043 Y145.018 E11.19411
G1 X126.416 Y144.408 E11.21832
G1 X127.086 Y143.681 E11.25177
G1 X127.877 Y143.121 E11.28458
G1 X128.654 Y142.789 E11.31318
G1 X129.452 Y142.619 E11.34078
G1 X131.398 Y142.604 E11.40667
G1 X131.412 Y140.943 E11.46289
G1 X131.598 Y140.083 E11.49269
G1 X131.896 Y139.386 E11.51834
G1 X132.337 Y138.721 E11.54534
G1 X132.864 Y138.178 E11.57095
G1 X133.156 Y138.461 F7200
G1 F1500
G1 X133.211 Y138.404 E11.57364
G1 X133.914 Y137.922 E11.60249
G1 X134.69 Y137.608 E11.63083
G1 X135.517 Y137.468 E11.6592
G1 X152.571 Y137.468 E12.23645
G1 X153.308 Y137.579 E12.2617
G1 X154.006 Y137.829 E12.28678
G1 X154.763 Y138.296 E12.31688
G1 X154.949 Y138.041 E12.32756
G1 X155.576 Y137.459 E12.35652
G1 X156.168 Y137.093 E12.38006
G1 X156.843 Y136.83 E12.4046
G1 X157.605 Y136.693 E12.4308
G1 X174.843 Y136.694 E13.01427
G1 X175.6 Y136.833 E13.04032
G1 X176.329 Y137.127 E13.06693
G1 X176.953 Y137.538 E13.09222
G1 X177.495 Y138.053 E13.11754
G1 X178.099 Y138.963 E13.15452
G1 X178.342 Y139.63 E13.17852
G1 X178.464 Y140.354 E13.20339
G1 X178.462 Y152.34 E13.60908
G1 X178.333 Y153.032 E13.63292
G1 X178.065 Y153.702 E13.65735
G1 X177.641 Y154.346 E13.68345
G1 X177.406 Y154.588 E13.69486
G1 X177.618 Y154.809 E13.70524
G1 X178.036 Y155.448 E13.73107
G1 X178.317 Y156.148 E13.75662
G1 X178.455 Y156.857 E13.78105
G1 X178.468 Y168.828 E14.18627
G1 X178.262 Y169.859 E14.22188
G1 X178.049 Y170.352 E14.24003
G1 X177.776 Y170.811 E14.25811
G1 X177.11 Y171.55 E14.29179
G1 X176.315 Y172.099 E14.32451
G1 X175.57 Y172.394 E14.3516
G1 X174.75 Y172.532 E14.37977
G1 X157.668 Y172.532 E14.95796
G1 X156.77 Y172.367 E14.98886
G1 X156.112 Y172.097 E15.01292
G1 X155.596 Y171.775 E15.03351
G1 X155.519 Y171.708 E15.03698
G1 X154.911 Y172.363 E15.06721
G1 X154.153 Y172.88 E15.09827
G1 X153.453 Y173.162 E15.12379
G1 X152.657 Y173.307 E15.1512
G1 X135.076 Y173.265 E15.74629
G1 X134.471 Y173.103 E15.7675
G1 X133.913 Y172.86 E15.78811
G1 X133.156 Y172.33 E15.81939
G1 X132.694 Y171.852 E15.84187
G1 X132.321 Y171.321 E15.86386
G1 X132 Y170.614 E15.89012
G1 X131.815 Y169.773 E15.91927
G1 X131.802 Y167.704 E15.98932
G1 X131.736 Y167.505 E15.99643
G1 X131.614 Y166.75 E16.02231
G1 X131.614 Y165.005 E16.08138
G1 X129.606 Y165.001 E16.14932
G1 X128.743 Y164.826 E16.17915
G1 X128.101 Y164.551 E16.20279
G1 X127.521 Y164.168 E16.22632
G1 X126.932 Y163.598 E16.25407
G1 X126.45 Y162.895 E16.28291
G1 X126.136 Y162.119 E16.31125
G1 X125.996 Y161.292 E16.33962
G1 X125.996 Y146.718 E16.83294
G1 X126.174 Y145.762 E16.86585
G1 X126.413 Y145.188 E16.88689
G1 X126.73 Y144.667 E16.90754
G1 X127.34 Y143.999 E16.93815
G1 X128.059 Y143.486 E16.96805
G1 X128.759 Y143.183 E16.99388
G1 X129.516 Y143.021 E17.02008
G1 X131.803 Y143.009 E17.09749
G1 X131.815 Y141.009 E17.1652
G1 X131.992 Y140.188 E17.19361
G1 X132.263 Y139.565 E17.21663
G1 X132.643 Y138.991 E17.23991
G1 X133.114 Y138.504 E17.26286
G1 X133.407 Y138.787 F7200
G1 F1500
G1 X133.489 Y138.702 E17.26688
G1 X134.125 Y138.271 E17.29287
G1 X134.781 Y138.006 E17.31683
G1 X135.534 Y137.875 E17.3427
G1 X152.556 Y137.875 E17.91886
G1 X153.19 Y137.969 E17.94056
G1 X153.849 Y138.205 E17.96424
G1 X154.499 Y138.606 E17.99012
G1 X154.821 Y138.916 E18.00523
G1 X155.241 Y138.325 E18.02978
G1 X155.838 Y137.771 E18.05734
G1 X156.365 Y137.45 E18.07821
G1 X156.936 Y137.227 E18.09898
G1 X157.624 Y137.1 E18.12265
G1 X174.789 Y137.098 E18.70367
G1 X175.467 Y137.219 E18.72699
G1 X176.158 Y137.497 E18.75217
G1 X176.712 Y137.866 E18.77473
G1 X177.197 Y138.331 E18.79748
G1 X177.725 Y139.127 E18.8298
G1 X177.944 Y139.717 E18.85112
G1 X178.057 Y140.372 E18.87359
G1 X178.055 Y152.32 E19.27804
G1 X177.937 Y152.936 E19.29924
G1 X177.695 Y153.53 E19.32095
G1 X177.313 Y154.104 E19.3443
G1 X176.833 Y154.586 E19.36733
G1 X177.29 Y155.05 E19.38937
G1 X177.666 Y155.62 E19.4125
G1 X177.922 Y156.247 E19.43542
G1 X178.048 Y156.877 E19.45717
G1 X178.061 Y168.808 E19.86103
G1 X177.879 Y169.719 E19.89245
G1 X177.692 Y170.156 E19.90855
G1 X177.437 Y170.586 E19.92548
G1 X176.825 Y171.258 E19.95625
G1 X176.104 Y171.75 E19.98578
G1 X175.443 Y172.007 E20.00981
G1 X174.733 Y172.125 E20.03416
G1 X157.686 Y172.125 E20.61116
G1 X156.904 Y171.982 E20.63809
G1 X156.313 Y171.742 E20.65967
G1 X155.828 Y171.44 E20.679
G1 X155.444 Y171.083 E20.69677
G1 X155.249 Y171.4 E20.70939
G1 X154.662 Y172.039 E20.73876
G1 X153.942 Y172.531 E20.76826
G1 X153.322 Y172.776 E20.79082
G1 X152.639 Y172.9 E20.81432
G1 X135.155 Y172.865 E21.40615
G1 X134.619 Y172.724 E21.42491
G1 X134.094 Y172.495 E21.44429
G1 X133.434 Y172.032 E21.47157
G1 X133.018 Y171.605 E21.49176
G1 X132.665 Y171.103 E21.51254
G1 X132.38 Y170.467 E21.53613
G1 X132.222 Y169.749 E21.56099
G1 X132.209 Y167.634 E21.6326
G1 X132.135 Y167.421 E21.64024
G1 X132.021 Y166.733 E21.66383
G1 X132.021 Y164.598 E21.73609
G1 X129.627 Y164.594 E21.81711
G1 X128.883 Y164.443 E21.84283
G1 X128.308 Y164.2 E21.86395
G1 X127.79 Y163.862 E21.88488
G1 X127.23 Y163.32 E21.91127
G1 X126.798 Y162.684 E21.93727
G1 X126.534 Y162.028 E21.96123
G1 X126.403 Y161.275 E21.98709
G1 X126.403 Y146.737 E22.47919
G1 X126.559 Y145.898 E22.50807
G1 X126.77 Y145.385 E22.52685
G1 X127.046 Y144.926 E22.54498
G1 X127.596 Y144.317 E22.57276
G1 X128.24 Y143.85 E22.59969
G1 X128.901 Y143.565 E22.62406
G1 X129.579 Y143.424 E22.64747
G1 X132.125 Y143.415 E22.73367
G1 X132.209 Y143.145 E22.74324
G1 X132.222 Y141.032 E22.81476
G1 X132.374 Y140.331 E22.83906
G1 X132.613 Y139.773 E22.85961
G1 X132.949 Y139.26 E22.88034
G1 X133.365 Y138.83 E22.9006
G1 X133.657 Y139.109 F7200
G1 F1500
G1 X133.736 Y139.027 E22.90448
G1 X134.335 Y138.62 E22.92899
G1 X134.911 Y138.392 E22.94997
G1 X135.552 Y138.282 E22.97195
G1 X152.541 Y138.282 E23.54703
G1 X153.072 Y138.359 E23.56518
G1 X153.691 Y138.581 E23.58743
G1 X154.265 Y138.94 E23.61035
G1 X154.793 Y139.459 E23.63542
G1 X154.933 Y139.663 E23.64379
G1 X155.15 Y139.155 E23.66249
G1 X155.535 Y138.608 E23.68513
G1 X156.069 Y138.107 E23.70992
G1 X156.53 Y137.823 E23.72823
G1 X157.066 Y137.613 E23.74771
G1 X157.678 Y137.504 E23.76875
G1 X174.77 Y137.505 E24.34732
G1 X175.373 Y137.616 E24.36806
G1 X175.984 Y137.865 E24.3904
G1 X176.469 Y138.194 E24.41023
G1 X176.898 Y138.609 E24.43044
G1 X177.353 Y139.292 E24.45821
G1 X177.546 Y139.807 E24.47684
G1 X177.65 Y140.39 E24.49687
G1 X177.648 Y152.301 E24.90005
G1 X177.552 Y152.803 E24.91734
G1 X177.344 Y153.323 E24.93632
G1 X177.01 Y153.831 E24.95689
G1 X176.391 Y154.453 E24.98659
G1 X176.176 Y154.602 E24.99543
G1 X176.478 Y154.806 E25.00777
G1 X176.961 Y155.291 E25.03094
G1 X177.315 Y155.828 E25.05271
G1 X177.527 Y156.347 E25.0717
G1 X177.641 Y156.898 E25.09074
G1 X177.654 Y168.789 E25.49322
G1 X177.497 Y169.578 E25.52046
G1 X177.323 Y169.983 E25.53537
G1 X177.098 Y170.359 E25.55022
G1 X176.541 Y170.965 E25.57807
G1 X175.897 Y171.399 E25.60438
G1 X175.317 Y171.619 E25.62536
G1 X174.716 Y171.718 E25.64597
G1 X157.705 Y171.718 E26.22177
G1 X156.999 Y171.586 E26.24607
G1 X156.484 Y171.373 E26.26494
G1 X156.062 Y171.107 E26.28183
G1 X155.523 Y170.598 E26.30692
G1 X155.341 Y170.335 E26.31774
G1 X155.16 Y170.764 E26.33348
G1 X154.935 Y171.14 E26.34833
G1 X154.378 Y171.746 E26.37618
G1 X153.734 Y172.18 E26.40249
G1 X153.194 Y172.389 E26.42208
G1 X152.586 Y172.496 E26.44296
G1 X135.234 Y172.465 E27.03033
G1 X134.738 Y172.334 E27.04766
G1 X134.276 Y172.131 E27.06476
G1 X133.713 Y171.734 E27.08808
G1 X133.321 Y171.333 E27.10706
G1 X133.01 Y170.886 E27.12548
G1 X132.76 Y170.32 E27.14642
G1 X132.629 Y169.726 E27.16704
G1 X132.616 Y167.561 E27.24031
G1 X132.533 Y167.334 E27.24847
G1 X132.428 Y166.716 E27.2697
G1 X132.428 Y164.192 E27.35513
G1 X129.648 Y164.187 E27.44922
G1 X129.021 Y164.06 E27.47089
G1 X128.513 Y163.848 E27.48951
G1 X128.057 Y163.554 E27.50786
G1 X127.555 Y163.073 E27.53141
G1 X127.148 Y162.474 E27.55593
G1 X126.92 Y161.898 E27.57691
G1 X126.81 Y161.258 E27.59889
G1 X126.81 Y146.755 E28.08978
G1 X126.944 Y146.032 E28.11466
G1 X127.128 Y145.579 E28.13124
G1 X127.362 Y145.183 E28.14678
G1 X127.884 Y144.605 E28.17314
G1 X128.424 Y144.214 E28.19572
G1 X129.005 Y143.959 E28.2172
G1 X129.641 Y143.827 E28.23919
G1 X132.459 Y143.821 E28.33459
G1 X132.537 Y143.431 E28.34805
G1 X132.616 Y143.219 E28.35571
G1 X132.629 Y141.056 E28.42893
G1 X132.756 Y140.472 E28.44917
G1 X132.965 Y139.979 E28.46729
G1 X133.256 Y139.528 E28.48546
G1 X133.615 Y139.153 E28.50304
G1 X133.909 Y139.434 F7200
G1 F1500
G1 X134.015 Y139.324 E28.5082
G1 X134.543 Y138.971 E28.52971
G1 X135.039 Y138.779 E28.54771
G1 X135.569 Y138.689 E28.5659
G1 X152.527 Y138.689 E29.13992
G1 X152.956 Y138.75 E29.15459
G1 X153.496 Y138.939 E29.17395
G1 X153.996 Y139.246 E29.1938
G1 X154.492 Y139.734 E29.21738
G1 X154.781 Y140.17 E29.23506
G1 X154.974 Y140.637 E29.25218
G1 X155.076 Y141.148 E29.26983
G1 X155.082 Y142.818 E29.32633
G1 X155.107 Y142.711 E29.33004
G1 X155.184 Y142.517 E29.33709
G1 X155.191 Y140.368 E29.40985
G1 X155.294 Y139.854 E29.42759
G1 X155.496 Y139.371 E29.44531
G1 X155.856 Y138.859 E29.46648
G1 X156.331 Y138.419 E29.48839
G1 X156.725 Y138.18 E29.504
G1 X157.193 Y138.001 E29.52097
G1 X157.73 Y137.908 E29.5394
G1 X174.751 Y137.912 E30.11556
G1 X175.277 Y138.012 E30.13366
G1 X175.808 Y138.233 E30.15314
G1 X176.224 Y138.519 E30.17024
G1 X176.599 Y138.885 E30.18796
G1 X176.981 Y139.459 E30.21128
G1 X177.149 Y139.899 E30.22726
G1 X177.243 Y140.408 E30.24477
G1 X177.244 Y152.245 E30.64545
G1 X177.165 Y152.672 E30.66015
G1 X176.991 Y153.12 E30.6764
G1 X176.707 Y153.559 E30.6941
G1 X176.117 Y154.151 E30.7224
G1 X175.716 Y154.42 E30.73873
G1 X175.248 Y154.61 E30.75583
G1 X175.764 Y154.817 E30.77465
G1 X176.204 Y155.108 E30.7925
G1 X176.658 Y155.563 E30.81426
G1 X176.964 Y156.033 E30.83323
G1 X177.133 Y156.45 E30.84846
G1 X177.234 Y156.92 E30.86473
G1 X177.247 Y168.769 E31.2658
G1 X177.114 Y169.437 E31.28886
G1 X176.954 Y169.81 E31.30258
G1 X176.76 Y170.132 E31.31531
G1 X176.292 Y170.642 E31.33875
G1 X175.728 Y171.028 E31.36189
G1 X175.229 Y171.221 E31.38
G1 X174.699 Y171.311 E31.39818
G1 X157.725 Y171.311 E31.97276
G1 X157.097 Y171.19 E31.99439
G1 X156.685 Y171.018 E32.0095
G1 X156.327 Y170.796 E32.02376
G1 X155.819 Y170.317 E32.04739
G1 X155.47 Y169.797 E32.06859
G1 X155.294 Y169.364 E32.0844
G1 X155.196 Y168.9 E32.10046
G1 X155.185 Y166.702 E32.17487
G1 X155.105 Y166.503 E32.18211
G1 X155.08 Y166.386 E32.18619
G1 X155.076 Y169.636 E32.2962
G1 X154.95 Y170.221 E32.31645
G1 X154.792 Y170.591 E32.33008
G1 X154.597 Y170.913 E32.34281
G1 X154.129 Y171.423 E32.36625
G1 X153.565 Y171.809 E32.38939
G1 X153.066 Y172.002 E32.4075
G1 X152.535 Y172.092 E32.42571
G1 X135.311 Y172.064 E33.00875
G1 X134.887 Y171.955 E33.02355
G1 X134.459 Y171.766 E33.03941
G1 X133.99 Y171.436 E33.05882
