; generated by SuperSlicer 2.4 on 2023-05-18 at 08:24:09 UTC

; 

; external perimeters extrusion width = 0.42mm
; perimeters extrusion width = 0.45mm
; infill extrusion width = 0.45mm
; solid infill extrusion width = 0.45mm
; top infill extrusion width = 0.42mm
; support material extrusion width = 0.30mm

; external perimeters extrusion width = 0.42mm
; perimeters extrusion width = 0.45mm
; infill extrusion width = 0.45mm
; solid infill extrusion width = 0.45mm
; top infill extrusion width = 0.42mm
; support material extrusion width = 0.30mm

; external perimeters extrusion width = 0.42mm
; perimeters extrusion width = 0.45mm
; infill extrusion width = 0.45mm
; solid infill extrusion width = 0.45mm
; top infill extrusion width = 0.42mm
; support material extrusion width = 0.30mm

; external perimeters extrusion width = 0.42mm
; perimeters extrusion width = 0.45mm
; infill extrusion width = 0.45mm
; solid infill extrusion width = 0.45mm
; top infill extrusion width = 0.42mm
; support material extrusion width = 0.30mm


;TYPE:Custom
START_PRINT EXTRUDER_TEMP=220 BED_TEMP=90 SIZE=101.198_136.214_206.055_173.786
M107
G21 ; set units to millimeters
G90 ; use absolute coordinates
M82 ; use absolute distances for extrusion
G92 E0
; Filament gcode
;_TOOLCHANGE 0
M104 S220 ; set temperature
M109 S220 ; set temperature and wait for it to be reached
M190 S90 ; set bed temperature and wait for it to be reached
M107
;LAYER_CHANGE
;Z:0.3
;HEIGHT:0.3
;LAYER:0
G1 Z0.3 F7200
G1 E-4 F2700
M204 S300
G1 X109.178 Y137.465 F7200
G1 E0 F2700
;TYPE:Skirt
;WIDTH:0.45
G1 F1500
G1 X110.517 Y136.917 E0.06958
G1 X111.277 Y136.82 E0.10646
G1 X114.778 Y136.831 E0.27486
G1 X115.528 Y137.028 E0.31214
G1 X115.822 Y136.909 E0.32739
G1 X116.828 Y136.72 E0.37662
G1 X128.554 Y136.727 E0.94062
G1 X129.654 Y136.964 E0.99476
G1 X130.524 Y137.387 E1.04125
G1 X130.989 Y137.724 E1.06888
G1 X131.39 Y137.378 E1.09433
G1 X132.509 Y136.864 E1.15356
G1 X133.503 Y136.684 E1.20214
G1 X137.075 Y136.69 E1.37397
G1 X137.826 Y136.888 E1.41131
G1 X138.12 Y136.769 E1.42655
G1 X139.124 Y136.579 E1.47572
G1 X150.828 Y136.577 E2.03862
G1 X152.395 Y137.006 E2.11676
G1 X153.36 Y137.633 E2.17212
G1 X153.811 Y138.115 E2.20385
G1 X154.115 Y137.813 E2.22447
G1 X155.063 Y137.264 E2.27715
G1 X156.35 Y136.928 E2.34116
G1 X160.082 Y136.922 E2.52062
G1 X160.839 Y137.121 E2.5583
G1 X161.134 Y137.001 E2.57357
G1 X162.138 Y136.812 E2.62274
G1 X173.75 Y136.809 E3.18121
G1 X175 Y137.067 E3.24263
G1 X175.767 Y137.438 E3.28361
G1 X176.343 Y137.835 E3.31723
G1 X177.27 Y138.871 E3.3841
G1 X177.655 Y139.643 E3.42559
G1 X177.747 Y139.331 E3.4412
G1 X178.32 Y138.33 E3.49667
G1 X178.64 Y137.947 E3.52069
G1 X179.589 Y137.165 E3.57982
G1 X180.876 Y136.623 E3.64698
G1 X181.702 Y136.508 E3.68713
G1 X185.21 Y136.518 E3.85582
G1 X185.959 Y136.716 E3.89311
G1 X186.253 Y136.596 E3.90835
G1 X187.258 Y136.407 E3.95755
G1 X198.946 Y136.408 E4.5197
G1 X200.178 Y136.687 E4.58045
G1 X201.311 Y137.311 E4.64267
G1 X202.333 Y138.382 E4.71383
G1 X202.867 Y139.433 E4.77057
G1 X203.149 Y139.524 E4.78481
G1 X203.979 Y140 E4.83082
G1 X204.859 Y140.831 E4.88903
G1 X205.562 Y142.039 E4.95625
G1 X205.863 Y143.37 E5.02189
G1 X205.786 Y166.821 E6.1498
G1 X205.462 Y167.784 E6.19868
G1 X204.861 Y168.757 E6.25367
G1 X203.82 Y169.707 E6.32146
G1 X202.854 Y170.189 E6.37338
G1 X202.826 Y170.274 E6.37771
G1 X202.357 Y171.175 E6.42652
G1 X201.914 Y171.73 E6.46068
G1 X201.141 Y172.408 E6.51016
G1 X199.607 Y173.092 E6.59093
G1 X198.833 Y173.191 E6.62843
G1 X187.258 Y173.188 E7.18519
G1 X186.253 Y172.999 E7.23436
G1 X185.959 Y172.88 E7.2496
G1 X185.205 Y173.077 E7.28708
G1 X181.486 Y173.07 E7.46598
G1 X180.268 Y172.771 E7.52631
G1 X179.182 Y172.148 E7.58654
G1 X178.348 Y171.308 E7.64346
G1 X177.887 Y170.534 E7.68677
G1 X177.743 Y170.579 E7.69402
G1 X177.212 Y171.62 E7.75021
G1 X176.151 Y172.72 E7.82374
G1 X175.09 Y173.3 E7.88187
G1 X173.888 Y173.586 E7.94133
G1 X162.14 Y173.593 E8.50634
G1 X161.134 Y173.404 E8.55559
G1 X160.839 Y173.284 E8.5709
G1 X160.077 Y173.483 E8.6088
G1 X156.256 Y173.465 E8.79257
G1 X154.873 Y173.054 E8.86196
G1 X154.004 Y172.503 E8.91145
G1 X153.57 Y172.067 E8.94105
G1 X152.859 Y172.678 E8.9861
G1 X151.905 Y173.133 E9.03695
G1 X150.781 Y173.36 E9.0921
G1 X139.125 Y173.36 E9.6527
G1 X138.12 Y173.171 E9.7019
G1 X137.826 Y173.052 E9.71716
G1 X137.071 Y173.249 E9.75467
G1 X133.422 Y173.25 E9.93017
G1 X132.343 Y173.022 E9.98322
G1 X131.431 Y172.588 E10.03179
G1 X131.122 Y172.334 E10.05104
G1 X130.663 Y172.753 E10.08093
G1 X129.77 Y173.213 E10.12927
G1 X128.616 Y173.487 E10.18631
G1 X116.866 Y173.504 E10.75143
G1 X115.802 Y173.305 E10.80349
G1 X115.527 Y173.191 E10.8178
G1 X114.779 Y173.389 E10.85504
G1 X111.121 Y173.391 E11.03096
G1 X109.855 Y173.091 E11.09355
G1 X108.758 Y172.465 E11.15429
G1 X108.07 Y171.807 E11.20008
G1 X107.531 Y171.039 E11.2452
G1 X107.114 Y169.921 E11.30262
G1 X107 Y169.292 E11.33336
G1 X106.991 Y165.252 E11.52767
G1 X105.344 Y165.236 E11.60687
G1 X104.218 Y164.938 E11.66292
G1 X103.241 Y164.382 E11.71696
G1 X102.8 Y164.012 E11.74463
G1 X102.036 Y163.074 E11.80284
G1 X101.488 Y161.737 E11.87236
G1 X101.391 Y160.982 E11.90895
G1 X101.391 Y146.458 E12.60749
G1 X101.65 Y145.204 E12.66908
G1 X102.228 Y144.11 E12.72861
G1 X102.997 Y143.28 E12.78301
G1 X103.925 Y142.666 E12.83652
G1 X105.267 Y142.248 E12.90412
G1 X107 Y142.232 E12.98748
G1 X107.016 Y140.773 E13.05768
G1 X107.314 Y139.647 E13.11368
G1 X107.869 Y138.67 E13.16772
G1 X108.239 Y138.23 E13.19539
G1 X109.131 Y137.503 E13.25073
G1 X109.375 Y137.802 F7200
G1 F1500
G1 X109.399 Y137.782 E13.25223
G1 X110.591 Y137.296 E13.31413
G1 X111.289 Y137.206 E13.34798
G1 X114.752 Y137.217 E13.51455
G1 X115.555 Y137.435 E13.55459
G1 X115.914 Y137.284 E13.57332
G1 X116.846 Y137.105 E13.61895
G1 X128.534 Y137.112 E14.18109
G1 X129.507 Y137.321 E14.22897
G1 X130.34 Y137.726 E14.2735
G1 X130.861 Y138.109 E14.30462
G1 X130.988 Y138.241 E14.31344
G1 X131.577 Y137.717 E14.35135
G1 X132.647 Y137.225 E14.40802
G1 X133.519 Y137.07 E14.4506
G1 X137.049 Y137.076 E14.62038
G1 X137.853 Y137.295 E14.66047
G1 X138.212 Y137.144 E14.6792
G1 X139.143 Y136.965 E14.72477
G1 X150.802 Y136.962 E15.28555
G1 X152.21 Y137.346 E15.35572
G1 X153.13 Y137.943 E15.40847
G1 X153.802 Y138.677 E15.45633
G1 X154.331 Y138.134 E15.49277
G1 X155.233 Y137.611 E15.54293
G1 X156.375 Y137.313 E15.5997
G1 X160.056 Y137.308 E15.77674
G1 X160.867 Y137.527 E15.81712
G1 X161.226 Y137.376 E15.83588
G1 X162.157 Y137.198 E15.88145
G1 X173.73 Y137.195 E16.4381
G1 X174.854 Y137.424 E16.49326
G1 X175.586 Y137.779 E16.53237
G1 X176.104 Y138.139 E16.56272
G1 X176.965 Y139.107 E16.62503
G1 X177.387 Y139.971 E16.67127
G1 X177.429 Y140.128 E16.67907
G1 X177.872 Y140.313 E16.70215
G1 X178.094 Y139.502 E16.7426
G1 X178.646 Y138.537 E16.79608
G1 X178.901 Y138.232 E16.81517
G1 X179.766 Y137.509 E16.86943
G1 X180.955 Y137.001 E16.93158
G1 X181.715 Y136.893 E16.96852
G1 X185.183 Y136.904 E17.13532
G1 X185.987 Y137.123 E17.17537
G1 X186.346 Y136.971 E17.1941
G1 X187.277 Y136.793 E17.2397
G1 X198.925 Y136.794 E17.79992
G1 X200.065 Y137.056 E17.85622
G1 X201.097 Y137.633 E17.9131
G1 X202.033 Y138.626 E17.97869
G1 X202.503 Y139.559 E18.02894
G1 X202.552 Y139.74 E18.03798
G1 X202.976 Y139.869 E18.05931
G1 X203.767 Y140.323 E18.10315
G1 X204.573 Y141.092 E18.15672
G1 X205.192 Y142.154 E18.21587
G1 X205.477 Y143.391 E18.27694
G1 X205.41 Y166.729 E19.39941
G1 X205.121 Y167.603 E19.44366
G1 X204.581 Y168.49 E19.49365
G1 X203.58 Y169.403 E19.55881
G1 X202.711 Y169.83 E19.60535
G1 X202.54 Y169.877 E19.61389
G1 X202.474 Y170.115 E19.62576
G1 X202.043 Y170.95 E19.67095
G1 X201.647 Y171.451 E19.70169
G1 X200.908 Y172.099 E19.74892
G1 X199.529 Y172.713 E19.82153
G1 X198.821 Y172.805 E19.85589
G1 X187.276 Y172.802 E20.41116
G1 X186.345 Y172.624 E20.45673
G1 X185.987 Y172.473 E20.47546
G1 X185.18 Y172.692 E20.51564
G1 X181.51 Y172.685 E20.69216
G1 X180.388 Y172.403 E20.74781
G1 X179.398 Y171.828 E20.8029
G1 X178.639 Y171.055 E20.85497
G1 X178.138 Y170.2 E20.90266
G1 X178.071 Y169.992 E20.91314
G1 X177.719 Y170.187 E20.93249
G1 X177.431 Y170.264 E20.94681
G1 X177.383 Y170.441 E20.95561
G1 X176.914 Y171.375 E21.00589
G1 X175.938 Y172.397 E21.07386
G1 X174.974 Y172.932 E21.12687
G1 X173.865 Y173.201 E21.18178
G1 X162.158 Y173.207 E21.74482
G1 X161.226 Y173.029 E21.79046
G1 X160.867 Y172.877 E21.80924
G1 X160.052 Y173.097 E21.8498
G1 X156.285 Y173.08 E22.031
G1 X155.057 Y172.715 E22.09263
G1 X154.229 Y172.189 E22.13977
G1 X153.59 Y171.538 E22.18368
G1 X152.669 Y172.341 E22.24245
G1 X151.76 Y172.774 E22.29089
G1 X150.762 Y172.974 E22.33987
G1 X139.143 Y172.974 E22.89868
G1 X138.212 Y172.796 E22.94427
G1 X137.853 Y172.645 E22.96302
G1 X137.046 Y172.864 E23.00325
G1 X133.442 Y172.865 E23.17656
G1 X132.488 Y172.664 E23.22345
G1 X131.62 Y172.251 E23.26971
G1 X131.111 Y171.817 E23.30187
G1 X130.463 Y172.422 E23.34449
G1 X129.614 Y172.86 E23.39042
G1 X128.593 Y173.102 E23.44089
G1 X116.884 Y173.118 E24.00405
G1 X115.895 Y172.93 E24.05246
G1 X115.556 Y172.783 E24.07022
G1 X114.753 Y173.004 E24.11032
G1 X111.186 Y173.01 E24.28184
G1 X110.022 Y172.742 E24.33932
G1 X108.97 Y172.142 E24.39757
G1 X108.374 Y171.569 E24.43734
G1 X107.884 Y170.881 E24.47798
G1 X107.481 Y169.803 E24.53332
G1 X107.383 Y169.242 E24.56071
G1 X107.376 Y164.869 E24.77104
G1 X105.418 Y164.857 E24.86522
G1 X104.386 Y164.59 E24.91647
G1 X103.447 Y164.056 E24.96844
G1 X103.088 Y163.755 E24.99098
G1 X102.353 Y162.853 E25.04694
G1 X101.867 Y161.662 E25.10878
G1 X101.777 Y160.97 E25.14237
G1 X101.777 Y146.478 E25.83938
G1 X102.005 Y145.359 E25.89432
G1 X102.529 Y144.352 E25.94891
G1 X103.23 Y143.589 E25.99872
G1 X104.115 Y143.003 E26.04979
G1 X105.299 Y142.633 E26.10943
G1 X107.383 Y142.614 E26.20967
G1 X107.395 Y140.846 E26.29471
G1 X107.662 Y139.815 E26.34591
G1 X108.196 Y138.876 E26.39788
G1 X108.497 Y138.517 E26.42042
G1 X109.328 Y137.84 E26.47199
G1 X109.572 Y138.139 F7200
G1 F1500
G1 X109.62 Y138.099 E26.475
G1 X110.665 Y137.675 E26.52924
G1 X111.3 Y137.592 E26.56005
G1 X114.725 Y137.602 E26.72473
G1 X115.583 Y137.844 E26.76763
G1 X116.009 Y137.658 E26.78996
G1 X116.864 Y137.491 E26.83189
G1 X128.513 Y137.498 E27.39215
G1 X129.36 Y137.679 E27.43382
G1 X130.126 Y138.047 E27.47469
G1 X130.618 Y138.408 E27.50405
G1 X130.964 Y138.785 E27.52864
G1 X131.765 Y138.055 E27.58076
G1 X132.786 Y137.585 E27.63479
G1 X133.535 Y137.455 E27.67136
G1 X137.022 Y137.462 E27.83907
G1 X137.881 Y137.703 E27.882
G1 X138.307 Y137.518 E27.90432
G1 X139.161 Y137.351 E27.94621
G1 X150.777 Y137.348 E28.50487
G1 X152.025 Y137.686 E28.56706
G1 X152.899 Y138.253 E28.61717
G1 X153.554 Y138.977 E28.66414
G1 X153.729 Y139.312 E28.68232
G1 X154.548 Y138.454 E28.73938
G1 X155.404 Y137.958 E28.78696
G1 X156.4 Y137.699 E28.83648
G1 X160.03 Y137.694 E29.01107
G1 X160.895 Y137.936 E29.05425
G1 X161.321 Y137.75 E29.07659
G1 X162.175 Y137.583 E29.11847
G1 X173.711 Y137.58 E29.6733
G1 X174.708 Y137.782 E29.7222
G1 X175.404 Y138.119 E29.7594
G1 X175.865 Y138.442 E29.78646
G1 X176.63 Y139.3 E29.84177
G1 X177.031 Y140.121 E29.88573
G1 X177.106 Y140.434 E29.90118
G1 X177.231 Y140.463 E29.90733
G1 X178.107 Y140.829 E29.95301
G1 X178.209 Y140.898 E29.95894
G1 X178.219 Y140.509 E29.97765
G1 X178.441 Y139.671 E30.01935
G1 X178.972 Y138.744 E30.07077
G1 X179.184 Y138.494 E30.08654
G1 X179.946 Y137.851 E30.13445
G1 X181.035 Y137.379 E30.19157
G1 X181.728 Y137.279 E30.22523
G1 X185.156 Y137.289 E30.3901
G1 X186.014 Y137.531 E30.433
G1 X186.44 Y137.346 E30.45533
G1 X187.295 Y137.179 E30.49724
G1 X198.902 Y137.179 E31.05549
G1 X199.95 Y137.425 E31.10726
G1 X200.882 Y137.955 E31.1588
G1 X201.701 Y138.824 E31.21626
G1 X202.148 Y139.713 E31.2641
G1 X202.23 Y140.048 E31.28071
G1 X202.804 Y140.215 E31.30948
G1 X203.554 Y140.646 E31.35108
G1 X204.286 Y141.35 E31.39994
G1 X204.844 Y142.321 E31.45378
G1 X205.091 Y143.412 E31.50759
G1 X205.034 Y166.638 E32.62471
G1 X204.779 Y167.423 E32.66439
G1 X204.299 Y168.226 E32.70938
G1 X203.385 Y169.07 E32.76921
G1 X202.56 Y169.475 E32.81343
G1 X202.225 Y169.558 E32.83003
G1 X202.121 Y169.958 E32.8499
G1 X201.728 Y170.727 E32.89143
G1 X201.379 Y171.173 E32.91868
G1 X200.676 Y171.79 E32.96364
G1 X199.451 Y172.334 E33.02811
G1 X198.808 Y172.42 E33.0593
G1 X187.295 Y172.417 E33.61307
G1 X186.44 Y172.249 E33.65495
G1 X186.014 Y172.064 E33.67727
G1 X185.154 Y172.306 E33.72024
G1 X181.535 Y172.299 E33.89433
G1 X180.509 Y172.037 E33.94524
G1 X179.654 Y171.538 E33.99288
G1 X178.96 Y170.839 E34.04025
G1 X178.482 Y170.025 E34.08564
G1 X178.306 Y169.422 E34.11585
G1 X177.555 Y169.837 E34.15711
G1 X177.112 Y169.946 E34.17905
G1 X177.029 Y170.287 E34.19596
G1 X176.582 Y171.176 E34.24379
G1 X175.724 Y172.075 E34.30357
G1 X174.856 Y172.564 E34.35147
G1 X173.841 Y172.815 E34.40177
G1 X162.177 Y172.821 E34.96278
G1 X161.321 Y172.654 E35.00473
G1 X160.895 Y172.469 E35.02709
G1 X160.027 Y172.711 E35.0704
G1 X156.314 Y172.694 E35.24899
G1 X155.241 Y172.375 E35.30286
G1 X154.455 Y171.876 E35.34762
G1 X153.827 Y171.228 E35.39102
G1 X153.613 Y170.868 E35.41117
G1 X153.278 Y171.311 E35.43787
G1 X152.48 Y172.004 E35.48871
G1 X151.616 Y172.416 E35.53473
G1 X150.743 Y172.588 E35.57755
G1 X139.162 Y172.589 E36.13455
G1 X138.307 Y172.422 E36.17645
G1 X137.881 Y172.236 E36.19879
G1 X137.019 Y172.478 E36.24184
G1 X133.462 Y172.479 E36.41292
G1 X132.633 Y172.306 E36.45366
G1 X131.809 Y171.914 E36.49754
G1 X131.099 Y171.296 E36.5428
G1 X130.262 Y172.092 E36.59835
G1 X129.458 Y172.506 E36.64183
G1 X128.57 Y172.716 E36.68572
G1 X116.902 Y172.732 E37.24692
G1 X115.99 Y172.556 E37.29157
G1 X115.587 Y172.373 E37.31288
G1 X114.725 Y172.618 E37.35597
G1 X111.249 Y172.629 E37.52314
G1 X110.188 Y172.393 E37.57545
G1 X109.182 Y171.819 E37.63112
G1 X108.655 Y171.305 E37.66655
G1 X108.236 Y170.722 E37.70109
G1 X107.848 Y169.684 E37.75434
G1 X107.768 Y169.225 E37.77679
G1 X107.761 Y164.484 E38.00478
G1 X105.491 Y164.477 E38.11396
G1 X104.508 Y164.223 E38.16279
G1 X103.654 Y163.73 E38.21022
G1 X103.375 Y163.497 E38.22771
G1 X102.67 Y162.631 E38.2814
G1 X102.246 Y161.587 E38.33561
G1 X102.162 Y160.957 E38.36618
G1 X102.162 Y146.497 E39.06166
G1 X102.36 Y145.511 E39.11003
G1 X102.831 Y144.593 E39.15962
G1 X103.497 Y143.867 E39.20703
G1 X104.304 Y143.34 E39.25337
G1 X105.331 Y143.019 E39.30512
G1 X107.767 Y142.996 E39.4223
G1 X107.775 Y140.919 E39.52219
G1 X108.029 Y139.937 E39.57098
G1 X108.522 Y139.083 E39.61841
G1 X108.755 Y138.804 E39.6359
G1 X109.525 Y138.176 E39.6837
G1 X109.766 Y138.468 F7200
G1 F1500
G1 X109.794 Y138.445 E39.68543
G1 X110.742 Y138.054 E39.73471
G1 X111.312 Y137.977 E39.76242
G1 X114.696 Y137.988 E39.92518
G1 X115.611 Y138.253 E39.97101
G1 X116.106 Y138.032 E39.99704
G1 X116.883 Y137.877 E40.03519
G1 X128.492 Y137.884 E40.59354
G1 X129.255 Y138.051 E40.63111
G1 X129.941 Y138.386 E40.66781
G1 X130.373 Y138.707 E40.69372
G1 X130.922 Y139.312 E40.73303
G1 X130.982 Y139.415 E40.73873
G1 X131.148 Y139.14 E40.75419
G1 X131.954 Y138.392 E40.80705
G1 X132.924 Y137.946 E40.85839
G1 X133.551 Y137.841 E40.88896
G1 X136.994 Y137.847 E41.05459
G1 X137.91 Y138.113 E41.10043
G1 X138.404 Y137.892 E41.12646
G1 X139.181 Y137.736 E41.16457
G1 X150.751 Y137.733 E41.72106
G1 X151.893 Y138.05 E41.77805
G1 X152.665 Y138.561 E41.82261
G1 X153.25 Y139.215 E41.86479
G1 X153.661 Y140.039 E41.90908
G1 X153.698 Y140.184 E41.91629
G1 X154.042 Y139.537 E41.95154
G1 X154.767 Y138.772 E42.00221
G1 X155.529 Y138.324 E42.04473
G1 X156.426 Y138.085 E42.0894
G1 X160.004 Y138.079 E42.26148
G1 X160.923 Y138.346 E42.30753
G1 X161.418 Y138.124 E42.33357
G1 X162.195 Y137.969 E42.37168
G1 X173.692 Y137.966 E42.92468
G1 X174.562 Y138.14 E42.96732
G1 X175.221 Y138.459 E43.00258
G1 X175.624 Y138.744 E43.02631
G1 X176.295 Y139.494 E43.07468
G1 X176.675 Y140.27 E43.11627
G1 X176.785 Y140.763 E43.14054
G1 X177.1 Y140.826 E43.15598
G1 X177.936 Y141.176 E43.19959
G1 X178.437 Y141.552 E43.22971
G1 X178.587 Y141.709 E43.24016
G1 X178.597 Y140.585 E43.29422
G1 X178.807 Y139.795 E43.33354
G1 X179.279 Y138.978 E43.37891
G1 X179.446 Y138.778 E43.39145
