; generated by SuperSlicer 2.4 on 2023-05-21 at 12:22:36 UTC

; 

; external perimeters extrusion width = 0.42mm
; perimeters extrusion width = 0.45mm
; infill extrusion width = 0.45mm
; solid infill extrusion width = 0.45mm
; top infill extrusion width = 0.42mm


;TYPE:Custom
START_PRINT EXTRUDER_TEMP=220 BED_TEMP=90 SIZE=131.638_147.865_172.413_162.334
M107
G21 ; set units to millimeters
G90 ; use absolute coordinates
M82 ; use absolute distances for extrusion
G92 E0
; Filament gcode
;_TOOLCHANGE 0
M104 S220 ; set temperature
M109 S220 ; set temperature and wait for it to be reached
M190 S90 ; set bed temperature and wait for it to be reached
M107
;LAYER_CHANGE
;Z:0.2
;HEIGHT:0.2
;LAYER:0
G1 Z0.2 F7200
G1 E-4 F2700
M204 S300
G1 X133.404 Y149.268 F7200
G1 E0 F2700
;TYPE:Skirt
;WIDTH:0.45
G1 F1500
G1 X134.327 Y148.616 E0.03826
G1 X134.901 Y148.364 E0.05947
G1 X135.479 Y148.191 E0.07989
G1 X137.156 Y148.069 E0.13683
G1 X167.96 Y148.073 E1.17949
G1 X168.89 Y148.247 E1.21153
G1 X169.777 Y148.616 E1.24404
G1 X170.476 Y149.095 E1.27273
G1 X171.095 Y149.696 E1.30196
G1 X171.589 Y150.375 E1.33036
G1 X171.967 Y151.183 E1.36055
G1 X172.21 Y152.367 E1.40147
G1 X172.2 Y157.934 E1.58989
G1 X172.011 Y158.879 E1.62252
G1 X171.58 Y159.844 E1.65828
G1 X171.08 Y160.519 E1.68674
G1 X170.472 Y161.11 E1.71543
G1 X169.71 Y161.619 E1.74645
G1 X168.967 Y161.93 E1.77371
G1 X168.233 Y162.098 E1.7992
G1 X137.135 Y162.131 E2.85183
G1 X135.843 Y162.068 E2.8956
G1 X135.055 Y161.889 E2.92296
G1 X134.283 Y161.56 E2.95136
G1 X133.41 Y160.935 E2.9877
G1 X132.576 Y159.982 E3.03056
G1 X132.222 Y159.322 E3.05594
G1 X131.964 Y158.585 E3.08237
G1 X131.841 Y157.754 E3.1108
G1 X131.856 Y152.25 E3.29709
G1 X132.038 Y151.36 E3.32784
G1 X132.511 Y150.319 E3.36655
G1 X132.913 Y149.78 E3.3893
G1 X133.362 Y149.312 E3.41127
G1 X133.656 Y149.593 F7200
G1 F1500
G1 X133.684 Y149.564 E3.41264
G1 X134.511 Y148.98 E3.44689
G1 X135.03 Y148.75 E3.46612
G1 X135.574 Y148.587 E3.48535
G1 X137.163 Y148.476 E3.53928
G1 X167.94 Y148.48 E4.58105
G1 X168.792 Y148.642 E4.61041
G1 X169.599 Y148.983 E4.64005
G1 X170.23 Y149.42 E4.66602
G1 X170.798 Y149.975 E4.69292
G1 X171.247 Y150.597 E4.7189
G1 X171.588 Y151.332 E4.74631
G1 X171.802 Y152.387 E4.78275
G1 X171.793 Y157.913 E4.9698
G1 X171.63 Y158.734 E4.99811
G1 X171.217 Y159.657 E5.03234
G1 X170.783 Y160.239 E5.05693
G1 X170.23 Y160.782 E5.08317
G1 X169.5 Y161.269 E5.11288
G1 X168.857 Y161.537 E5.13646
G1 X168.209 Y161.691 E5.15901
G1 X137.139 Y161.724 E6.21067
G1 X135.881 Y161.663 E6.2533
G1 X135.165 Y161.497 E6.2782
G1 X134.465 Y161.195 E6.30399
G1 X133.667 Y160.618 E6.3373
G1 X132.923 Y159.769 E6.37554
G1 X132.601 Y159.172 E6.3985
G1 X132.355 Y158.469 E6.42372
G1 X132.249 Y157.74 E6.44865
G1 X132.263 Y152.271 E6.63375
G1 X132.419 Y151.506 E6.66018
G1 X132.851 Y150.544 E6.69589
G1 X133.216 Y150.053 E6.7166
G1 X133.614 Y149.637 E6.7361
G1 X133.908 Y149.918 F7200
G1 F1500
G1 X133.964 Y149.86 E6.73885
G1 X134.695 Y149.344 E6.76912
G1 X135.159 Y149.136 E6.78634
G1 X135.669 Y148.984 E6.80435
G1 X137.17 Y148.883 E6.85527
G1 X167.921 Y148.887 E7.89615
G1 X168.693 Y149.038 E7.92279
G1 X169.42 Y149.349 E7.94954
G1 X169.982 Y149.743 E7.9728
G1 X170.5 Y150.253 E7.9974
G1 X170.905 Y150.818 E8.02094
G1 X171.208 Y151.48 E8.04557
G1 X171.395 Y152.407 E8.07757
G1 X171.386 Y157.893 E8.26326
G1 X171.249 Y158.589 E8.28727
G1 X170.855 Y159.47 E8.31995
G1 X170.487 Y159.96 E8.34071
G1 X169.987 Y160.454 E8.36448
G1 X169.29 Y160.92 E8.39285
G1 X168.744 Y161.146 E8.41285
G1 X168.184 Y161.284 E8.4324
G1 X137.144 Y161.317 E9.48306
G1 X135.92 Y161.257 E9.52455
G1 X135.276 Y161.105 E9.54693
G1 X134.649 Y160.831 E9.57011
G1 X133.926 Y160.303 E9.60041
G1 X133.27 Y159.554 E9.63411
G1 X132.979 Y159.022 E9.65463
G1 X132.745 Y158.353 E9.67861
G1 X132.656 Y157.726 E9.70005
G1 X132.67 Y152.292 E9.88397
G1 X132.8 Y151.651 E9.90613
G1 X133.192 Y150.768 E9.93884
G1 X133.518 Y150.325 E9.95746
G1 X133.867 Y149.962 E9.97449
G1 X134.161 Y150.243 F7200
G1 F1500
G1 X134.245 Y150.156 E9.97861
G1 X134.879 Y149.707 E10.0049
G1 X135.313 Y149.514 E10.02099
G1 X135.763 Y149.38 E10.03686
G1 X137.177 Y149.29 E10.08482
G1 X167.9 Y149.294 E11.12479
G1 X168.592 Y149.433 E11.14866
G1 X169.238 Y149.714 E11.1725
G1 X169.733 Y150.065 E11.19306
G1 X170.201 Y150.53 E11.21538
G1 X170.562 Y151.038 E11.23647
G1 X170.827 Y151.627 E11.25834
G1 X170.988 Y152.427 E11.28596
G1 X170.979 Y157.872 E11.47027
G1 X170.855 Y158.485 E11.49146
G1 X170.494 Y159.281 E11.52103
G1 X170.189 Y159.682 E11.53808
G1 X169.745 Y160.127 E11.55936
G1 X169.081 Y160.57 E11.58637
G1 X168.629 Y160.755 E11.60291
G1 X168.158 Y160.877 E11.61939
G1 X137.149 Y160.91 E12.66901
G1 X135.959 Y160.851 E12.70933
G1 X135.39 Y160.714 E12.72915
G1 X134.833 Y160.467 E12.74974
G1 X134.216 Y160.017 E12.77561
G1 X133.615 Y159.338 E12.8063
G1 X133.358 Y158.871 E12.82433
G1 X133.136 Y158.237 E12.84706
G1 X133.063 Y157.713 E12.865
G1 X133.077 Y152.314 E13.04772
G1 X133.194 Y151.755 E13.06705
G1 X133.533 Y150.99 E13.09537
G1 X133.822 Y150.597 E13.11189
G1 X134.119 Y150.287 E13.12644
G1 X134.413 Y150.568 F7200
G1 F1500
G1 X134.525 Y150.452 E13.13193
G1 X135.064 Y150.07 E13.15427
G1 X135.442 Y149.9 E13.1683
G1 X135.856 Y149.777 E13.18292
G1 X137.183 Y149.697 E13.22791
G1 X167.88 Y149.701 E14.26699
G1 X168.449 Y149.815 E14.28663
G1 X169.055 Y150.078 E14.309
G1 X169.481 Y150.386 E14.32679
G1 X169.901 Y150.805 E14.34686
G1 X170.217 Y151.256 E14.3655
G1 X170.446 Y151.771 E14.38459
G1 X170.581 Y152.446 E14.40789
G1 X170.572 Y157.851 E14.59084
G1 X170.474 Y158.34 E14.60772
G1 X170.155 Y159.055 E14.6342
G1 X169.891 Y159.404 E14.64903
G1 X169.471 Y159.825 E14.66916
G1 X168.907 Y160.202 E14.69211
G1 X168.513 Y160.365 E14.70653
G1 X168.081 Y160.476 E14.72166
G1 X137.153 Y160.503 E15.76851
G1 X135.998 Y160.446 E15.80765
G1 X135.506 Y160.323 E15.82484
G1 X135.019 Y160.105 E15.84288
G1 X134.505 Y159.729 E15.86443
G1 X133.96 Y159.119 E15.89213
G1 X133.736 Y158.72 E15.90761
G1 X133.527 Y158.122 E15.92905
G1 X133.47 Y157.7 E15.94349
G1 X133.484 Y152.337 E16.12501
G1 X133.587 Y151.862 E16.14146
G1 X133.875 Y151.212 E16.16551
G1 X134.125 Y150.869 E16.1799
G1 X134.371 Y150.612 E16.19194
G1 X134.665 Y150.894 F7200
G1 F1500
G1 X134.805 Y150.747 E16.1988
G1 X135.249 Y150.433 E16.21721
G1 X135.596 Y150.277 E16.2301
G1 X135.948 Y150.175 E16.24248
G1 X137.188 Y150.104 E16.28454
G1 X167.859 Y150.108 E17.32272
G1 X168.346 Y150.209 E17.33953
G1 X168.871 Y150.442 E17.35897
G1 X169.205 Y150.685 E17.37297
G1 X169.6 Y151.08 E17.39188
G1 X169.871 Y151.471 E17.40799
G1 X170.064 Y151.914 E17.42434
G1 X170.174 Y152.466 E17.44339
G1 X170.165 Y157.83 E17.62495
G1 X170.08 Y158.235 E17.63897
G1 X169.815 Y158.829 E17.66098
G1 X169.593 Y159.127 E17.67356
G1 X169.197 Y159.523 E17.69251
G1 X168.733 Y159.833 E17.71141
G1 X168.371 Y159.983 E17.72465
G1 X168.005 Y160.076 E17.73744
G1 X137.158 Y160.095 E18.78157
G1 X136.039 Y160.04 E18.8195
G1 X135.624 Y159.933 E18.83399
G1 X135.207 Y159.743 E18.84952
G1 X134.793 Y159.441 E18.86687
G1 X134.303 Y158.899 E18.89161
G1 X134.114 Y158.567 E18.90454
G1 X133.928 Y158.045 E18.92329
G1 X133.877 Y157.686 E18.93555
G1 X133.891 Y152.361 E19.11582
G1 X133.98 Y151.972 E19.12931
G1 X134.218 Y151.433 E19.14926
G1 X134.429 Y151.14 E19.16147
G1 X134.624 Y150.937 E19.17101
G1 X134.917 Y151.219 F7200
G1 F1500
G1 X135.086 Y151.043 E19.17924
G1 X135.435 Y150.796 E19.1937
G1 X135.75 Y150.654 E19.20542
G1 X136.037 Y150.572 E19.21552
G1 X137.194 Y150.511 E19.25472
G1 X167.838 Y150.515 E20.29198
G1 X168.238 Y150.602 E20.30585
G1 X168.683 Y150.804 E20.3224
G1 X168.928 Y150.984 E20.33268
G1 X169.299 Y151.354 E20.35043
G1 X169.524 Y151.684 E20.36394
G1 X169.681 Y152.054 E20.37755
G1 X169.767 Y152.485 E20.39243
G1 X169.758 Y157.807 E20.57256
G1 X169.687 Y158.127 E20.58367
G1 X169.474 Y158.606 E20.60138
G1 X169.294 Y158.85 E20.61166
G1 X168.923 Y159.221 E20.62941
G1 X168.558 Y159.465 E20.64427
G1 X168.23 Y159.601 E20.65631
G1 X167.931 Y159.675 E20.66671
G1 X137.163 Y159.688 E21.70818
G1 X136.081 Y159.635 E21.74486
G1 X135.747 Y159.545 E21.75656
G1 X135.397 Y159.382 E21.76964
G1 X135.079 Y159.151 E21.78292
G1 X134.644 Y158.675 E21.80475
G1 X134.49 Y158.41 E21.81513
G1 X134.327 Y157.965 E21.83117
G1 X134.284 Y157.672 E21.8412
G1 X134.298 Y152.386 E22.02013
G1 X134.371 Y152.086 E22.03059
G1 X134.562 Y151.652 E22.04662
G1 X134.733 Y151.411 E22.05662
G1 X134.876 Y151.262 E22.06362
G1 X135.17 Y151.544 F7200
G1 F1500
G1 X135.366 Y151.339 E22.07322
G1 X135.62 Y151.159 E22.08375
G1 X135.903 Y151.031 E22.09428
G1 X136.124 Y150.971 E22.10201
G1 X137.199 Y150.918 E22.13844
G1 X167.816 Y150.922 E23.17479
G1 X168.092 Y150.983 E23.18438
G1 X168.462 Y151.146 E23.19806
G1 X168.651 Y151.283 E23.20597
G1 X168.997 Y151.628 E23.2225
G1 X169.174 Y151.894 E23.23331
G1 X169.297 Y152.191 E23.24421
G1 X169.36 Y152.505 E23.25503
G1 X169.351 Y157.782 E23.43367
G1 X169.295 Y158.014 E23.44175
G1 X169.132 Y158.384 E23.45543
G1 X168.995 Y158.574 E23.46334
G1 X168.65 Y158.919 E23.47987
G1 X168.384 Y159.096 E23.49068
G1 X168.089 Y159.219 E23.5015
G1 X167.86 Y159.273 E23.50945
G1 X137.168 Y159.281 E24.54835
G1 X136.124 Y159.229 E24.58374
G1 X135.903 Y159.168 E24.59147
G1 X135.586 Y159.021 E24.60332
G1 X135.364 Y158.859 E24.61261
G1 X134.983 Y158.449 E24.63157
G1 X134.865 Y158.25 E24.63941
G1 X134.726 Y157.882 E24.65272
G1 X134.691 Y157.657 E24.66043
G1 X134.7 Y152.456 E24.83648
G1 X134.752 Y152.23 E24.84434
G1 X134.907 Y151.868 E24.85766
G1 X135.037 Y151.681 E24.86536
G1 X135.128 Y151.587 E24.86979
G1 X135.422 Y151.869 F7200
G1 F1500
G1 X135.646 Y151.635 E24.88076
G1 X135.805 Y151.523 E24.88735
G1 X136.055 Y151.41 E24.89664
G1 X136.206 Y151.37 E24.90192
G1 X137.203 Y151.325 E24.9357
G1 X167.793 Y151.329 E25.97113
G1 X167.949 Y151.364 E25.97654
G1 X168.245 Y151.491 E25.98744
G1 X168.376 Y151.583 E25.99286
G1 X168.695 Y151.902 E26.00812
G1 X168.806 Y152.068 E26.01488
G1 X168.914 Y152.329 E26.02443
G1 X168.953 Y152.525 E26.03119
G1 X168.949 Y157.715 E26.20689
G1 X168.914 Y157.871 E26.2123
G1 X168.787 Y158.167 E26.2232
G1 X168.695 Y158.298 E26.22862
G1 X168.376 Y158.617 E26.24388
G1 X168.21 Y158.728 E26.25064
G1 X167.949 Y158.836 E26.26019
G1 X167.793 Y158.871 E26.26561
G1 X137.182 Y158.874 E27.30176
G1 X136.206 Y158.83 E27.33482
G1 X136.055 Y158.79 E27.3401
G1 X135.805 Y158.677 E27.34939
G1 X135.646 Y158.565 E27.35597
G1 X135.319 Y158.218 E27.37211
G1 X135.238 Y158.086 E27.37739
G1 X135.124 Y157.794 E27.38799
G1 X135.098 Y157.64 E27.39326
G1 X135.102 Y152.521 E27.56653
G1 X135.135 Y152.369 E27.5718
G1 X135.255 Y152.08 E27.5824
G1 X135.343 Y151.951 E27.58768
G1 X135.38 Y151.912 E27.5895
G1 X135.674 Y152.194 F7200
G1 F1500
G1 X135.927 Y151.931 E27.60185
G1 X135.99 Y151.886 E27.60449
G1 X136.205 Y151.789 E27.61246
G1 X136.281 Y151.771 E27.61511
G1 X137.207 Y151.732 E27.64649
G1 X167.733 Y151.732 E28.67975
G1 X167.812 Y151.748 E28.68247
G1 X168.036 Y151.841 E28.69066
G1 X168.102 Y151.885 E28.69338
G1 X168.393 Y152.176 E28.70728
G1 X168.437 Y152.242 E28.70999
G1 X168.53 Y152.466 E28.71819
G1 X168.546 Y152.545 E28.7209
G1 X168.546 Y157.655 E28.8939
G1 X168.53 Y157.734 E28.89661
G1 X168.437 Y157.958 E28.90481
G1 X168.393 Y158.024 E28.90752
G1 X168.102 Y158.315 E28.92143
G1 X168.036 Y158.359 E28.92414
G1 X167.812 Y158.452 E28.93234
G1 X167.733 Y158.468 E28.93505
G1 X137.195 Y158.467 E29.96875
G1 X136.281 Y158.429 E29.99969
G1 X136.205 Y158.411 E30.00234
G1 X135.99 Y158.314 E30.01031
G1 X135.927 Y158.269 E30.01295
G1 X135.65 Y157.981 E30.02647
G1 X135.608 Y157.916 E30.02911
G1 X135.52 Y157.697 E30.03708
G1 X135.505 Y157.621 E30.03972
G1 X135.505 Y152.579 E30.21036
G1 X135.52 Y152.503 E30.213
G1 X135.608 Y152.284 E30.22097
G1 X135.636 Y152.24 E30.22275
G1 X135.971 Y152.472 F7200
G1 F1500
G1 X136.193 Y152.24 E30.23362
G1 X136.337 Y152.176 E30.23895
G1 X137.212 Y152.139 E30.26858
G1 X167.693 Y152.139 E31.30035
G1 X167.843 Y152.201 E31.30583
G1 X168.077 Y152.435 E31.31702
G1 X168.138 Y152.585 E31.3225
G1 X168.138 Y157.615 E31.49278
G1 X168.077 Y157.765 E31.49826
G1 X167.843 Y157.999 E31.50945
G1 X167.693 Y158.061 E31.51493
G1 X137.207 Y158.061 E32.54684
G1 X136.337 Y158.024 E32.57632
G1 X136.193 Y157.96 E32.58165
G1 X135.971 Y157.728 E32.59252
G1 X135.912 Y157.582 E32.59786
G1 X135.912 Y152.618 E32.76585
G1 X135.949 Y152.528 E32.76915
G1 X136.32 Y152.697 F7200
G1 F1500
G1 X136.433 Y152.579 E32.77469
G1 X137.214 Y152.546 E32.80115
G1 X167.612 Y152.546 E33.8301
G1 X167.731 Y152.666 E33.83581
G1 X167.731 Y157.534 E34.00061
G1 X167.612 Y157.654 E34.00631
G1 X137.214 Y157.654 E35.03527
G1 X136.433 Y157.621 E35.06172
G1 X136.32 Y157.503 E35.06726
G1 X136.32 Y152.757 E35.2279
M104 S225 ; set temperature
G1 X136.733 Y152.98 F7200
;TYPE:External perimeter
;WIDTH:0.42
G1 F1500
G1 X137.22 Y152.96 E35.24319
G1 X167.318 Y152.96 E36.18687
G1 X167.318 Y157.24 E36.32107
G1 X137.22 Y157.24 E37.26476
G1 X136.733 Y157.22 E37.28005
G1 X136.733 Y153.04 E37.41108
;WIPE_START
M204 S500
G1 X137.085 Y153.171 F7200
;WIPE_END
G92 E0
G1 E-4 F2700
; acceleration to travel
M204 S1500
G1 X162.19 Y153.77 F7200
; decel to extrusion
M204 S300
G1 X167.211 Y153.89
; end travel
G1 E0 F2700
;TYPE:Solid infill
;WIDTH:0.450448
G1 F1500
G1 X166.563 Y153.243 E0.03102
G1 X165.988 Y153.243 E0.05052
G1 X167.036 Y154.291 E0.10072
G1 X167.036 Y154.866 E0.12022
G1 X165.413 Y153.243 E0.19799
G1 X164.837 Y153.244 E0.21749
G1 X167.036 Y155.442 E0.32282
G1 X167.036 Y156.018 E0.34233
G1 X164.262 Y153.244 E0.47523
G1 X163.687 Y153.245 E0.49473
G1 X167.036 Y156.594 E0.6552
G1 X167.036 Y156.958 E0.66754
G1 X166.824 Y156.958 E0.67471
G1 X163.111 Y153.245 E0.8526
G1 X162.536 Y153.245 E0.8721
G1 X166.248 Y156.957 E1.04996
G1 X165.672 Y156.957 E1.06947
G1 X161.961 Y153.246 E1.2473
G1 X161.386 Y153.246 E1.26679
G1 X165.096 Y156.956 E1.44458
G1 X164.52 Y156.956 E1.46409
G1 X160.81 Y153.246 E1.64184
G1 X160.235 Y153.247 E1.66134
G1 X163.944 Y156.956 E1.83905
G1 X163.368 Y156.955 E1.85857
G1 X159.66 Y153.247 E2.03624
G1 X159.084 Y153.248 E2.05573
G1 X162.791 Y156.955 E2.23337
G1 X162.215 Y156.954 E2.25289
G1 X158.509 Y153.248 E2.43049
G1 X157.934 Y153.248 E2.44999
G1 X161.639 Y156.954 E2.62755
G1 X161.063 Y156.954 E2.64707
G1 X157.358 Y153.249 E2.8246
G1 X156.783 Y153.249 E2.84409
G1 X160.487 Y156.953 E3.02158
G1 X159.911 Y156.953 E3.0411
G1 X156.208 Y153.25 E3.21855
G1 X155.632 Y153.25 E3.23805
G1 X159.335 Y156.953 E3.41546
G1 X158.759 Y156.952 E3.43498
G1 X155.057 Y153.25 E3.61236
G1 X154.482 Y153.251 E3.63186
G1 X158.183 Y156.952 E3.8092
G1 X157.607 Y156.951 E3.82872
G1 X153.906 Y153.251 E4.00602
G1 X153.331 Y153.251 E4.02552
G1 X157.031 Y156.951 E4.20279
G1 X156.455 Y156.951 E4.22231
G1 X152.756 Y153.252 E4.39954
G1 X152.181 Y153.252 E4.41903
G1 X155.878 Y156.95 E4.59623
G1 X155.302 Y156.95 E4.61575
G1 X151.605 Y153.253 E4.79291
G1 X151.03 Y153.253 E4.8124
G1 X154.726 Y156.949 E4.98952
G1 X154.15 Y156.949 E5.00904
G1 X150.455 Y153.253 E5.18613
G1 X149.879 Y153.254 E5.20562
G1 X153.574 Y156.949 E5.38267
G1 X152.998 Y156.948 E5.40219
G1 X149.304 Y153.254 E5.5792
G1 X148.729 Y153.255 E5.59869
G1 X152.422 Y156.948 E5.77567
G1 X151.846 Y156.948 E5.79519
G1 X148.153 Y153.255 E5.97213
G1 X147.578 Y153.255 E5.99162
G1 X151.27 Y156.947 E6.16852
G1 X150.694 Y156.947 E6.18804
G1 X147.003 Y153.256 E6.3649
G1 X146.427 Y153.256 E6.3844
G1 X150.118 Y156.946 E6.56122
G1 X149.542 Y156.946 E6.58074
G1 X145.852 Y153.256 E6.75753
G1 X145.277 Y153.257 E6.77703
G1 X148.966 Y156.946 E6.95378
G1 X148.389 Y156.945 E6.9733
G1 X144.701 Y153.257 E7.15002
G1 X144.126 Y153.258 E7.16951
G1 X147.813 Y156.945 E7.34619
G1 X147.237 Y156.944 E7.36571
G1 X143.551 Y153.258 E7.54235
G1 X142.976 Y153.258 E7.56185
G1 X146.661 Y156.944 E7.73845
G1 X146.085 Y156.944 E7.75797
G1 X142.4 Y153.259 E7.93454
G1 X141.825 Y153.259 E7.95404
G1 X145.509 Y156.943 E8.13057
G1 X144.933 Y156.943 E8.15009
G1 X141.25 Y153.26 E8.32659
G1 X140.674 Y153.26 E8.34608
G1 X144.357 Y156.943 E8.52254
G1 X143.781 Y156.942 E8.54206
G1 X140.099 Y153.26 E8.71848
G1 X139.524 Y153.261 E8.73797
G1 X143.205 Y156.942 E8.91436
