; generated by SuperSlicer 2.4 on 2023-05-21 at 09:18:31 UTC

; 

; external perimeters extrusion width = 0.42mm
; perimeters extrusion width = 0.45mm
; infill extrusion width = 0.45mm
; solid infill extrusion width = 0.45mm
; top infill extrusion width = 0.42mm
; support material extrusion width = 0.30mm
; first layer extrusion width = 0.56mm

; external perimeters extrusion width = 0.42mm
; perimeters extrusion width = 0.45mm
; infill extrusion width = 0.45mm
; solid infill extrusion width = 0.45mm
; top infill extrusion width = 0.42mm
; support material extrusion width = 0.30mm
; first layer extrusion width = 0.56mm

; external perimeters extrusion width = 0.42mm
; perimeters extrusion width = 0.45mm
; infill extrusion width = 0.45mm
; solid infill extrusion width = 0.45mm
; top infill extrusion width = 0.42mm
; support material extrusion width = 0.30mm
; first layer extrusion width = 0.56mm

; external perimeters extrusion width = 0.42mm
; perimeters extrusion width = 0.45mm
; infill extrusion width = 0.45mm
; solid infill extrusion width = 0.45mm
; top infill extrusion width = 0.42mm
; support material extrusion width = 0.30mm
; first layer extrusion width = 0.56mm

; external perimeters extrusion width = 0.42mm
; perimeters extrusion width = 0.45mm
; infill extrusion width = 0.45mm
; solid infill extrusion width = 0.45mm
; top infill extrusion width = 0.42mm
; support material extrusion width = 0.30mm
; first layer extrusion width = 0.56mm


;TYPE:Custom
START_PRINT EXTRUDER_TEMP=220 BED_TEMP=90 SIZE=4.88831_4.91245_305.107_305.112
M107
G21 ; set units to millimeters
G90 ; use absolute coordinates
M82 ; use absolute distances for extrusion
G92 E0
; Filament gcode
;_TOOLCHANGE 0
M104 S220 ; set temperature
M109 S220 ; set temperature and wait for it to be reached
M190 S90 ; set bed temperature and wait for it to be reached
M107
;LAYER_CHANGE
;Z:0.2
;HEIGHT:0.2
;LAYER:0
G1 Z0.2 F7200
G1 E-4 F2700
M204 S300
G1 X14.294 Y275.717 F7200
G1 E0 F2700
;TYPE:Skirt
;WIDTH:0.56
G1 F1500
G1 X25.651 Y275.71 E0.48832
G1 X26.422 Y275.891 E0.52238
G1 X27.18 Y276.229 E0.55803
G1 X27.801 Y276.672 E0.59084
G1 X28.395 Y277.261 E0.62683
G1 X28.854 Y277.907 E0.66086
G1 X29.19 Y278.652 E0.69602
G1 X29.379 Y279.507 E0.73367
G1 X29.395 Y301.123 E1.66305
G1 X29.263 Y301.904 E1.6971
G1 X28.972 Y302.672 E1.73244
G1 X28.37 Y303.566 E1.77873
G1 X27.5 Y304.368 E1.82961
G1 X26.979 Y304.674 E1.85559
G1 X26.41 Y304.913 E1.88215
G1 X25.573 Y305.096 E1.91896
G1 X14.594 Y305.112 E2.39103
G1 X13.813 Y304.979 E2.42508
G1 X13.044 Y304.688 E2.46042
G1 X12.151 Y304.087 E2.50672
G1 X11.349 Y303.217 E2.5576
G1 X11.042 Y302.696 E2.58358
G1 X10.803 Y302.124 E2.61025
G1 X10.605 Y301.13 E2.65382
G1 X10.605 Y279.675 E3.5763
G1 X10.737 Y278.894 E3.61033
G1 X11.028 Y278.126 E3.64567
G1 X11.63 Y277.232 E3.69197
G1 X12.5 Y276.43 E3.74284
G1 X13.021 Y276.124 E3.76882
G1 X13.58 Y275.889 E3.79492
G1 X14.235 Y275.731 E3.82389
G1 X14.354 Y276.234 F7200
G1 F1500
G1 X14.384 Y276.227 E3.82518
G1 X25.562 Y276.221 E4.30581
G1 X26.28 Y276.389 E4.3375
G1 X26.943 Y276.689 E4.3688
G1 X27.482 Y277.079 E4.39737
G1 X28.014 Y277.611 E4.42975
G1 X28.416 Y278.183 E4.45982
G1 X28.706 Y278.837 E4.49059
G1 X28.868 Y279.589 E4.52365
G1 X28.878 Y301.101 E5.44854
G1 X28.758 Y301.79 E5.47862
G1 X28.5 Y302.459 E5.50947
G1 X27.996 Y303.207 E5.54823
G1 X27.213 Y303.936 E5.59422
G1 X26.733 Y304.22 E5.61821
G1 X26.234 Y304.426 E5.64143
G1 X25.492 Y304.584 E5.67404
G1 X14.616 Y304.595 E6.14166
G1 X13.927 Y304.474 E6.17174
G1 X13.257 Y304.216 E6.20259
G1 X12.509 Y303.713 E6.24136
G1 X11.78 Y302.93 E6.28735
G1 X11.497 Y302.449 E6.31134
G1 X11.29 Y301.949 E6.3346
G1 X11.122 Y301.104 E6.37164
G1 X11.122 Y279.697 E7.29205
G1 X11.242 Y279.008 E7.32212
G1 X11.501 Y278.339 E7.35297
G1 X12.004 Y277.591 E7.39174
G1 X12.787 Y276.862 E7.43773
G1 X13.267 Y276.578 E7.46172
G1 X13.759 Y276.375 E7.4846
G1 X14.296 Y276.248 E7.50832
G1 X14.412 Y276.751 F7200
G1 F1500
G1 X14.471 Y276.737 E7.51093
G1 X25.476 Y276.731 E7.98408
G1 X26.09 Y276.871 E8.01117
G1 X26.706 Y277.149 E8.04021
G1 X27.13 Y277.458 E8.06278
G1 X27.632 Y277.96 E8.0933
G1 X27.977 Y278.457 E8.1193
G1 X28.221 Y279.019 E8.14566
G1 X28.356 Y279.668 E8.17416
G1 X28.361 Y301.078 E9.09466
G1 X28.253 Y301.673 E9.12066
G1 X28.029 Y302.244 E9.14704
G1 X27.62 Y302.851 E9.17849
G1 X26.925 Y303.507 E9.21961
G1 X26.517 Y303.749 E9.23998
G1 X26.058 Y303.939 E9.26134
G1 X25.413 Y304.073 E9.28967
G1 X14.639 Y304.078 E9.75292
G1 X14.044 Y303.97 E9.77892
G1 X13.473 Y303.745 E9.8053
G1 X12.866 Y303.337 E9.83675
G1 X12.21 Y302.641 E9.87787
G1 X11.968 Y302.234 E9.89824
G1 X11.777 Y301.775 E9.9196
G1 X11.639 Y301.079 E9.95011
G1 X11.639 Y279.72 E10.86843
G1 X11.747 Y279.125 E10.89443
G1 X11.971 Y278.554 E10.92082
G1 X12.38 Y277.947 E10.95227
G1 X13.076 Y277.291 E10.99338
G1 X13.483 Y277.049 E11.01375
G1 X13.937 Y276.861 E11.0349
G1 X14.354 Y276.765 E11.05329
G1 X14.466 Y277.268 F7200
G1 F1500
G1 X14.556 Y277.248 E11.05726
G1 X25.393 Y277.243 E11.5232
G1 X25.902 Y277.353 E11.54558
G1 X26.468 Y277.609 E11.57227
G1 X26.778 Y277.838 E11.58885
G1 X27.249 Y278.309 E11.6175
G1 X27.535 Y278.728 E11.6393
G1 X27.735 Y279.197 E11.66125
G1 X27.844 Y279.744 E11.68523
G1 X27.844 Y301.054 E12.60142
G1 X27.75 Y301.552 E12.62323
G1 X27.559 Y302.026 E12.64518
G1 X27.243 Y302.496 E12.66956
G1 X26.633 Y303.079 E12.70582
G1 X26.302 Y303.279 E12.72246
G1 X25.884 Y303.452 E12.7419
G1 X25.337 Y303.56 E12.76587
G1 X14.663 Y303.56 E13.22481
G1 X14.165 Y303.466 E13.24662
G1 X13.691 Y303.276 E13.26857
G1 X13.22 Y302.96 E13.29295
G1 X12.638 Y302.349 E13.32921
G1 X12.438 Y302.018 E13.34585
G1 X12.265 Y301.601 E13.36529
G1 X12.156 Y301.054 E13.38926
G1 X12.156 Y279.744 E14.30546
G1 X12.25 Y279.246 E14.32726
G1 X12.441 Y278.772 E14.34922
G1 X12.757 Y278.302 E14.37359
G1 X13.367 Y277.719 E14.40986
G1 X13.698 Y277.519 E14.4265
G1 X14.114 Y277.347 E14.44586
G1 X14.408 Y277.281 E14.45879
G1 X14.516 Y277.786 F7200
G1 F1500
G1 X14.638 Y277.76 E14.46416
G1 X25.366 Y277.76 E14.92541
G1 X25.717 Y277.837 E14.94087
G1 X26.187 Y278.044 E14.96295
G1 X26.427 Y278.218 E14.97571
G1 X26.866 Y278.657 E15.00238
G1 X27.091 Y278.994 E15.01982
G1 X27.248 Y279.372 E15.03741
G1 X27.327 Y279.77 E15.05486
G1 X27.327 Y301.028 E15.96887
G1 X27.248 Y301.426 E15.98631
G1 X27.091 Y301.804 E16.00391
G1 X26.864 Y302.144 E16.02148
G1 X26.338 Y302.653 E16.05295
G1 X26.085 Y302.809 E16.06574
G1 X25.71 Y302.964 E16.08319
G1 X25.312 Y303.043 E16.10063
G1 X14.688 Y303.043 E16.55739
G1 X14.29 Y302.964 E16.57483
G1 X13.912 Y302.808 E16.59243
G1 X13.573 Y302.58 E16.61
G1 X13.064 Y302.054 E16.64147
G1 X12.908 Y301.801 E16.65426
G1 X12.752 Y301.426 E16.67171
G1 X12.673 Y301.028 E16.68916
G1 X12.673 Y279.77 E17.60317
G1 X12.752 Y279.372 E17.62061
G1 X12.909 Y278.994 E17.63821
G1 X13.136 Y278.654 E17.65578
G1 X13.662 Y278.145 E17.68725
G1 X13.915 Y277.989 E17.70003
G1 X14.29 Y277.834 E17.71749
G1 X14.457 Y277.798 E17.72481
G1 X14.557 Y278.303 F7200
G1 F1500
G1 X14.714 Y278.272 E17.73167
G1 X25.337 Y278.277 E18.18841
G1 X25.535 Y278.321 E18.19715
G1 X25.911 Y278.482 E18.21474
G1 X26.077 Y278.599 E18.22348
G1 X26.482 Y279.004 E18.24809
G1 X26.623 Y279.215 E18.259
G1 X26.76 Y279.546 E18.27441
G1 X26.81 Y279.795 E18.28532
G1 X26.81 Y301.003 E19.19715
G1 X26.76 Y301.252 E19.20806
G1 X26.623 Y301.583 E19.22347
G1 X26.482 Y301.794 E19.23438
G1 X26.038 Y302.231 E19.26117
G1 X25.866 Y302.34 E19.26991
G1 X25.535 Y302.477 E19.28532
G1 X25.286 Y302.526 E19.29623
G1 X14.714 Y302.526 E19.75081
G1 X14.465 Y302.477 E19.76172
G1 X14.134 Y302.34 E19.77713
G1 X13.923 Y302.199 E19.78804
G1 X13.486 Y301.755 E19.81483
G1 X13.377 Y301.583 E19.82357
G1 X13.24 Y301.252 E19.83898
G1 X13.19 Y301.003 E19.84989
G1 X13.19 Y279.795 E20.76172
G1 X13.24 Y279.546 E20.77263
G1 X13.377 Y279.215 E20.78804
G1 X13.518 Y279.004 E20.79895
G1 X13.962 Y278.567 E20.82574
G1 X14.134 Y278.458 E20.83448
G1 X14.465 Y278.321 E20.84989
G1 X14.498 Y278.315 E20.85136
G1 X14.639 Y278.809 F7200
G1 F1500
G1 X14.739 Y278.789 E20.85574
G1 X25.261 Y278.789 E21.30812
G1 X25.361 Y278.809 E21.3125
G1 X25.645 Y278.926 E21.32572
G1 X25.73 Y278.983 E21.3301
G1 X26.099 Y279.352 E21.35254
G1 X26.155 Y279.437 E21.35691
G1 X26.273 Y279.721 E21.37014
G1 X26.293 Y279.821 E21.37452
G1 X26.293 Y300.977 E22.28416
G1 X26.273 Y301.077 E22.28854
G1 X26.155 Y301.361 E22.30177
G1 X26.099 Y301.446 E22.30614
G1 X25.73 Y301.815 E22.32858
G1 X25.645 Y301.872 E22.33296
G1 X25.361 Y301.989 E22.34618
G1 X25.261 Y302.009 E22.35056
G1 X14.739 Y302.009 E22.80295
G1 X14.639 Y301.989 E22.80733
G1 X14.355 Y301.872 E22.82055
G1 X14.27 Y301.815 E22.82493
G1 X13.901 Y301.446 E22.84736
G1 X13.845 Y301.361 E22.85174
G1 X13.727 Y301.077 E22.86496
G1 X13.707 Y300.977 E22.86934
G1 X13.707 Y279.821 E23.77899
G1 X13.727 Y279.721 E23.78337
G1 X13.845 Y279.437 E23.79659
G1 X13.901 Y279.352 E23.80097
G1 X14.27 Y278.983 E23.8234
G1 X14.355 Y278.926 E23.82778
G1 X14.584 Y278.832 E23.83843
G1 X14.782 Y279.309 F7200
G1 F1500
G1 X25.21 Y279.306 E24.28679
G1 X25.4 Y279.385 E24.29564
G1 X25.697 Y279.681 E24.31369
G1 X25.776 Y279.872 E24.32253
G1 X25.776 Y300.926 E25.2278
G1 X25.697 Y301.117 E25.23664
G1 X25.4 Y301.413 E25.2547
G1 X25.21 Y301.492 E25.26354
G1 X14.79 Y301.492 E25.71155
G1 X14.6 Y301.413 E25.72039
G1 X14.303 Y301.117 E25.73845
G1 X14.224 Y300.926 E25.74729
G1 X14.224 Y279.872 E26.65256
G1 X14.303 Y279.681 E26.6614
G1 X14.6 Y279.385 E26.67945
G1 X14.726 Y279.332 E26.68533
G1 X14.893 Y279.823 F7200
G1 F1500
G1 X25.107 Y279.823 E27.12449
G1 X25.259 Y279.974 E27.1337
G1 X25.259 Y300.824 E28.03012
G1 X25.107 Y300.975 E28.03933
G1 X14.893 Y300.975 E28.47849
G1 X14.741 Y300.824 E28.4877
G1 X14.741 Y279.974 E29.38412
G1 X14.851 Y279.865 E29.39075
G1 X15.28 Y280.361 F7200
;TYPE:External perimeter
G1 F1500
G1 X24.72 Y280.361 E29.79662
G1 X24.72 Y290.399 E30.22819
G1 X24.72 Y300.437 E30.65976
G1 X15.28 Y300.437 E31.06563
G1 X15.28 Y280.421 E31.92619
;WIPE_START
M204 S500
G1 X15.626 Y280.561 F7200
;WIPE_END
M204 S300
G1 X16.059 Y280.517
;TYPE:Solid infill
;WIDTH:0.580194
G1 F1500
G1 X16.059 Y300.059 E32.79672
G1 X16.576 Y300.059 E32.81976
G1 X16.576 Y280.739 E33.68039
G1 X17.093 Y280.739 E33.70342
G1 X17.093 Y300.059 E34.56405
G1 X17.61 Y300.059 E34.58709
G1 X17.61 Y280.739 E35.44772
G1 X18.127 Y280.739 E35.47075
G1 X18.127 Y300.059 E36.33138
G1 X18.644 Y300.059 E36.35442
G1 X18.644 Y280.739 E37.21505
G1 X19.161 Y280.739 E37.23808
G1 X19.161 Y300.059 E38.09871
G1 X19.678 Y300.059 E38.12175
G1 X19.678 Y280.739 E38.98238
G1 X20.196 Y280.739 E39.00541
G1 X20.196 Y300.059 E39.86604
G1 X20.713 Y300.059 E39.88908
G1 X20.713 Y280.739 E40.74971
G1 X21.23 Y280.739 E40.77274
G1 X21.23 Y300.059 E41.63337
G1 X21.747 Y300.059 E41.65641
G1 X21.747 Y280.739 E42.51704
G1 X22.264 Y280.739 E42.54007
G1 X22.264 Y300.059 E43.4007
G1 X22.781 Y300.059 E43.42374
G1 X22.781 Y280.739 E44.28437
G1 X23.298 Y280.739 E44.3074
G1 X23.298 Y300.059 E45.16803
G1 X23.815 Y300.059 E45.19107
G1 X23.815 Y280.739 E46.0517
G1 X24.332 Y280.739 E46.07473
G1 X24.332 Y300.281 E46.94527
G92 E0
G1 E-4 F2700
; acceleration to travel
M204 S1500
G1 X17.109 Y300.195 F7200
; decel to extrusion
M204 S300
G1 X15.664 Y300.178
; end travel
G1 E0 F2700
;TYPE:Gap fill
;WIDTH:0.294629
G1 F1500
G1 X15.664 Y300.052 E0.00263
G1 X15.664 Y280.746 E0.40671
G1 X15.664 Y280.683 E0.40803
G1 X15.664 Y280.62 E0.40934
;LAYER_CHANGE
;Z:0.35
;HEIGHT:0.15
;LAYER:1
M204 S500
G1 Z0.35 F7200
M140 S80 ; set bed temperature
M204 S300
G1 X15.21 Y280.361
;TYPE:External perimeter
;WIDTH:0.42
G1 F1500
G1 X15.21 Y280.19 E0.41348
G1 X24.79 Y280.19 E0.64517
G1 X24.79 Y280.925 E0.66294
G1 X15.21 Y280.925 E0.89463
G1 X15.21 Y280.421 E0.90681
;WIPE_START
M204 S500
G1 X15.556 Y280.161 F7200
;WIPE_END
;LAYER_CHANGE
;Z:0.5
;HEIGHT:0.15
;LAYER:2
G1 Z0.5 F7200
M204 S300
G1 X15.21 Y280.104
G1 F600
G1 X24.79 Y280.104 E1.1385
G1 X24.79 Y280.839 E1.15627
G1 X15.21 Y280.839 E1.38796
G1 X15.21 Y280.164 E1.40427
;WIPE_START
M204 S500
G1 X15.556 Y280.304 F7200
;WIPE_END
M106 S153
;LAYER_CHANGE
;Z:0.65
;HEIGHT:0.15
;LAYER:3
G1 Z0.65 F7200
M204 S300
G1 X15.21 Y280.017
G1 F600
G1 X24.79 Y280.017 E1.63596
G1 X24.79 Y280.262 E1.64189
G1 X24.79 Y280.752 E1.65373
G1 X15.21 Y280.752 E1.88542
G1 X15.21 Y280.077 E1.90174
;WIPE_START
M204 S500
G1 X15.556 Y280.217 F7200
;WIPE_END
;LAYER_CHANGE
;Z:0.8
;HEIGHT:0.15
;LAYER:4
G1 Z0.8 F7200
M204 S300
G1 X15.21 Y280.665
G1 F600
G1 X15.21 Y279.931 E1.91951
G1 X24.79 Y279.931 E2.1512
G1 X24.79 Y280.665 E2.16897
G1 X15.27 Y280.665 E2.39921
;WIPE_START
M204 S500
G1 X15.41 Y280.319 F7200
;WIPE_END
;LAYER_CHANGE
;Z:0.95
;HEIGHT:0.15
;LAYER:5
G1 Z0.95 F7200
M204 S300
G1 X15.21 Y280.579
G1 F600
G1 X15.21 Y279.844 E2.41698
G1 X24.79 Y279.844 E2.64867
G1 X24.79 Y280.579 E2.66644
G1 X15.27 Y280.579 E2.89668
;WIPE_START
M204 S500
G1 X15.41 Y280.232 F7200
;WIPE_END
;LAYER_CHANGE
;Z:1.1
;HEIGHT:0.15
;LAYER:6
G1 Z1.1 F7200
M204 S300
G1 X15.21 Y280.361
G1 F600
G1 X15.21 Y279.757 E2.91129
G1 X24.79 Y279.757 E3.14298
G1 X24.79 Y280.492 E3.16075
G1 X15.21 Y280.492 E3.39244
G1 X15.21 Y280.421 E3.39414
;WIPE_START
M204 S500
G1 X15.556 Y280.161 F7200
;WIPE_END
;LAYER_CHANGE
;Z:1.25
;HEIGHT:0.15
;LAYER:7
G1 Z1.25 F7200
M204 S300
G1 X15.28 Y280.405
G1 F600
G1 X15.21 Y280.405 E3.39584
G1 X15.21 Y279.671 E3.41361
G1 X24.79 Y279.671 E3.6453
G1 X24.79 Y280.161 E3.65714
G1 X24.79 Y280.405 E3.66307
G1 X15.34 Y280.405 E3.89161
;WIPE_START
M204 S500
G1 X15.08 Y280.059 F7200
;WIPE_END
;LAYER_CHANGE
;Z:1.4
;HEIGHT:0.15
;LAYER:8
G1 Z1.4 F7200
M204 S300
G1 X15.21 Y280.319
G1 F600
G1 X15.21 Y279.584 E3.90938
G1 X24.79 Y279.584 E4.14107
G1 X24.79 Y280.319 E4.15884
G1 X15.27 Y280.319 E4.38908
;WIPE_START
M204 S500
G1 X15.41 Y279.972 F7200
;WIPE_END
;LAYER_CHANGE
;Z:1.55
;HEIGHT:0.15
;LAYER:9
G1 Z1.55 F7200
M204 S300
G1 X15.21 Y280.232
G1 F600
G1 X15.21 Y279.498 E4.40685
G1 X24.79 Y279.498 E4.63854
G1 X24.79 Y280.232 E4.65631
G1 X15.27 Y280.232 E4.88655
;WIPE_START
M204 S500
G1 X15.41 Y279.886 F7200
;WIPE_END
;LAYER_CHANGE
;Z:1.7
;HEIGHT:0.15
;LAYER:10
G1 Z1.7 F7200
M204 S300
G1 X15.21 Y279.741
G1 F600
G1 X24.79 Y279.741 E5.11824
G1 X24.79 Y280.146 E5.12803
G1 X15.21 Y280.146 E5.35972
G1 X15.21 Y279.801 E5.36805
;WIPE_START
M204 S500
G1 X15.556 Y279.941 F7200
;WIPE_END
;LAYER_CHANGE
;Z:1.85
;HEIGHT:0.15
;LAYER:11
G1 Z1.85 F7200
G92 E0
G1 E-4 F2700
; acceleration to travel
M204 S1500
G1 X23.426 Y280.015 F7200
; decel to extrusion
M204 S300
G1 X25 Y280.03
; end travel
G1 E0 F2700
;TYPE:Thin wall
;WIDTH:0.179418
G1 F600
G1 X24.907 Y280.03 E0.00086
;WIDTH:0.418421
G1 X24.86 Y280.03 E0.00198
;WIDTH:0.478172
G1 X24.761 Y280.03 E0.00474
G1 X15.14 Y280.03 E0.27232
;WIDTH:0.338753
G1 X15.047 Y280.03 E0.2741
;WIDTH:0.09975
G1 X15 Y280.03 E0.2743
G92 E0
G1 E-4 F2700
G92 E0
M204 S500
G1 X290 Y20 F7200
M140 S90 ; set bed temperature
M107
;LAYER_CHANGE
;Z:0.2
;HEIGHT:0.2
;LAYER:12
G1 Z0.2 F7200
; acceleration to travel
M204 S1500
G1 X297.823 Y19.994
; decel to extrusion
M204 S300
G1 X299.387 Y19.993
; end travel
G1 E4 F2700
;TYPE:Skirt
;WIDTH:0.56
G1 F1500
G1 X299.395 Y30.325 E4.44423
G1 X299.263 Y31.106 E4.47828
G1 X298.972 Y31.874 E4.51362
G1 X298.37 Y32.768 E4.55991
G1 X297.5 Y33.57 E4.61079
G1 X296.979 Y33.876 E4.63677
G1 X296.41 Y34.115 E4.66333
G1 X295.573 Y34.298 E4.70014
G1 X284.594 Y34.314 E5.17221
G1 X283.813 Y34.181 E5.20626
G1 X283.044 Y33.89 E5.2416
G1 X282.151 Y33.289 E5.2879
G1 X281.349 Y32.419 E5.33878
G1 X281.042 Y31.898 E5.36476
G1 X280.803 Y31.326 E5.39143
G1 X280.605 Y30.332 E5.435
G1 X280.605 Y8.877 E6.35747
G1 X280.737 Y8.096 E6.39151
G1 X281.028 Y7.328 E6.42685
G1 X281.63 Y6.434 E6.47314
G1 X282.5 Y5.632 E6.52402
G1 X283.021 Y5.326 E6.55
G1 X283.58 Y5.091 E6.57609
G1 X284.294 Y4.919 E6.60765
G1 X295.651 Y4.912 E7.09597
G1 X296.422 Y5.093 E7.13003
G1 X297.18 Y5.431 E7.16569
G1 X297.801 Y5.874 E7.19849
G1 X298.396 Y6.463 E7.23448
G1 X298.854 Y7.109 E7.26852
G1 X299.19 Y7.854 E7.30367
G1 X299.379 Y8.709 E7.34133
G1 X299.387 Y19.933 E7.82389
G1 X298.873 Y19.933 F7200
G1 F1500
G1 X298.878 Y30.303 E8.26974
