; HEADER_BLOCK_START
; generated by OrcaSlicer 1.6.2 on 2023-05-23 at 21:25:49
; total layer number: 133
; HEADER_BLOCK_END

; THUMBNAIL_BLOCK_START
; THUMBNAIL_BLOCK_END

; external perimeters extrusion width = 0.40mm
; perimeters extrusion width = 0.45mm
; infill extrusion width = 0.64mm
; solid infill extrusion width = 0.60mm
; top infill extrusion width = 0.40mm
; first layer extrusion width = 0.50mm

; EXECUTABLE_BLOCK_START
EXCLUDE_OBJECT_DEFINE NAME=Cube_20mm.stl_id_0_copy_0 CENTER=160,170 POLYGON=[[150,162],[150.011,161.791],[150.044,161.584],[150.098,161.382],[150.173,161.187],[150.268,161],[150.382,160.824],[150.514,160.662],[150.662,160.514],[150.824,160.382],[151,160.268],[151.187,160.173],[151.382,160.098],[151.584,160.044],[151.791,160.011],[152,160],[168,160],[168.209,160.011],[168.416,160.044],[168.618,160.098],[168.813,160.173],[169,160.268],[169.176,160.382],[169.338,160.514],[169.486,160.662],[169.618,160.824],[169.732,161],[169.827,161.187],[169.902,161.382],[169.956,161.584],[169.989,161.791],[170,162],[170,178],[169.989,178.209],[169.956,178.416],[169.902,178.618],[169.827,178.813],[169.732,179],[169.618,179.176],[169.486,179.338],[169.338,179.486],[169.176,179.618],[169,179.732],[168.813,179.827],[168.618,179.902],[168.416,179.956],[168.209,179.989],[168,180],[152,180],[151.791,179.989],[151.759,179.985],[151.584,179.956],[151.521,179.942],[151.382,179.902],[151.291,179.87],[151.187,179.827],[151.071,179.771],[151,179.732],[150.864,179.646],[150.824,179.618],[150.674,179.497],[150.662,179.486],[150.514,179.338],[150.503,179.326],[150.382,179.176],[150.354,179.136],[150.268,179],[150.229,178.929],[150.173,178.813],[150.13,178.709],[150.098,178.618],[150.058,178.479],[150.044,178.416],[150.015,178.241],[150.011,178.209],[150,178],[150,162]]
M73 P0 R20
;TYPE:Custom
M190 S90
M109 S215
PRINT_START EXTRUDER=215 BED=90

G90
G21
M83 ; use relative distances for extrusion
START_PRINT EXTRUDER_TEMP=215 BED_TEMP=90 SIZE=149.319_159.32_170.681_180.681
M106 S0 ; disable fan
;LAYER_CHANGE
;Z:0.2
;HEIGHT:0.2
;BEFORE_LAYER_CHANGE
;0.2
G92 E0

G1 E-2.5 F2700 ; retract
;AFTER_LAYER_CHANGE
;0.2
M204 S500 ; adjust acceleration
G1 X150.513 Y160.068 F21000 ; move to first skirt point travel_to_xyz
G1 Z.6 ; move to first skirt point travel_to_xyz
G1 Z.2 ; restore layer Z
G1 E2.5 F1800 ;  ; unretract
;TYPE:Skirt
;WIDTH:0.5
G1 F3000
G1 X150.747 Y159.91 E.01182 ; skirt
G1 X151.384 Y159.639 E.02894 ; skirt
G1 X152 Y159.548 E.02602 ; skirt
G1 X168.285 Y159.57 E.68081 ; skirt
G1 X169.253 Y159.91 E.04289 ; skirt
G1 X169.487 Y160.068 E.01182 ; skirt
G1 X170.076 Y160.719 E.03668 ; skirt
G1 X170.359 Y161.384 E.03022 ; skirt
G1 X170.452 Y162 E.02606 ; skirt
G1 X170.452 Y178 E.66891 ; skirt
G1 X170.361 Y178.616 E.02602 ; skirt
G1 X169.932 Y179.487 E.0406 ; skirt
G1 X169.075 Y180.187 E.04627 ; skirt
G1 X168.616 Y180.359 E.02046 ; skirt
G1 X168 Y180.452 E.02606 ; skirt
G1 X151.89 Y180.449 E.67352 ; skirt
G1 X151.235 Y180.329 E.02783 ; skirt
G1 X150.459 Y179.906 E.03694 ; skirt
G1 X150.048 Y179.482 E.0247 ; skirt
G1 X149.781 Y179.04 E.02158 ; skirt
G1 X149.596 Y178.479 E.0247 ; skirt
G1 X149.548 Y178 E.02011 ; skirt
G1 X149.548 Y162 E.66891 ; skirt
G1 X149.641 Y161.384 E.02606 ; skirt
G1 X149.924 Y160.719 E.03022 ; skirt
G1 X150.473 Y160.113 E.03417 ; skirt
G1 X150.768 Y160.447 F21000
G1 F3000
G1 X151.481 Y160.086 E.03338 ; skirt
G1 X152 Y160.005 E.02198 ; skirt
G1 X168.213 Y160.022 E.67783 ; skirt
G1 X168.997 Y160.289 E.03461 ; skirt
G1 X169.673 Y160.935 E.03909 ; skirt
G1 X169.913 Y161.486 E.02511 ; skirt
G1 X169.995 Y162 E.02178 ; skirt
G1 X169.995 Y178 E.66891 ; skirt
G1 X169.914 Y178.519 E.02197 ; skirt
G1 X169.553 Y179.232 E.03338 ; skirt
G1 X168.858 Y179.784 E.03711 ; skirt
G1 X168 Y179.995 E.03695 ; skirt
G1 X151.917 Y179.992 E.67237 ; skirt
G1 X151.216 Y179.833 E.03005 ; skirt
G1 X150.617 Y179.436 E.03005 ; skirt
G1 X150.197 Y178.853 E.03005 ; skirt
G1 X150.008 Y178.083 E.03314 ; skirt
G1 X150.005 Y162 E.67237 ; skirt
G1 X150.216 Y161.142 E.03695 ; skirt
G1 X150.731 Y160.494 E.03461 ; skirt
G1 X151.024 Y160.826 F21000
G1 F3000
G1 X151.577 Y160.533 E.02617 ; skirt
G1 X152 Y160.462 E.01794 ; skirt
G1 X168.142 Y160.473 E.67486 ; skirt
G1 X168.432 Y160.534 E.01238 ; skirt
G1 X168.976 Y160.826 E.02581 ; skirt
G1 X169.382 Y161.358 E.02797 ; skirt
G1 X169.538 Y162 E.02762 ; skirt
G1 X169.538 Y178 E.66891 ; skirt
G1 X169.467 Y178.423 E.01793 ; skirt
G1 X169.174 Y178.976 E.02617 ; skirt
G1 X168.642 Y179.382 E.02797 ; skirt
G1 X168 Y179.538 E.02762 ; skirt
G1 X152 Y179.538 E.66891 ; skirt
G1 X151.404 Y179.417 E.02544 ; skirt
G1 X150.94 Y179.113 E.02317 ; skirt
G1 X150.583 Y178.596 E.02626 ; skirt
G1 X150.462 Y178 E.02544 ; skirt
G1 X150.462 Y162 E.66891 ; skirt
G1 X150.618 Y161.358 E.02762 ; skirt
G1 X150.988 Y160.874 E.02546 ; skirt
G1 X151.279 Y161.205 F21000
G1 F3000
G1 X151.673 Y160.979 E.01897 ; skirt
G1 X152 Y160.919 E.0139 ; skirt
G1 X168.071 Y160.925 E.67189 ; skirt
G1 X168.331 Y160.98 E.01112 ; skirt
G1 X168.721 Y161.205 E.01879 ; skirt
G1 X168.979 Y161.575 E.01884 ; skirt
G1 X169.081 Y162 E.01829 ; skirt
G1 X169.081 Y178 E.66891 ; skirt
G1 X169.021 Y178.327 E.0139 ; skirt
G1 X168.795 Y178.721 E.01897 ; skirt
G1 X168.425 Y178.979 E.01884 ; skirt
G1 X168 Y179.081 E.01829 ; skirt
G1 X152 Y179.081 E.66891 ; skirt
G1 X151.591 Y179 E.01742 ; skirt
G1 X151.263 Y178.79 E.01628 ; skirt
G1 X151 Y178.409 E.01937 ; skirt
G1 X150.919 Y178 E.01742 ; skirt
G1 X150.919 Y162 E.66891 ; skirt
G1 X151.021 Y161.575 E.01829 ; skirt
G1 X151.245 Y161.254 E.01634 ; skirt
; printing object Cube 20mm.stl id:0 copy 0
EXCLUDE_OBJECT_START NAME=Cube_20mm.stl_id_0_copy_0
G1 E-1.75 F2700 ; retract
;WIPE_START
G1 F3000
G1 X151.673 Y160.979 E-.18124 ; wipe and retract
G1 X152 Y160.919 E-.11842 ; wipe and retract
G1 X153.159 Y160.92 E-.41284 ; wipe and retract
;WIPE_END
G1 E-.0375 F2700 ; retract
G1 X162.674 Y167.286 Z.8 F21000 ; move to first brim point travel_to_xyz
G1 X164.871 Y168.756 Z.8 ; move to first brim point travel_to_xyz
G1 Z.2 ; restore layer Z
G1 E2.5 F1800 ;  ; unretract
;TYPE:Brim
G1 F3000
G1 X165.792 Y168.765 E.03848 ; brim
G1 X166.11 Y168.825 E.01352 ; brim
G1 X166.421 Y168.972 E.01441 ; brim
G1 X166.548 Y169.075 E.00681 ; brim
G1 X166.678 Y169.226 E.00836 ; brim
G1 X166.777 Y169.406 E.00858 ; brim
G1 X166.847 Y169.63 E.0098 ; brim
G1 X166.881 Y169.985 E.01491 ; brim
G1 X166.849 Y170.347 E.01517 ; brim
G1 X166.777 Y170.588 E.01053 ; brim
G1 X166.677 Y170.777 E.00893 ; brim
G1 X166.552 Y170.926 E.00814 ; brim
G1 X166.365 Y171.07 E.00988 ; brim
G1 X166.154 Y171.169 E.00972 ; brim
G1 X165.855 Y171.244 E.01291 ; brim
G1 X165.664 Y171.265 E.00803 ; brim
G1 X164.871 Y171.27 E.03314 ; brim
G1 X164.871 Y168.816 E.10259 ; brim
G1 X165.094 Y168.901 F21000
G1 F3000
G1 X165.274 Y168.814 E.00837 ; brim
G1 X165.609 Y168.814 E.01402 ; brim
G1 X165.87 Y168.837 E.01096 ; brim
G1 X166.12 Y168.916 E.01096 ; brim
G1 X166.293 Y169.02 E.00844 ; brim
G1 X166.473 Y169.206 E.01083 ; brim
G1 X166.627 Y169.538 E.01527 ; brim
G1 X166.672 Y169.78 E.01031 ; brim
G1 X166.683 Y170.021 E.01007 ; brim
G1 X166.648 Y170.372 E.01477 ; brim
G1 X166.572 Y170.612 E.01054 ; brim
G1 X166.459 Y170.809 E.00949 ; brim
G1 X166.26 Y171.006 E.01171 ; brim
G1 X165.94 Y171.157 E.01479 ; brim
G1 X165.692 Y171.201 E.01053 ; brim
G1 X165.277 Y171.208 E.01733 ; brim
G1 X165.136 Y171.161 E.00623 ; brim
G1 X165.045 Y170.979 E.0085 ; brim
G1 X165.045 Y169.042 E.08097 ; brim
G1 X165.074 Y168.958 E.00372 ; brim
G1 E-1.75 F2700 ; retract
;WIPE_START
G1 F3000
G1 X165.274 Y168.814 E-.08771 ; wipe and retract
G1 X165.609 Y168.814 E-.11944 ; wipe and retract
G1 X165.87 Y168.837 E-.09337 ; wipe and retract
G1 X166.12 Y168.916 E-.09343 ; wipe and retract
G1 X166.293 Y169.02 E-.07189 ; wipe and retract
G1 X166.473 Y169.206 E-.09228 ; wipe and retract
G1 X166.627 Y169.538 E-.13009 ; wipe and retract
G1 X166.639 Y169.605 E-.02428 ; wipe and retract
;WIPE_END
G1 E-.0375 F2700 ; retract
G1 X160.11 Y169.709 Z.8 F21000 ; move to first perimeter point travel_to_xyz
G1 Z.2 ; restore layer Z
G1 E2.5 F1800 ;  ; unretract
;TYPE:Outer wall
G1 F3000
G1 X160.823 Y171.492 E.08026 ; perimeter
G3 X160.688 Y171.714 I-.57 J-.194 E.01093 ; perimeter
G1 X160.554 Y171.747 E.00577 ; perimeter
G1 X160.11 Y171.699 E.0187 ; perimeter
G1 X160.11 Y169.769 E.08065 ; perimeter
G1 X160.135 Y169.785 ; move inwards before travel
G1 E-1.75 F2700 ; retract
;WIPE_START
G1 F3000
G1 X160.823 Y171.492 E-.66409 ; wipe and retract
G1 X160.777 Y171.601 E-.04228 ; wipe and retract
G1 X160.767 Y171.615 E-.00613 ; wipe and retract
;WIPE_END
G1 E-.0375 F2700 ; retract
G1 X161.38 Y169.976 Z.8 F21000 ; move to first perimeter point travel_to_xyz
G1 Z.2 ; restore layer Z
G1 E2.5 F1800 ;  ; unretract
G1 F3000
G1 X161.709 Y168.975 E.04403 ; perimeter
G1 X162.916 Y168.975 E.05046 ; perimeter
M73 P1 R20
G1 X161.826 Y171.884 E.12988 ; perimeter
G3 X160.927 Y172.723 I-1.204 J-.389 E.05365 ; perimeter
G3 X160.078 Y172.679 I-.321 J-2.022 E.03582 ; perimeter
G1 X160.078 Y171.75 E.03883 ; perimeter
G1 X158.989 Y171.75 E.04551 ; perimeter
G1 X158.989 Y168.084 E.15326 ; perimeter
G1 X160.11 Y168.084 E.04684 ; perimeter
G1 X160.11 Y168.975 E.03726 ; perimeter
G1 X161.045 Y168.975 E.03909 ; perimeter
G1 X161.361 Y169.919 E.04161 ; perimeter
G1 X161.373 Y169.896 ; move inwards before travel
G1 E-1.75 F2700 ; retract
;WIPE_START
G1 F3000
G1 X161.709 Y168.975 E-.35832 ; wipe and retract
G1 X162.704 Y168.975 E-.35418 ; wipe and retract
;WIPE_END
G1 E-.0375 F2700 ; retract
G1 X158.956 Y169.292 Z.8 F21000 ; move to first perimeter point travel_to_xyz
G1 Z.2 ; restore layer Z
G1 E2.5 F1800 ;  ; unretract
G1 F3000
G1 X157.871 Y169.292 E.04535 ; perimeter
G1 X157.871 Y169.559 E.01116 ; perimeter
G1 X158.881 Y169.559 E.04219 ; perimeter
G1 X158.881 Y170.574 E.04243 ; perimeter
G1 X157.871 Y170.574 E.04219 ; perimeter
G1 X157.871 Y171.75 E.04916 ; perimeter
G1 X156.885 Y171.75 E.04124 ; perimeter
G1 X156.885 Y172.41 E.02757 ; perimeter
G1 X154.655 Y172.41 E.09322 ; perimeter
G1 X154.655 Y171.624 E.03282 ; perimeter
M73 P1 R19
G1 X156.751 Y171.624 E.08761 ; perimeter
G1 X156.751 Y168.275 E.14001 ; perimeter
G1 X158.956 Y168.275 E.09219 ; perimeter
G1 X158.956 Y169.232 E.04001 ; perimeter
G1 X158.986 Y169.367 ; move inwards before travel
G1 E-1.75 F2700 ; retract
;WIPE_START
G1 F3000
G1 X157.871 Y169.292 E-.38699 ; wipe and retract
G1 X157.871 Y169.559 E-.09509 ; wipe and retract
G1 X158.518 Y169.559 E-.23041 ; wipe and retract
;WIPE_END
G1 E-.0375 F2700 ; retract
G1 X153.747 Y169.281 Z.8 F21000 ; move to first perimeter point travel_to_xyz
G1 Z.2 ; restore layer Z
G1 E2.5 F1800 ;  ; unretract
G1 F3000
G1 X153.727 Y169.326 E.00206 ; perimeter
G1 X153.777 Y169.375 E.00295 ; perimeter
G2 X154.384 Y169.692 I104.859 J-200.5 E.02861 ; perimeter
G3 X154.936 Y170.284 I-.63 J1.14 E.03442 ; perimeter
G1 X154.996 Y170.583 E.01276 ; perimeter
G3 X154.416 Y171.633 I-1.049 J.106 E.05337 ; perimeter
G3 X152.56 Y171.523 I-.81 J-2.032 E.08026 ; perimeter
G1 X152.56 Y170.402 E.04688 ; perimeter
G2 X153.384 Y170.723 I2.42 J-4.989 E.03702 ; perimeter
G2 X153.839 Y170.744 I.27 J-.921 E.01921 ; perimeter
G1 X153.863 Y170.688 E.00255 ; perimeter
G1 X153.789 Y170.62 E.0042 ; perimeter
G2 X153.211 Y170.321 I-2.873 J4.836 E.02724 ; perimeter
G3 X152.718 Y168.797 I.523 J-1.011 E.07425 ; perimeter
G3 X153.726 Y168.239 I1.015 J.644 E.05024 ; perimeter
G3 X154.058 Y168.243 I.149 J1.653 E.01392 ; perimeter
G3 X155.062 Y168.554 I-.657 J3.891 E.04408 ; perimeter
G1 X154.67 Y169.503 E.04293 ; perimeter
G1 X154.233 Y169.337 E.01953 ; perimeter
G2 X153.867 Y169.259 I-.449 J1.209 E.0157 ; perimeter
G2 X153.804 Y169.263 I-.013 J.269 E.00264 ; perimeter
G1 X153.749 Y169.291 ; move inwards before travel
G1 E-1.75 F2700 ; retract
;WIPE_START
G1 F3000
G1 X153.727 Y169.326 E-.03558 ; wipe and retract
G1 X153.777 Y169.375 E-.02511 ; wipe and retract
G1 X154.384 Y169.692 E-.24383 ; wipe and retract
G1 X154.547 Y169.798 E-.06942 ; wipe and retract
G1 X154.728 Y169.954 E-.08512 ; wipe and retract
G1 X154.801 Y170.039 E-.03986 ; wipe and retract
G1 X154.936 Y170.284 E-.0996 ; wipe and retract
G1 X154.996 Y170.583 E-.1087 ; wipe and retract
G1 X154.996 Y170.598 E-.00527 ; wipe and retract
;WIPE_END
G1 E-.0375 F2700 ; retract
G1 X162.297 Y171.624 Z.8 F21000 ; move to first perimeter point travel_to_xyz
G1 Z.2 ; restore layer Z
G1 E2.5 F1800 ;  ; unretract
G1 F3000
G1 X164.393 Y171.624 E.08761 ; perimeter
G1 X164.393 Y168.275 E.14001 ; perimeter
G3 X165.838 Y168.287 I.595 J15.53 E.06045 ; perimeter
G3 X167.074 Y168.953 I-.097 J1.66 E.06057 ; perimeter
G3 X167.072 Y171.05 I-1.727 J1.047 E.09222 ; perimeter
G3 X165.695 Y171.743 I-1.402 J-1.072 E.06668 ; perimeter
G3 X164.527 Y171.75 I-.687 J-18.266 E.04884 ; perimeter
G1 X164.527 Y172.41 E.02757 ; perimeter
G1 X162.297 Y172.41 E.09322 ; perimeter
G1 X162.297 Y171.684 E.03032 ; perimeter
G1 X162.265 Y171.551 ; move inwards before travel
G1 E-1.75 F2700 ; retract
;WIPE_START
G1 F3000
G1 X164.296 Y171.627 E-.7125 ; wipe and retract
;WIPE_END
G1 E-.0375 F2700 ; retract
G1 X158.734 Y167.17 Z.8 F21000 ; move to first perimeter point travel_to_xyz
G1 Z.2 ; restore layer Z
G1 E2.5 F1800 ;  ; unretract
;TYPE:Inner wall
G1 F3000
G1 X158.075 Y167.17 E.02755 ; perimeter
G1 X158.075 Y167.361 E.008 ; perimeter
G1 X155.837 Y167.361 E.09358 ; perimeter
G1 X155.837 Y167.88 E.02171 ; perimeter
G1 X154.953 Y167.525 E.03983 ; perimeter
G2 X152.54 Y167.647 I-1.073 J2.696 E.10416 ; perimeter
G1 X152.54 Y162.541 E.21349 ; perimeter
G1 X167.46 Y162.541 E.62375 ; perimeter
G1 X167.46 Y168.02 E.2291 ; perimeter
G2 X165.604 Y167.361 I-1.786 J2.086 E.08422 ; perimeter
G1 X163.479 Y167.361 E.08883 ; perimeter
G1 X163.479 Y168.061 E.02926 ; perimeter
G1 X161.024 Y168.061 E.10263 ; perimeter
G1 X161.024 Y167.17 E.03726 ; perimeter
G1 X158.794 Y167.17 E.09322 ; perimeter
G1 E-1.75 F2700 ; retract
;WIPE_START
G1 F3000
G1 X158.075 Y167.17 E-.25611 ; wipe and retract
G1 X158.075 Y167.361 E-.06819 ; wipe and retract
G1 X156.985 Y167.361 E-.38821 ; wipe and retract
;WIPE_END
G1 E-.0375 F2700 ; retract
G1 X162.583 Y171.167 Z.8 F21000 ; move to first perimeter point travel_to_xyz
G1 Z.2 ; restore layer Z
G1 E2.5 F1800 ;  ; unretract
G1 F3000
G1 X163.576 Y168.518 E.11828 ; perimeter
G1 X160.567 Y168.518 E.12581 ; perimeter
G1 X160.567 Y167.627 E.03726 ; perimeter
G1 X158.532 Y167.627 E.08506 ; perimeter
G1 X158.532 Y167.818 E.008 ; perimeter
G1 X156.294 Y167.818 E.09358 ; perimeter
G1 X156.294 Y171.167 E.14001 ; perimeter
G1 X155.413 Y171.167 E.03682 ; perimeter
G2 X155.452 Y170.531 I-2.569 J-.477 E.02672 ; perimeter
G1 X155.37 Y170.125 E.01733 ; perimeter
G1 X155.178 Y169.777 E.01658 ; perimeter
G1 X155.092 Y169.677 E.00553 ; perimeter
G1 X155.661 Y168.302 E.06219 ; perimeter
G1 X154.798 Y167.956 E.03887 ; perimeter
G2 X152.92 Y167.985 I-.905 J2.179 E.08079 ; perimeter
G2 X152.553 Y168.26 I.81 J1.46 E.01921 ; perimeter
G1 X152.269 Y168.631 E.01952 ; perimeter
G1 X152.083 Y168.568 E.00822 ; perimeter
G1 X152.083 Y162.084 E.27108 ; perimeter
G1 X167.917 Y162.084 E.66197 ; perimeter
G1 X167.917 Y169.137 E.29486 ; perimeter
G1 X167.691 Y169.177 E.0096 ; perimeter
G2 X165.882 Y167.832 I-1.92 J.693 E.09984 ; perimeter
G1 X163.936 Y167.818 E.08135 ; perimeter
G1 X163.936 Y171.167 E.14001 ; perimeter
G1 X162.643 Y171.167 E.05407 ; perimeter
G1 E-1.75 F2700 ; retract
;WIPE_START
G1 F3000
G1 X163.307 Y169.281 E-.7125 ; wipe and retract
;WIPE_END
G1 E-.0375 F2700 ; retract
G1 X154.191 Y176.206 Z.8 F21000 ; move to first perimeter point travel_to_xyz
G1 X152.541 Y177.459 Z.8 ; move to first perimeter point travel_to_xyz
G1 Z.2 ; restore layer Z
G1 E2.5 F1800 ;  ; unretract
G1 F3000
G1 X152.54 Y172.51 E.20691 ; perimeter
G2 X153.741 Y172.711 I1.147 J-3.17 E.05117 ; perimeter
G1 X153.741 Y173.324 E.02563 ; perimeter
G1 X157.799 Y173.324 E.16966 ; perimeter
G1 X157.799 Y172.664 E.02757 ; perimeter
G1 X159.164 Y172.664 E.05704 ; perimeter
G1 X159.164 Y173.457 E.03313 ; perimeter
