; generated by SuperSlicer 2.4 on 2023-05-19 at 09:23:44 UTC

; 

; external perimeters extrusion width = 0.42mm
; perimeters extrusion width = 0.45mm
; infill extrusion width = 0.45mm
; solid infill extrusion width = 0.45mm
; top infill extrusion width = 0.42mm
; support material extrusion width = 0.30mm


;TYPE:Custom
START_PRINT EXTRUDER_TEMP=220 BED_TEMP=90 SIZE=128.615_133.615_181.383_176.385
M107
G21 ; set units to millimeters
G90 ; use absolute coordinates
M82 ; use absolute distances for extrusion
G92 E0
; Filament gcode
;_TOOLCHANGE 0
M104 S220 ; set temperature
M109 S220 ; set temperature and wait for it to be reached
M190 S90 ; set bed temperature and wait for it to be reached
M107
;LAYER_CHANGE
;Z:0.2
;HEIGHT:0.2
;LAYER:0
G1 Z0.2 F7200
G1 E-4 F2700
M204 S300
G1 X131.082 Y135.482 F7200
G1 E0 F2700
;TYPE:Skirt
;WIDTH:0.45
G1 F1500
G1 X132.927 Y134.329 E0.07365
G1 X134.129 Y133.96 E0.11619
G1 X135.375 Y133.819 E0.15864
G1 X174.645 Y133.819 E1.48788
G1 X175.965 Y133.981 E1.53291
G1 X177.245 Y134.408 E1.57858
G1 X178.413 Y135.083 E1.62426
G1 X179.395 Y135.96 E1.66881
G1 X180.025 Y136.754 E1.70312
G1 X180.676 Y137.949 E1.74919
G1 X181.015 Y139.016 E1.78709
G1 X181.167 Y140.122 E1.82484
G1 X181.179 Y169.672 E2.82509
G1 X181.007 Y171.017 E2.87098
G1 X180.564 Y172.307 E2.91715
G1 X179.865 Y173.483 E2.96347
G1 X178.919 Y174.518 E3.01094
G1 X177.073 Y175.671 E3.0846
G1 X175.871 Y176.04 E3.12715
G1 X174.625 Y176.181 E3.16959
G1 X135.367 Y176.181 E4.49843
G1 X133.989 Y176.009 E4.54545
G1 X132.695 Y175.565 E4.59176
G1 X131.517 Y174.865 E4.63813
G1 X130.482 Y173.919 E4.6856
G1 X129.329 Y172.073 E4.75927
G1 X128.96 Y170.871 E4.80181
G1 X128.819 Y169.625 E4.84425
G1 X128.819 Y140.368 E5.83459
G1 X128.991 Y138.99 E5.88157
G1 X129.436 Y137.694 E5.92796
G1 X130.136 Y136.516 E5.97435
G1 X131.041 Y135.526 E6.01976
G1 X131.341 Y135.801 F7200
G1 F1500
G1 X131.363 Y135.777 E6.02086
G1 X133.072 Y134.711 E6.08907
G1 X134.23 Y134.355 E6.13007
G1 X135.386 Y134.226 E6.16944
G1 X174.632 Y134.226 E7.49788
G1 X175.895 Y134.382 E7.54093
G1 X177.095 Y134.787 E7.58383
G1 X178.19 Y135.425 E7.62672
G1 X179.11 Y136.251 E7.66858
G1 X179.677 Y136.965 E7.69941
G1 X180.294 Y138.091 E7.74289
G1 X180.622 Y139.123 E7.77952
G1 X180.761 Y140.162 E7.81503
G1 X180.774 Y169.633 E8.81258
G1 X180.606 Y170.944 E8.85732
G1 X180.186 Y172.153 E8.90065
G1 X179.526 Y173.256 E8.94415
G1 X178.638 Y174.222 E8.98859
G1 X176.928 Y175.289 E9.0568
G1 X175.77 Y175.645 E9.09781
G1 X174.614 Y175.774 E9.13718
G1 X135.38 Y175.774 E10.46521
G1 X134.101 Y175.617 E10.50882
G1 X132.847 Y175.187 E10.55369
G1 X131.744 Y174.526 E10.5972
G1 X130.778 Y173.638 E10.64164
G1 X129.711 Y171.928 E10.70986
G1 X129.355 Y170.77 E10.75087
G1 X129.226 Y169.614 E10.79024
G1 X129.226 Y140.38 E11.77976
G1 X129.383 Y139.101 E11.82337
G1 X129.796 Y137.884 E11.8669
G1 X130.475 Y136.742 E11.91185
G1 X131.3 Y135.845 E11.95309
G1 X131.599 Y136.122 F7200
G1 F1500
G1 X131.643 Y136.074 E11.95531
G1 X133.218 Y135.092 E12.01814
G1 X134.295 Y134.757 E12.05631
G1 X135.398 Y134.633 E12.09387
G1 X174.62 Y134.633 E13.42149
G1 X175.824 Y134.784 E13.46256
G1 X176.945 Y135.166 E13.50265
G1 X177.966 Y135.765 E13.54275
G1 X178.825 Y136.542 E13.58193
G1 X179.329 Y137.176 E13.60935
G1 X179.913 Y138.234 E13.65026
G1 X180.221 Y139.195 E13.6844
G1 X180.356 Y140.203 E13.71883
G1 X180.367 Y169.62 E14.71458
G1 X180.214 Y170.832 E14.7559
G1 X179.826 Y171.963 E14.79637
G1 X179.188 Y173.029 E14.83844
G1 X178.357 Y173.926 E14.87982
G1 X176.782 Y174.908 E14.94265
G1 X175.705 Y175.243 E14.98083
G1 X174.602 Y175.367 E15.01839
G1 X135.392 Y175.367 E16.34562
G1 X134.212 Y175.225 E16.38585
G1 X133.038 Y174.826 E16.42782
G1 X131.971 Y174.188 E16.46989
G1 X131.074 Y173.357 E16.51127
G1 X130.092 Y171.782 E16.57411
G1 X129.757 Y170.705 E16.61229
G1 X129.633 Y169.602 E16.64984
G1 X129.633 Y140.393 E17.63856
G1 X129.785 Y139.173 E17.68017
G1 X130.175 Y138.036 E17.72085
G1 X130.813 Y136.97 E17.76293
G1 X131.558 Y136.166 E17.8
G1 X131.855 Y136.443 F7200
G1 F1500
G1 X131.922 Y136.371 E17.80334
G1 X133.364 Y135.472 E17.86086
G1 X134.361 Y135.16 E17.8962
G1 X135.409 Y135.04 E17.93193
G1 X174.607 Y135.04 E19.25873
G1 X175.713 Y135.176 E19.29645
G1 X176.758 Y135.528 E19.33376
G1 X177.709 Y136.081 E19.37101
G1 X178.539 Y136.833 E19.40891
G1 X178.981 Y137.389 E19.43296
G1 X179.531 Y138.378 E19.47126
G1 X179.827 Y139.302 E19.5041
G1 X179.951 Y140.243 E19.53623
G1 X179.96 Y169.608 E20.53021
G1 X179.823 Y170.72 E20.56812
G1 X179.448 Y171.81 E20.60714
G1 X178.85 Y172.8 E20.6463
G1 X178.078 Y173.629 E20.68463
G1 X176.636 Y174.528 E20.74216
G1 X175.639 Y174.84 E20.7775
G1 X174.591 Y174.96 E20.81323
G1 X135.404 Y174.96 E22.13965
G1 X134.282 Y174.823 E22.1779
G1 X133.19 Y174.448 E22.21699
G1 X132.2 Y173.85 E22.25615
G1 X131.371 Y173.078 E22.29449
G1 X130.472 Y171.636 E22.35201
G1 X130.16 Y170.639 E22.38735
G1 X130.04 Y169.591 E22.42308
G1 X130.04 Y140.405 E23.41098
G1 X130.176 Y139.285 E23.44919
G1 X130.553 Y138.189 E23.48841
G1 X131.151 Y137.198 E23.52758
G1 X131.814 Y136.487 E23.56049
G1 X132.11 Y136.766 F7200
G1 F1500
G1 X132.201 Y136.669 E23.56496
G1 X133.511 Y135.853 E23.61721
G1 X134.464 Y135.554 E23.65101
G1 X135.421 Y135.447 E23.6836
G1 X174.595 Y135.447 E25.00961
G1 X175.603 Y135.568 E25.04397
G1 X176.608 Y135.907 E25.07987
G1 X177.485 Y136.422 E25.11428
G1 X178.253 Y137.122 E25.14948
G1 X178.634 Y137.602 E25.17022
G1 X179.15 Y138.522 E25.20593
G1 X179.426 Y139.373 E25.2362
G1 X179.545 Y140.283 E25.26725
G1 X179.553 Y169.595 E26.25946
G1 X179.421 Y170.648 E26.29536
G1 X179.071 Y171.656 E26.33148
G1 X178.514 Y172.571 E26.36773
G1 X177.799 Y173.331 E26.40304
G1 X176.489 Y174.147 E26.45529
G1 X175.536 Y174.446 E26.48909
G1 X174.579 Y174.553 E26.52168
G1 X135.417 Y174.553 E27.84729
G1 X134.354 Y174.422 E27.88355
G1 X133.344 Y174.071 E27.91972
G1 X132.43 Y173.514 E27.95598
G1 X131.669 Y172.799 E27.99128
G1 X130.853 Y171.489 E28.04354
G1 X130.554 Y170.536 E28.07734
G1 X130.447 Y169.579 E28.10993
G1 X130.447 Y140.418 E29.09702
G1 X130.578 Y139.356 E29.13323
G1 X130.93 Y138.343 E29.16954
G1 X131.488 Y137.428 E29.2058
G1 X132.069 Y136.809 E29.23454
G1 X132.366 Y137.088 F7200
G1 F1500
G1 X132.479 Y136.967 E29.24015
G1 X133.659 Y136.233 E29.28717
G1 X134.529 Y135.956 E29.3181
G1 X135.432 Y135.854 E29.34885
G1 X174.583 Y135.854 E30.67406
G1 X175.533 Y135.97 E30.70645
G1 X176.456 Y136.286 E30.73949
G1 X177.259 Y136.761 E30.77106
G1 X177.966 Y137.411 E30.80357
G1 X178.288 Y137.817 E30.82109
G1 X178.769 Y138.668 E30.85419
G1 X179.033 Y139.48 E30.88312
G1 X179.14 Y140.321 E30.91181
G1 X179.146 Y169.583 E31.90229
G1 X179.029 Y170.536 E31.93478
G1 X178.711 Y171.464 E31.96799
G1 X178.202 Y172.307 E32.00133
G1 X177.521 Y173.033 E32.03501
G1 X176.341 Y173.767 E32.08203
G1 X175.471 Y174.044 E32.11296
G1 X174.568 Y174.146 E32.14371
G1 X135.429 Y174.146 E33.46852
G1 X134.465 Y174.03 E33.50137
G1 X133.536 Y173.711 E33.53463
G1 X132.693 Y173.202 E33.56797
G1 X131.967 Y172.521 E33.60166
G1 X131.233 Y171.341 E33.64868
G1 X130.956 Y170.471 E33.67961
G1 X130.854 Y169.568 E33.71036
G1 X130.854 Y140.43 E34.69665
G1 X130.97 Y139.468 E34.72945
G1 X131.29 Y138.535 E34.76284
G1 X131.799 Y137.691 E34.79619
G1 X132.325 Y137.132 E34.82217
G1 X132.619 Y137.411 F7200
G1 F1500
G1 X132.757 Y137.266 E34.82893
G1 X133.807 Y136.613 E34.87081
G1 X134.596 Y136.358 E34.89886
G1 X135.444 Y136.261 E34.92774
G1 X174.571 Y136.261 E36.25215
G1 X175.423 Y136.363 E36.28119
G1 X176.267 Y136.647 E36.31135
G1 X177.033 Y137.1 E36.34146
G1 X177.677 Y137.699 E36.37125
G1 X177.942 Y138.032 E36.38565
G1 X178.389 Y138.814 E36.41615
G1 X178.632 Y139.551 E36.4424
G1 X178.735 Y140.36 E36.47
G1 X178.739 Y169.571 E37.45875
G1 X178.628 Y170.464 E37.48923
G1 X178.334 Y171.31 E37.51953
G1 X177.866 Y172.077 E37.54995
G1 X177.243 Y172.734 E37.58057
G1 X176.193 Y173.387 E37.62245
G1 X175.404 Y173.642 E37.6505
G1 X174.556 Y173.739 E37.67938
G1 X135.441 Y173.739 E39.00338
G1 X134.537 Y173.628 E39.03424
G1 X133.69 Y173.334 E39.06457
G1 X132.923 Y172.866 E39.09499
G1 X132.266 Y172.243 E39.12561
G1 X131.613 Y171.193 E39.16749
G1 X131.358 Y170.404 E39.19554
G1 X131.261 Y169.556 E39.22442
G1 X131.261 Y140.442 E40.20991
G1 X131.371 Y139.538 E40.24072
G1 X131.667 Y138.689 E40.27117
G1 X132.135 Y137.921 E40.3016
G1 X132.578 Y137.455 E40.32337
G1 X132.871 Y137.736 F7200
G1 F1500
G1 X133.033 Y137.567 E40.3313
G1 X133.956 Y136.993 E40.36809
G1 X134.701 Y136.752 E40.3946
G1 X135.455 Y136.668 E40.42026
G1 X174.559 Y136.668 E41.74387
G1 X175.353 Y136.764 E41.77096
G1 X176.115 Y137.025 E41.79823
G1 X176.805 Y137.438 E41.82543
G1 X177.388 Y137.986 E41.85251
G1 X177.597 Y138.249 E41.86389
G1 X178.009 Y138.962 E41.89176
G1 X178.239 Y139.66 E41.91663
G1 X178.329 Y140.397 E41.94177
G1 X178.332 Y169.559 E42.92886
G1 X178.236 Y170.353 E42.95594
G1 X177.975 Y171.117 E42.98327
G1 X177.53 Y171.846 E43.01219
G1 X176.967 Y172.433 E43.03972
G1 X176.044 Y173.007 E43.07651
G1 X175.299 Y173.248 E43.10302
G1 X174.545 Y173.332 E43.12868
G1 X135.453 Y173.332 E44.45189
G1 X134.648 Y173.236 E44.47935
G1 X133.883 Y172.975 E44.5067
G1 X133.154 Y172.53 E44.53563
G1 X132.567 Y171.967 E44.56315
G1 X131.993 Y171.044 E44.59994
G1 X131.752 Y170.299 E44.62646
G1 X131.668 Y169.545 E44.65212
G1 X131.668 Y140.454 E45.63681
G1 X131.763 Y139.651 E45.66417
G1 X132.044 Y138.844 E45.69312
G1 X132.47 Y138.154 E45.72057
G1 X132.829 Y137.779 E45.73814
G1 X133.12 Y138.061 F7200
G1 F1500
G1 X133.308 Y137.868 E45.74725
G1 X134.106 Y137.372 E45.77907
G1 X134.768 Y137.154 E45.80265
G1 X135.466 Y137.075 E45.82644
G1 X174.546 Y137.076 E47.14924
G1 X175.282 Y137.166 E47.17433
G1 X175.961 Y137.402 E47.19868
G1 X176.575 Y137.775 E47.22298
G1 X177.097 Y138.271 E47.24737
G1 X177.253 Y138.467 E47.25584
G1 X177.629 Y139.109 E47.28104
G1 X177.846 Y139.767 E47.30448
G1 X177.923 Y140.432 E47.32715
G1 X177.924 Y169.546 E48.31261
G1 X177.834 Y170.282 E48.3377
G1 X177.597 Y170.962 E48.36207
G1 X177.195 Y171.614 E48.38801
G1 X176.692 Y172.132 E48.41245
G1 X175.894 Y172.628 E48.44427
G1 X175.232 Y172.846 E48.46785
G1 X174.534 Y172.925 E48.49164
G1 X135.466 Y172.925 E49.81404
G1 X134.718 Y172.835 E49.83952
G1 X134.038 Y172.597 E49.8639
G1 X133.386 Y172.195 E49.88984
G1 X132.868 Y171.692 E49.91428
G1 X132.372 Y170.894 E49.9461
G1 X132.154 Y170.232 E49.96968
G1 X132.075 Y169.534 E49.99347
G1 X132.075 Y140.466 E50.97738
G1 X132.155 Y139.762 E51.00135
G1 X132.403 Y139.038 E51.02724
G1 X132.805 Y138.386 E51.05318
G1 X133.079 Y138.104 E51.06648
G1 X133.367 Y138.388 F7200
G1 F1500
G1 X133.581 Y138.17 E51.0768
G1 X134.257 Y137.751 E51.10372
G1 X134.875 Y137.548 E51.12575
G1 X135.477 Y137.482 E51.14626
G1 X174.534 Y137.483 E52.46828
G1 X175.169 Y137.557 E52.48992
G1 X175.806 Y137.779 E52.51276
G1 X176.343 Y138.11 E52.53409
G1 X176.805 Y138.555 E52.55582
G1 X176.91 Y138.687 E52.56152
G1 X177.249 Y139.258 E52.584
G1 X177.452 Y139.874 E52.60597
G1 X177.517 Y140.466 E52.62611
G1 X177.517 Y169.534 E53.61004
G1 X177.443 Y170.169 E53.63167
G1 X177.221 Y170.806 E53.65452
G1 X176.862 Y171.379 E53.6774
G1 X176.419 Y171.83 E53.69878
G1 X175.743 Y172.249 E53.7257
G1 X175.125 Y172.452 E53.74773
G1 X174.523 Y172.518 E53.76824
G1 X135.477 Y172.518 E55.08988
G1 X134.831 Y172.443 E55.11189
G1 X134.194 Y172.221 E55.13474
G1 X133.621 Y171.862 E55.15762
G1 X133.17 Y171.419 E55.179
G1 X132.751 Y170.743 E55.20592
G1 X132.548 Y170.125 E55.22795
G1 X132.482 Y169.523 E55.24846
G1 X132.482 Y140.477 E56.23161
G1 X132.557 Y139.831 E56.25363
G1 X132.779 Y139.194 E56.27648
G1 X133.138 Y138.621 E56.29935
G1 X133.325 Y138.431 E56.30839
G1 X133.616 Y138.716 F7200
G1 F1500
G1 X133.854 Y138.473 E56.31992
G1 X134.409 Y138.129 E56.342
G1 X134.941 Y137.95 E56.36102
G1 X135.489 Y137.889 E56.37966
G1 X174.523 Y137.89 E57.70092
G1 X175.059 Y137.95 E57.71917
G1 X175.612 Y138.138 E57.73896
G1 X176.11 Y138.445 E57.75875
G1 X176.512 Y138.837 E57.77776
G1 X176.569 Y138.909 E57.78085
G1 X176.871 Y139.409 E57.80064
G1 X177.05 Y139.941 E57.81965
G1 X177.11 Y140.477 E57.8379
G1 X177.11 Y169.523 E58.82106
G1 X177.05 Y170.059 E58.83931
G1 X176.862 Y170.612 E58.8591
G1 X176.555 Y171.11 E58.87889
G1 X176.146 Y171.527 E58.89868
G1 X175.591 Y171.871 E58.92077
G1 X175.059 Y172.05 E58.93978
G1 X174.511 Y172.111 E58.95842
G1 X135.489 Y172.111 E60.2793
G1 X134.941 Y172.05 E60.29793
G1 X134.388 Y171.862 E60.31772
G1 X133.89 Y171.555 E60.33751
G1 X133.473 Y171.146 E60.3573
G1 X133.129 Y170.591 E60.37939
G1 X132.95 Y170.059 E60.3984
G1 X132.889 Y169.511 E60.41704
G1 X132.889 Y140.489 E61.39943
G1 X132.95 Y139.941 E61.41806
G1 X133.138 Y139.388 E61.43785
G1 X133.445 Y138.89 E61.45764
G1 X133.574 Y138.759 E61.46387
G1 X133.858 Y139.043 F7200
G1 F1500
G1 X134.117 Y138.784 E61.47627
G1 X134.135 Y138.77 E61.47704
G1 X134.534 Y138.52 E61.49298
G1 X134.554 Y138.51 E61.49375
G1 X134.999 Y138.354 E61.50968
G1 X135.021 Y138.349 E61.51046
G1 X135.494 Y138.296 E61.52658
G1 X174.506 Y138.296 E62.84707
G1 X174.979 Y138.349 E62.8632
G1 X175.001 Y138.354 E62.86397
G1 X175.446 Y138.51 E62.8799
G1 X175.466 Y138.52 E62.88068
G1 X175.865 Y138.77 E62.89661
G1 X175.883 Y138.784 E62.89739
G1 X176.216 Y139.117 E62.91332
G1 X176.23 Y139.135 E62.91409
G1 X176.48 Y139.534 E62.93003
G1 X176.49 Y139.554 E62.9308
G1 X176.646 Y139.999 E62.94673
G1 X176.651 Y140.021 E62.94751
G1 X176.704 Y140.494 E62.96363
G1 X176.704 Y169.506 E63.94564
G1 X176.651 Y169.979 E63.96176
G1 X176.646 Y170.001 E63.96253
G1 X176.49 Y170.446 E63.97847
G1 X176.48 Y170.466 E63.97924
G1 X176.23 Y170.865 E63.99518
G1 X176.216 Y170.883 E63.99595
G1 X175.883 Y171.216 E64.01188
G1 X175.865 Y171.23 E64.01266
G1 X175.466 Y171.48 E64.02859
G1 X175.446 Y171.49 E64.02936
G1 X175.001 Y171.646 E64.0453
G1 X174.979 Y171.651 E64.04607
G1 X174.506 Y171.704 E64.0622
G1 X135.494 Y171.704 E65.38269
G1 X135.021 Y171.651 E65.39881
G1 X134.999 Y171.646 E65.39959
G1 X134.554 Y171.49 E65.41552
G1 X134.534 Y171.48 E65.41629
G1 X134.135 Y171.23 E65.43223
G1 X134.117 Y171.216 E65.433
G1 X133.784 Y170.883 E65.44893
G1 X133.77 Y170.865 E65.44971
G1 X133.52 Y170.466 E65.46564
G1 X133.51 Y170.446 E65.46642
G1 X133.354 Y170.001 E65.48235
G1 X133.349 Y169.979 E65.48312
G1 X133.296 Y169.506 E65.49925
G1 X133.296 Y140.494 E66.48125
G1 X133.349 Y140.021 E66.49738
G1 X133.354 Y139.999 E66.49815
G1 X133.51 Y139.554 E66.51408
G1 X133.52 Y139.534 E66.51486
G1 X133.77 Y139.135 E66.53079
G1 X133.816 Y139.086 E66.53306
G1 X134.102 Y139.385 F7200
;TYPE:External perimeter
;WIDTH:0.42
G1 F1500
G1 X134.385 Y139.102 E66.54562
G1 X134.724 Y138.888 E66.55818
G1 X135.102 Y138.756 E66.57074
G1 X135.512 Y138.71 E66.58367
G1 X174.488 Y138.71 E67.80575
G1 X174.898 Y138.756 E67.81868
G1 X175.276 Y138.888 E67.83124
G1 X175.615 Y139.102 E67.84379
G1 X175.898 Y139.385 E67.85635
G1 X176.112 Y139.724 E67.86891
G1 X176.244 Y140.102 E67.88147
G1 X176.29 Y140.512 E67.8944
G1 X176.29 Y169.488 E68.80294
G1 X176.244 Y169.898 E68.81587
G1 X176.112 Y170.276 E68.82842
G1 X175.898 Y170.615 E68.84098
G1 X175.615 Y170.898 E68.85354
G1 X175.276 Y171.112 E68.8661
G1 X174.898 Y171.244 E68.87866
G1 X174.488 Y171.29 E68.89159
G1 X135.512 Y171.29 E70.11367
G1 X135.102 Y171.244 E70.1266
G1 X134.724 Y171.112 E70.13916
G1 X134.385 Y170.898 E70.15171
G1 X134.102 Y170.615 E70.16427
G1 X133.888 Y170.276 E70.17683
G1 X133.756 Y169.898 E70.18939
G1 X133.71 Y169.488 E70.20232
G1 X133.71 Y140.512 E71.11086
G1 X133.756 Y140.102 E71.12379
G1 X133.888 Y139.724 E71.13634
G1 X134.07 Y139.436 E71.14702
;WIPE_START
M204 S500
G1 X134.495 Y139.459 F7200
;WIPE_END
M204 S300
G1 X134.538 Y139.503
;TYPE:Internal perimeter
;WIDTH:0.45
G1 F1500
G1 X134.631 Y139.41 E71.15146
G1 X134.895 Y139.244 E71.16202
G1 X135.19 Y139.141 E71.17259
G1 X135.534 Y139.102 E71.18431
G1 X174.466 Y139.102 E72.50213
G1 X174.81 Y139.141 E72.51384
G1 X175.105 Y139.244 E72.52441
G1 X175.369 Y139.41 E72.53498
G1 X175.59 Y139.631 E72.54554
G1 X175.756 Y139.895 E72.55611
G1 X175.859 Y140.19 E72.56668
G1 X175.898 Y140.534 E72.5784
G1 X175.898 Y169.466 E73.55772
G1 X175.859 Y169.81 E73.56944
G1 X175.756 Y170.105 E73.58001
