; HEADER_BLOCK_START
; generated by OrcaSlicer 1.6.2 on 2023-05-23 at 16:11:54
; total layer number: 133
; HEADER_BLOCK_END

; THUMBNAIL_BLOCK_START
; THUMBNAIL_BLOCK_END

; external perimeters extrusion width = 0.40mm
; perimeters extrusion width = 0.45mm
; infill extrusion width = 0.64mm
; solid infill extrusion width = 0.60mm
; top infill extrusion width = 0.40mm
; first layer extrusion width = 0.50mm

; EXECUTABLE_BLOCK_START
EXCLUDE_OBJECT_DEFINE NAME=FlowTest_(1)_(1).stl_id_0_copy_0 CENTER=160,170 POLYGON=[[150,160],[170,160],[170,180],[150,180],[150,160]]
M73 P0 R19
;TYPE:Custom
M190 S90
M109 S215
PRINT_START EXTRUDER=215 BED=90

G90
G21
M83 ; use relative distances for extrusion
START_PRINT EXTRUDER_TEMP=215 BED_TEMP=90 SIZE=147.943_157.943_172.057_182.057
M106 S0 ; disable fan
;LAYER_CHANGE
;Z:0.2
;HEIGHT:0.2
;BEFORE_LAYER_CHANGE
;0.2
G92 E0

G1 E-2.5 F2700 ; retract
;AFTER_LAYER_CHANGE
;0.2
M204 S500 ; adjust acceleration
G1 X148.561 Y158.872 F21000 ; move to first skirt point travel_to_xyz
G1 Z.6 ; move to first skirt point travel_to_xyz
G1 Z.2 ; restore layer Z
G1 E2.5 F1800 ;  ; unretract
;TYPE:Skirt
;WIDTH:0.5
G1 F3000
G1 X150 Y158.172 E.06692 ; skirt
G1 X170 Y158.172 E.83614 ; skirt
G1 X171.128 Y158.561 E.04987 ; skirt
G1 X171.828 Y160 E.06692 ; skirt
G1 X171.828 Y180 E.83614 ; skirt
G1 X171.439 Y181.128 E.04987 ; skirt
G1 X170 Y181.828 E.06692 ; skirt
G1 X150 Y181.828 E.83614 ; skirt
G1 X148.872 Y181.439 E.04987 ; skirt
G1 X148.172 Y180 E.06692 ; skirt
G1 X148.172 Y160 E.83614 ; skirt
G1 X148.541 Y158.929 E.04736 ; skirt
G1 X148.989 Y159.11 F21000
G1 F3000
G1 X149.014 Y159.047 E.00285 ; skirt
G1 X150 Y158.629 E.04477 ; skirt
G1 X170 Y158.629 E.83614 ; skirt
G1 X170.953 Y159.014 E.04298 ; skirt
G1 X171.371 Y160 E.04477 ; skirt
G1 X171.371 Y180 E.83614 ; skirt
G1 X170.986 Y180.953 E.04298 ; skirt
G1 X170 Y181.371 E.04477 ; skirt
G1 X150 Y181.371 E.83614 ; skirt
G1 X149.047 Y180.986 E.04298 ; skirt
G1 X148.629 Y180 E.04477 ; skirt
G1 X148.629 Y160 E.83614 ; skirt
G1 X148.966 Y159.166 E.03762 ; skirt
G1 X149.399 Y159.387 F21000
G1 F3000
G1 X149.464 Y159.259 E.00598 ; skirt
G1 X150 Y159.086 E.02356 ; skirt
G1 X170 Y159.086 E.83614 ; skirt
G1 X170.741 Y159.464 E.03476 ; skirt
G1 X170.914 Y160 E.02356 ; skirt
G1 X170.914 Y180 E.83614 ; skirt
G1 X170.536 Y180.741 E.03476 ; skirt
G1 X170 Y180.914 E.02356 ; skirt
G1 X150 Y180.914 E.83614 ; skirt
G1 X149.259 Y180.536 E.03476 ; skirt
G1 X149.086 Y180 E.02356 ; skirt
G1 X149.086 Y160 E.83614 ; skirt
G1 X149.372 Y159.44 E.02628 ; skirt
G1 X149.737 Y159.806 F21000
G1 F3000
G1 X150 Y159.543 E.01554 ; skirt
G1 X170 Y159.543 E.83614 ; skirt
G1 X170.457 Y160 E.02702 ; skirt
G1 X170.457 Y180 E.83614 ; skirt
G1 X170 Y180.457 E.02702 ; skirt
G1 X150 Y180.457 E.83614 ; skirt
G1 X149.543 Y180 E.02702 ; skirt
G1 X149.543 Y160 E.83614 ; skirt
G1 X149.695 Y159.848 E.00898 ; skirt
; printing object FlowTest (1) (1).stl id:0 copy 0
EXCLUDE_OBJECT_START NAME=FlowTest_(1)_(1).stl_id_0_copy_0
G1 E-1.75 F2700 ; retract
;WIPE_START
G1 F3000
G1 X150 Y159.543 E-.15378 ; wipe and retract
G1 X151.568 Y159.543 E-.55872 ; wipe and retract
;WIPE_END
G1 E-.0375 F2700 ; retract
G1 X159.204 Y168.074 Z.8 F21000 ; move to first perimeter point travel_to_xyz
G1 X168.836 Y178.836 Z.8 ; move to first perimeter point travel_to_xyz
G1 Z.2 ; restore layer Z
G1 E2.5 F1800 ;  ; unretract
;TYPE:Inner wall
G1 F3000
G1 X151.164 Y178.836 E.7388 ; perimeter
G1 X151.164 Y161.164 E.7388 ; perimeter
M73 P1 R19
G1 X168.836 Y161.164 E.7388 ; perimeter
G1 X168.836 Y178.776 E.73629 ; perimeter
G1 X169.293 Y179.293 F21000
G1 F3000
G1 X150.707 Y179.293 E.77702 ; perimeter
G1 X150.707 Y160.707 E.77702 ; perimeter
G1 X169.293 Y160.707 E.77702 ; perimeter
G1 X169.293 Y179.233 E.77451 ; perimeter
G1 X169.75 Y179.75 F21000
;TYPE:Outer wall
G1 F3000
G1 X150.25 Y179.75 E.81524 ; perimeter
G1 X150.25 Y160.25 E.81524 ; perimeter
G1 X169.75 Y160.25 E.81524 ; perimeter
G1 X169.75 Y179.69 E.81273 ; perimeter
G1 X169.673 Y179.729 ; move inwards before travel
G1 E-1.75 F2700 ; retract
;WIPE_START
G1 F3000
G1 X167.75 Y179.696 E-.7125 ; wipe and retract
;WIPE_END
G1 E-.0375 F2700 ; retract
G1 X167.754 Y168.247 Z.8 F21000 ; move to first infill point travel_to_xyz
G1 X167.757 Y161.301 Z.8 ; move to first infill point travel_to_xyz
G1 Z.2 ; restore layer Z
G1 E2.5 F1800 ;  ; unretract
;TYPE:Bottom surface
;WIDTH:0.50836
G1 F6000
G1 X168.493 Y162.037 E.04431 ; infill
G1 X168.493 Y162.696 E.02802 ; infill
G1 X167.304 Y161.507 E.07156 ; infill
G1 X166.646 Y161.507 E.02802 ; infill
G1 X168.493 Y163.354 E.11119 ; infill
G1 X168.493 Y164.012 E.02802 ; infill
G1 X165.988 Y161.507 E.15082 ; infill
G1 X165.33 Y161.507 E.02802 ; infill
G1 X168.493 Y164.67 E.19045 ; infill
G1 X168.493 Y165.328 E.02802 ; infill
G1 X164.672 Y161.507 E.23007 ; infill
G1 X164.013 Y161.507 E.02802 ; infill
G1 X168.493 Y165.987 E.2697 ; infill
G1 X168.493 Y166.645 E.02802 ; infill
G1 X163.355 Y161.507 E.30933 ; infill
G1 X162.697 Y161.507 E.02802 ; infill
G1 X168.493 Y167.303 E.34896 ; infill
G1 X168.493 Y167.961 E.02802 ; infill
G1 X162.039 Y161.507 E.38859 ; infill
G1 X161.38 Y161.507 E.02802 ; infill
G1 X168.493 Y168.62 E.42822 ; infill
G1 X168.493 Y169.278 E.02802 ; infill
G1 X160.722 Y161.507 E.46785 ; infill
G1 X160.064 Y161.507 E.02802 ; infill
G1 X168.493 Y169.936 E.50748 ; infill
G1 X168.493 Y170.594 E.02802 ; infill
G1 X159.406 Y161.507 E.54711 ; infill
G1 X158.747 Y161.507 E.02802 ; infill
G1 X168.493 Y171.253 E.58674 ; infill
G1 X168.493 Y171.911 E.02802 ; infill
G1 X158.089 Y161.507 E.62637 ; infill
G1 X157.431 Y161.507 E.02802 ; infill
G1 X168.493 Y172.569 E.66599 ; infill
G1 X168.493 Y173.227 E.02802 ; infill
G1 X156.773 Y161.507 E.70562 ; infill
G1 X156.115 Y161.507 E.02802 ; infill
G1 X168.493 Y173.885 E.74525 ; infill
G1 X168.493 Y174.544 E.02802 ; infill
G1 X155.456 Y161.507 E.78488 ; infill
G1 X154.798 Y161.507 E.02802 ; infill
G1 X168.493 Y175.202 E.82451 ; infill
G1 X168.493 Y175.86 E.02802 ; infill
G1 X154.14 Y161.507 E.86414 ; infill
M73 P2 R19
G1 X153.482 Y161.507 E.02802 ; infill
G1 X168.493 Y176.518 E.90377 ; infill
G1 X168.493 Y177.177 E.02802 ; infill
G1 X152.823 Y161.507 E.9434 ; infill
G1 X152.165 Y161.507 E.02802 ; infill
G1 X168.493 Y177.835 E.98303 ; infill
G1 X168.493 Y178.493 E.02802 ; infill
G1 X151.507 Y161.507 E1.02265 ; infill
G1 X151.507 Y162.165 E.02802 ; infill
G1 X167.835 Y178.493 E.98302 ; infill
G1 X167.177 Y178.493 E.02802 ; infill
G1 X151.507 Y162.823 E.94339 ; infill
G1 X151.507 Y163.482 E.02802 ; infill
G1 X166.518 Y178.493 E.90376 ; infill
G1 X165.86 Y178.493 E.02802 ; infill
G1 X151.507 Y164.14 E.86414 ; infill
G1 X151.507 Y164.798 E.02802 ; infill
G1 X165.202 Y178.493 E.82451 ; infill
G1 X164.544 Y178.493 E.02802 ; infill
G1 X151.507 Y165.456 E.78488 ; infill
G1 X151.507 Y166.115 E.02802 ; infill
G1 X163.885 Y178.493 E.74525 ; infill
G1 X163.227 Y178.493 E.02802 ; infill
G1 X151.507 Y166.773 E.70562 ; infill
G1 X151.507 Y167.431 E.02802 ; infill
G1 X162.569 Y178.493 E.66599 ; infill
M73 P2 R18
G1 X161.911 Y178.493 E.02802 ; infill
G1 X151.507 Y168.089 E.62636 ; infill
G1 X151.507 Y168.748 E.02802 ; infill
G1 X161.252 Y178.493 E.58673 ; infill
G1 X160.594 Y178.493 E.02802 ; infill
G1 X151.507 Y169.406 E.5471 ; infill
G1 X151.507 Y170.064 E.02802 ; infill
G1 X159.936 Y178.493 E.50747 ; infill
G1 X159.278 Y178.493 E.02802 ; infill
G1 X151.507 Y170.722 E.46784 ; infill
G1 X151.507 Y171.38 E.02802 ; infill
G1 X158.62 Y178.493 E.42822 ; infill
G1 X157.961 Y178.493 E.02802 ; infill
G1 X151.507 Y172.039 E.38859 ; infill
G1 X151.507 Y172.697 E.02802 ; infill
G1 X157.303 Y178.493 E.34896 ; infill
G1 X156.645 Y178.493 E.02802 ; infill
G1 X151.507 Y173.355 E.30933 ; infill
G1 X151.507 Y174.013 E.02802 ; infill
G1 X155.987 Y178.493 E.2697 ; infill
G1 X155.328 Y178.493 E.02802 ; infill
G1 X151.507 Y174.672 E.23007 ; infill
G1 X151.507 Y175.33 E.02802 ; infill
G1 X154.67 Y178.493 E.19044 ; infill
G1 X154.012 Y178.493 E.02802 ; infill
G1 X151.507 Y175.988 E.15081 ; infill
G1 X151.507 Y176.646 E.02802 ; infill
G1 X153.354 Y178.493 E.11118 ; infill
G1 X152.695 Y178.493 E.02802 ; infill
G1 X151.507 Y177.305 E.07155 ; infill
G1 X151.507 Y177.963 E.02802 ; infill
G1 X152.243 Y178.699 E.04431 ; infill
; stop printing object FlowTest (1) (1).stl id:0 copy 0
EXCLUDE_OBJECT_END NAME=FlowTest_(1)_(1).stl_id_0_copy_0
;LAYER_CHANGE
;Z:0.35
;HEIGHT:0.15
;BEFORE_LAYER_CHANGE
;0.35
G92 E0

G1 E-1.75 F2700 ; retract
;WIPE_START
G1 F6000
G1 X151.507 Y177.963 E-.37078 ; wipe and retract
G1 X151.507 Y177.305 E-.23449 ; wipe and retract
G1 X151.72 Y177.517 E-.10722 ; wipe and retract
;WIPE_END
G1 E-.0375 F2700 ; retract
;AFTER_LAYER_CHANGE
;0.35
M204 S5000 ; adjust acceleration
M104 S205 ; set nozzle temperature
M140 S80 ; set bed temperature
; printing object FlowTest (1) (1).stl id:0 copy 0
EXCLUDE_OBJECT_START NAME=FlowTest_(1)_(1).stl_id_0_copy_0
M204 S6000 ; adjust acceleration
G17
G3 Z.8 I-.155 J1.819 P1  F21000 ; spiral lift Z
G1 X168.989 Y178.989 Z.8 ; move to first perimeter point travel_to_xyz
G1 Z.35 ; restore layer Z
G1 E2.5 F1800 ;  ; unretract
M204 S4500 ; adjust acceleration
;TYPE:Inner wall
;WIDTH:0.45
G1 F5700
G1 X151.011 Y178.989 E.5153 ; perimeter
G1 X151.011 Y161.011 E.5153 ; perimeter
G1 X168.989 Y161.011 E.5153 ; perimeter
G1 X168.989 Y178.929 E.51358 ; perimeter
M204 S5000 ; adjust acceleration
M204 S6000 ; adjust acceleration
G1 X169.407 Y179.407 F21000
M204 S4500 ; adjust acceleration
G1 F5700
G1 X150.593 Y179.407 E.53925 ; perimeter
G1 X150.593 Y160.593 E.53925 ; perimeter
G1 X169.407 Y160.593 E.53925 ; perimeter
M73 P3 R18
G1 X169.407 Y179.347 E.53753 ; perimeter
M204 S5000 ; adjust acceleration
M204 S6000 ; adjust acceleration
G1 X169.8 Y179.8 F21000
M204 S3000 ; adjust acceleration
;TYPE:Outer wall
;WIDTH:0.4
G1 F5700
G1 X150.2 Y179.8 E.49454 ; perimeter
G1 X150.2 Y160.2 E.49454 ; perimeter
G1 X169.8 Y160.2 E.49454 ; perimeter
G1 X169.8 Y179.74 E.49302 ; perimeter
G1 X169.723 Y179.779 ; move inwards before travel
M204 S5000 ; adjust acceleration
M204 S6000 ; adjust acceleration
G1 E-1.75 F2700 ; retract
;WIPE_START
G1 F5700
G1 X167.8 Y179.746 E-.7125 ; wipe and retract
;WIPE_END
G1 E-.0375 F2700 ; retract
G1 X168.875 Y177.718 Z.95 F21000 ; move to first infill point travel_to_xyz
G1 Z.35 ; restore layer Z
G1 E2.5 F1800 ;  ; unretract
M204 S5000 ; adjust acceleration
;TYPE:Internal solid infill
;WIDTH:0.60454
G1 F6436
G1 X167.973 Y178.62 E.05008 ; infill
G1 X167.164 Y178.62 E.03178 ; infill
G1 X168.62 Y177.164 E.08084 ; infill
G1 X168.62 Y176.355 E.03178 ; infill
G1 X166.355 Y178.62 E.12578 ; infill
G1 X165.545 Y178.62 E.03178 ; infill
G1 X168.62 Y175.545 E.17072 ; infill
G1 X168.62 Y174.736 E.03178 ; infill
G1 X164.736 Y178.62 E.21567 ; infill
G1 X163.926 Y178.62 E.03178 ; infill
G1 X168.62 Y173.926 E.26061 ; infill
G1 X168.62 Y173.117 E.03178 ; infill
G1 X163.117 Y178.62 E.30556 ; infill
G1 X162.307 Y178.62 E.03178 ; infill
G1 X168.62 Y172.307 E.3505 ; infill
G1 X168.62 Y171.498 E.03178 ; infill
G1 X161.498 Y178.62 E.39544 ; infill
G1 X160.689 Y178.62 E.03178 ; infill
G1 X168.62 Y170.689 E.44039 ; infill
G1 X168.62 Y169.879 E.03178 ; infill
G1 X159.879 Y178.62 E.48533 ; infill
G1 X159.07 Y178.62 E.03178 ; infill
G1 X168.62 Y169.07 E.53028 ; infill
G1 X168.62 Y168.26 E.03178 ; infill
G1 X158.26 Y178.62 E.57522 ; infill
G1 X157.451 Y178.62 E.03178 ; infill
G1 X168.62 Y167.451 E.62016 ; infill
G1 X168.62 Y166.641 E.03178 ; infill
G1 X156.641 Y178.62 E.66511 ; infill
G1 X155.832 Y178.62 E.03178 ; infill
G1 X168.62 Y165.832 E.71005 ; infill
G1 X168.62 Y165.023 E.03178 ; infill
G1 X155.023 Y178.62 E.755 ; infill
G1 X154.213 Y178.62 E.03178 ; infill
G1 X168.62 Y164.213 E.79994 ; infill
G1 X168.62 Y163.404 E.03178 ; infill
G1 X153.404 Y178.62 E.84488 ; infill
G1 X152.594 Y178.62 E.03178 ; infill
G1 X168.62 Y162.594 E.88983 ; infill
G1 X168.62 Y161.785 E.03178 ; infill
G1 X151.785 Y178.62 E.93477 ; infill
G1 X151.38 Y178.62 E.01589 ; infill
G1 X151.38 Y178.215 E.01589 ; infill
G1 X168.215 Y161.38 E.93476 ; infill
G1 X167.406 Y161.38 E.03178 ; infill
G1 X151.38 Y177.406 E.88982 ; infill
G1 X151.38 Y176.596 E.03178 ; infill
G1 X166.596 Y161.38 E.84488 ; infill
G1 X165.787 Y161.38 E.03178 ; infill
G1 X151.38 Y175.787 E.79993 ; infill
G1 X151.38 Y174.977 E.03178 ; infill
G1 X164.977 Y161.38 E.75499 ; infill
G1 X164.168 Y161.38 E.03178 ; infill
G1 X151.38 Y174.168 E.71004 ; infill
G1 X151.38 Y173.358 E.03178 ; infill
G1 X163.358 Y161.38 E.6651 ; infill
G1 X162.549 Y161.38 E.03178 ; infill
G1 X151.38 Y172.549 E.62016 ; infill
G1 X151.38 Y171.74 E.03178 ; infill
G1 X161.74 Y161.38 E.57521 ; infill
G1 X160.93 Y161.38 E.03178 ; infill
G1 X151.38 Y170.93 E.53027 ; infill
G1 X151.38 Y170.121 E.03178 ; infill
G1 X160.121 Y161.38 E.48532 ; infill
G1 X159.311 Y161.38 E.03178 ; infill
G1 X151.38 Y169.311 E.44038 ; infill
G1 X151.38 Y168.502 E.03178 ; infill
G1 X158.502 Y161.38 E.39544 ; infill
G1 X157.692 Y161.38 E.03178 ; infill
G1 X151.38 Y167.692 E.35049 ; infill
G1 X151.38 Y166.883 E.03178 ; infill
G1 X156.883 Y161.38 E.30555 ; infill
G1 X156.074 Y161.38 E.03178 ; infill
G1 X151.38 Y166.074 E.26061 ; infill
G1 X151.38 Y165.264 E.03178 ; infill
G1 X155.264 Y161.38 E.21566 ; infill
G1 X154.455 Y161.38 E.03178 ; infill
G1 X151.38 Y164.455 E.17072 ; infill
G1 X151.38 Y163.645 E.03178 ; infill
G1 X153.645 Y161.38 E.12577 ; infill
G1 X152.836 Y161.38 E.03178 ; infill
G1 X151.38 Y162.836 E.08083 ; infill
G1 X151.38 Y162.027 E.03178 ; infill
G1 X152.282 Y161.125 E.05007 ; infill
; stop printing object FlowTest (1) (1).stl id:0 copy 0
EXCLUDE_OBJECT_END NAME=FlowTest_(1)_(1).stl_id_0_copy_0
;LAYER_CHANGE
;Z:0.5
;HEIGHT:0.15
;BEFORE_LAYER_CHANGE
;0.5
G92 E0

G1 E-1.75 F2700 ; retract
;WIPE_START
G1 F6988.73
G1 X151.38 Y162.027 E-.45434 ; wipe and retract
G1 X151.38 Y162.751 E-.25816 ; wipe and retract
;WIPE_END
G1 E-.0375 F2700 ; retract
;AFTER_LAYER_CHANGE
;0.5
; printing object FlowTest (1) (1).stl id:0 copy 0
EXCLUDE_OBJECT_START NAME=FlowTest_(1)_(1).stl_id_0_copy_0
M204 S6000 ; adjust acceleration
G17
G3 Z.95 I-1.237 J1.342 P1  F21000 ; spiral lift Z
G1 X168.989 Y178.989 Z.95 ; move to first perimeter point travel_to_xyz
G1 Z.5 ; restore layer Z
G1 E2.5 F1800 ;  ; unretract
M204 S4500 ; adjust acceleration
;TYPE:Inner wall
;WIDTH:0.45
G1 F5700
G1 X151.011 Y178.989 E.5153 ; perimeter
G1 X151.011 Y161.011 E.5153 ; perimeter
G1 X168.989 Y161.011 E.5153 ; perimeter
G1 X168.989 Y178.929 E.51358 ; perimeter
M204 S5000 ; adjust acceleration
M204 S6000 ; adjust acceleration
G1 X169.407 Y179.407 F21000
M204 S4500 ; adjust acceleration
G1 F5700
G1 X150.593 Y179.407 E.53925 ; perimeter
G1 X150.593 Y160.593 E.53925 ; perimeter
G1 X169.407 Y160.593 E.53925 ; perimeter
G1 X169.407 Y179.347 E.53753 ; perimeter
M204 S5000 ; adjust acceleration
M204 S6000 ; adjust acceleration
G1 X169.8 Y179.8 F21000
M204 S3000 ; adjust acceleration
;TYPE:Outer wall
;WIDTH:0.4
G1 F5700
G1 X150.2 Y179.8 E.49454 ; perimeter
G1 X150.2 Y160.2 E.49454 ; perimeter
G1 X169.8 Y160.2 E.49454 ; perimeter
G1 X169.8 Y179.74 E.49302 ; perimeter
G1 X169.723 Y179.779 ; move inwards before travel
M204 S5000 ; adjust acceleration
M204 S6000 ; adjust acceleration
G1 E-1.75 F2700 ; retract
;WIPE_START
G1 F5700
G1 X167.8 Y179.746 E-.7125 ; wipe and retract
;WIPE_END
G1 E-.0375 F2700 ; retract
G1 X167.75 Y168.298 Z1.1 F21000 ; move to first infill point travel_to_xyz
G1 X167.718 Y161.125 Z1.1 ; move to first infill point travel_to_xyz
G1 Z.5 ; restore layer Z
G1 E2.5 F1800 ;  ; unretract
M204 S5000 ; adjust acceleration
;TYPE:Internal solid infill
;WIDTH:0.60454
M73 P4 R18
G1 F6512
G1 X168.62 Y162.027 E.05008 ; infill
G1 X168.62 Y162.836 E.03178 ; infill
G1 X167.164 Y161.38 E.08084 ; infill
G1 X166.355 Y161.38 E.03178 ; infill
G1 X168.62 Y163.645 E.12578 ; infill
G1 X168.62 Y164.455 E.03178 ; infill
G1 X165.545 Y161.38 E.17072 ; infill
G1 X164.736 Y161.38 E.03178 ; infill
G1 X168.62 Y165.264 E.21567 ; infill
G1 X168.62 Y166.074 E.03178 ; infill
