
; ### Ellis' Pressure Advance / Linear Advance Calibration Tool ###
;
; Original Marlin linear advance calibration tool by Sineos [https://github.com/Sineos]
; Heavily modified/rewritten by Andrew Ellis [https://github.com/AndrewEllis93]
;
; -------------------------------------------
; Generated: Wed May 24 2023 12:38:13 GMT+0200 (heure d’été d’Europe centrale)
; -------------------------------------------
;
; Advanced Mode: false
;
; Printer:
;  - Firmware: klipper
;  - Bed Shape: Rect
;  - Bed Size X: 330 mm
;  - Bed Size Y: 330 mm
;  - Origin Bed Center: false
;  - Travel Speed: 120 mm/s
;  - Nozzle Diameter: 0.4 mm
;  - Filament Diameter: 1.75 mm
;  - Extrusion Multiplier: 1.1
;
; Retraction / Z Hop:
;  - Retraction Distance: 2.5 mm
;  - Retract Speed: 45 mm/s
;  - Unretract Speed: 35 mm/s
;  - Z Hop Enable: true
;  - Z Hop Height: 0.1mm
;
; First Layer Settings:
;  - First Layer Height: 0.25 mm
;  - First Layer Printing Speed: 30 mm/s
;  - First Layer Fan Speed: 0%
;  - Anchor Option: anchor_layer
;
; Print Settings:
;  - Layer Height: 0.2 mm
;  - Print Speed: 100 mm/s
;  - Acceleration: Disabled
;  - Fan Speed: 100%
;
; Pressure Advance Stepping:
;  - PA Start Value: 0
;  - PA End Value: 1
;  - PA Increment: 0.05
;
; Start / End G-code:
;  - Hotend Temp: 205C
;  - Bed Temp: 90C
;  - Don't Add G28: true
;  - Don't Add Heating G-Codes: true
;
; Calculated Values:
;  - Print Size X: 97.1 mm
;  - Print Size Y: 50.99 mm
;  - Number of Patterns to Print: 21
;  - PA Values: 0, 0.05, 0.1, 0.15, 0.2, 0.25, 0.3, 0.35, 0.4, 0.45, 0.5, 0.55, 0.6, 0.65, 0.7, 0.75, 0.8, 0.85, 0.9, 0.95, 1
;
; Prepare printing
;
; START_PRINT ; Start macro (alternate / official start macro name)
START_PRINT EXTRUDER_TEMP=205 BED_TEMP=90
G21 ; Millimeter units
G90 ; Absolute XYZ
M83 ; Relative E
G92 E0 ; Reset extruder distance
;
;  Begin printing
;
M106 S0 ; Set fan speed
G1 E-2.5 F2700 ; Retract
G0 Z5 F7200 ; Z raise
G0 X116.4516 Y139.5068 F7200 ; Move to start position
G0 Z0.25 F7200 ; Move to start layer height
G1 E2.5 F2100 ; Un-retract
SET_PRESSURE_ADVANCE ADVANCE=0 ; Set pressure advance to start value
M117 PA 0
G1 X116.4516 Y181.9332 E2.45614 F1800 ; Draw perimeter (up)
G1 X213.5484 Y181.9332 E5.62111 F1800 ; Draw perimeter (right)
G1 X213.5484 Y139.5068 E2.45614 F1800 ; Draw perimeter (down)
G1 X116.4516 Y139.5068 E5.62111 F1800 ; Draw perimeter (left)
G0 X116.9579 Y140.0131 F7200 ; Step inwards to print next perimeter
G1 X116.9579 Y181.4269 E2.39751 F1800 ; Draw perimeter (up)
G1 X213.0421 Y181.4269 E5.56248 F1800 ; Draw perimeter (right)
G1 X213.0421 Y140.0131 E2.39751 F1800 ; Draw perimeter (down)
G1 X116.9579 Y140.0131 E5.56248 F1800 ; Draw perimeter (left)
G0 X117.4643 Y140.5195 F7200 ; Step inwards to print next perimeter
G1 X117.4643 Y180.9205 E2.33889 F1800 ; Draw perimeter (up)
G1 X212.5357 Y180.9205 E5.50386 F1800 ; Draw perimeter (right)
G1 X212.5357 Y140.5195 E2.33889 F1800 ; Draw perimeter (down)
G1 X117.4643 Y140.5195 E5.50386 F1800 ; Draw perimeter (left)
G0 X117.9706 Y141.0258 F7200 ; Step inwards to print next perimeter
G1 X117.9706 Y180.4142 E2.28026 F1800 ; Draw perimeter (up)
G1 X212.0294 Y180.4142 E5.44523 F1800 ; Draw perimeter (right)
G1 X212.0294 Y141.0258 E2.28026 F1800 ; Draw perimeter (down)
G1 X117.9706 Y141.0258 E5.44523 F1800 ; Draw perimeter (left)
G0 X118.344 Y141.3992 F7200 ; Move to fill start
G0 X119.0601 Y141.3992 F7200 ; Move
G1 X118.344 Y142.1153 E0.05863 F1800 ; Fill
G0 X118.344 Y142.8314 F7200 ; Move
G1 X119.7762 Y141.3992 E0.11725 F1800 ; Fill
G0 X120.4922 Y141.3992 F7200 ; Move
G1 X118.344 Y143.5474 E0.17588 F1800 ; Fill
G0 X118.344 Y144.2635 F7200 ; Move
G1 X121.2083 Y141.3992 E0.23451 F1800 ; Fill
G0 X121.9244 Y141.3992 F7200 ; Move
G1 X118.344 Y144.9796 E0.29313 F1800 ; Fill
G0 X118.344 Y145.6957 F7200 ; Move
G1 X122.6405 Y141.3992 E0.35176 F1800 ; Fill
G0 X123.3566 Y141.3992 F7200 ; Move
G1 X118.344 Y146.4118 E0.41039 F1800 ; Fill
G0 X118.344 Y147.1279 F7200 ; Move
G1 X124.0727 Y141.3992 E0.46902 F1800 ; Fill
G0 X124.7888 Y141.3992 F7200 ; Move
G1 X118.344 Y147.844 E0.52764 F1800 ; Fill
G0 X118.344 Y148.56 F7200 ; Move
G1 X125.5048 Y141.3992 E0.58627 F1800 ; Fill
G0 X126.2209 Y141.3992 F7200 ; Move
G1 X118.344 Y149.2761 E0.6449 F1800 ; Fill
G0 X118.344 Y149.9922 F7200 ; Move
G1 X126.937 Y141.3992 E0.70352 F1800 ; Fill
G0 X127.6531 Y141.3992 F7200 ; Move
G1 X118.344 Y150.7083 E0.76215 F1800 ; Fill
G0 X118.344 Y151.4244 F7200 ; Move
G1 X128.3692 Y141.3992 E0.82078 F1800 ; Fill
G0 X129.0853 Y141.3992 F7200 ; Move
G1 X118.344 Y152.1405 E0.8794 F1800 ; Fill
G0 X118.344 Y152.8566 F7200 ; Move
G1 X129.8014 Y141.3992 E0.93803 F1800 ; Fill
G0 X130.5174 Y141.3992 F7200 ; Move
G1 X118.344 Y153.5727 E0.99666 F1800 ; Fill
G0 X118.344 Y154.2887 F7200 ; Move
G1 X131.2335 Y141.3992 E1.05529 F1800 ; Fill
G0 X131.9496 Y141.3992 F7200 ; Move
G1 X118.344 Y155.0048 E1.11391 F1800 ; Fill
G0 X118.344 Y155.7209 F7200 ; Move
G1 X132.6657 Y141.3992 E1.17254 F1800 ; Fill
G0 X133.3818 Y141.3992 F7200 ; Move
G1 X118.344 Y156.437 E1.23117 F1800 ; Fill
G0 X118.344 Y157.1531 F7200 ; Move
G1 X134.0979 Y141.3992 E1.28979 F1800 ; Fill
G0 X134.814 Y141.3992 F7200 ; Move
G1 X118.344 Y157.8692 E1.34842 F1800 ; Fill
G0 X118.344 Y158.5853 F7200 ; Move
G1 X135.5301 Y141.3992 E1.40705 F1800 ; Fill
G0 X136.2461 Y141.3992 F7200 ; Move
G1 X118.344 Y159.3013 E1.46567 F1800 ; Fill
G0 X118.344 Y160.0174 F7200 ; Move
G1 X136.9622 Y141.3992 E1.5243 F1800 ; Fill
G0 X137.6783 Y141.3992 F7200 ; Move
G1 X118.344 Y160.7335 E1.58293 F1800 ; Fill
G0 X118.344 Y161.4496 F7200 ; Move
G1 X138.3944 Y141.3992 E1.64156 F1800 ; Fill
G0 X139.1105 Y141.3992 F7200 ; Move
G1 X118.344 Y162.1657 E1.70018 F1800 ; Fill
G0 X118.344 Y162.8818 F7200 ; Move
G1 X139.8266 Y141.3992 E1.75881 F1800 ; Fill
G0 X140.5427 Y141.3992 F7200 ; Move
G1 X118.344 Y163.5979 E1.81744 F1800 ; Fill
G0 X118.344 Y164.3139 F7200 ; Move
G1 X141.2587 Y141.3992 E1.87606 F1800 ; Fill
G0 X141.9748 Y141.3992 F7200 ; Move
G1 X118.344 Y165.03 E1.93469 F1800 ; Fill
G0 X118.344 Y165.7461 F7200 ; Move
G1 X142.6909 Y141.3992 E1.99332 F1800 ; Fill
G0 X143.407 Y141.3992 F7200 ; Move
G1 X118.344 Y166.4622 E2.05194 F1800 ; Fill
G0 X118.344 Y167.1783 F7200 ; Move
G1 X144.1231 Y141.3992 E2.11057 F1800 ; Fill
G0 X144.8392 Y141.3992 F7200 ; Move
G1 X118.344 Y167.8944 E2.1692 F1800 ; Fill
G0 X118.344 Y168.6105 F7200 ; Move
G1 X145.5553 Y141.3992 E2.22783 F1800 ; Fill
G0 X146.2713 Y141.3992 F7200 ; Move
G1 X118.344 Y169.3266 E2.28645 F1800 ; Fill
G0 X118.344 Y170.0426 F7200 ; Move
G1 X146.9874 Y141.3992 E2.34508 F1800 ; Fill
G0 X147.7035 Y141.3992 F7200 ; Move
G1 X118.344 Y170.7587 E2.40371 F1800 ; Fill
G0 X118.344 Y171.4748 F7200 ; Move
G1 X148.4196 Y141.3992 E2.46233 F1800 ; Fill
G0 X149.1357 Y141.3992 F7200 ; Move
G1 X118.344 Y172.1909 E2.52096 F1800 ; Fill
G0 X118.344 Y172.907 F7200 ; Move
G1 X149.8518 Y141.3992 E2.57959 F1800 ; Fill
G0 X150.5679 Y141.3992 F7200 ; Move
G1 X118.344 Y173.6231 E2.63821 F1800 ; Fill
G0 X118.344 Y174.3392 F7200 ; Move
G1 X151.284 Y141.3992 E2.69684 F1800 ; Fill
G0 X152 Y141.3992 F7200 ; Move
G1 X118.344 Y175.0552 E2.75547 F1800 ; Fill
G0 X118.344 Y175.7713 F7200 ; Move
G1 X152.7161 Y141.3992 E2.8141 F1800 ; Fill
G0 X153.4322 Y141.3992 F7200 ; Move
G1 X118.344 Y176.4874 E2.87272 F1800 ; Fill
G0 X118.344 Y177.2035 F7200 ; Move
G1 X154.1483 Y141.3992 E2.93135 F1800 ; Fill
G0 X154.8644 Y141.3992 F7200 ; Move
G1 X118.344 Y177.9196 E2.98998 F1800 ; Fill
G0 X118.344 Y178.6357 F7200 ; Move
G1 X155.5805 Y141.3992 E3.0486 F1800 ; Fill
G0 X156.2966 Y141.3992 F7200 ; Move
G1 X118.344 Y179.3518 E3.10723 F1800 ; Fill
G0 X118.371 Y180.0408 F7200 ; Move
G1 X157.0126 Y141.3992 E3.16364 F1800 ; Fill
G0 X157.7287 Y141.3992 F7200 ; Move
G1 X119.0871 Y180.0408 E3.16364 F1800 ; Fill
G0 X119.8032 Y180.0408 F7200 ; Move
G1 X158.4448 Y141.3992 E3.16364 F1800 ; Fill
G0 X159.1609 Y141.3992 F7200 ; Move
G1 X120.5193 Y180.0408 E3.16364 F1800 ; Fill
G0 X121.2353 Y180.0408 F7200 ; Move
G1 X159.877 Y141.3992 E3.16364 F1800 ; Fill
G0 X160.5931 Y141.3992 F7200 ; Move
G1 X121.9514 Y180.0408 E3.16364 F1800 ; Fill
G0 X122.6675 Y180.0408 F7200 ; Move
G1 X161.3092 Y141.3992 E3.16364 F1800 ; Fill
G0 X162.0253 Y141.3992 F7200 ; Move
G1 X123.3836 Y180.0408 E3.16364 F1800 ; Fill
G0 X124.0997 Y180.0408 F7200 ; Move
G1 X162.7413 Y141.3992 E3.16364 F1800 ; Fill
G0 X163.4574 Y141.3992 F7200 ; Move
G1 X124.8158 Y180.0408 E3.16364 F1800 ; Fill
G0 X125.5319 Y180.0408 F7200 ; Move
G1 X164.1735 Y141.3992 E3.16364 F1800 ; Fill
G0 X164.8896 Y141.3992 F7200 ; Move
G1 X126.248 Y180.0408 E3.16364 F1800 ; Fill
G0 X126.964 Y180.0408 F7200 ; Move
G1 X165.6057 Y141.3992 E3.16364 F1800 ; Fill
G0 X166.3218 Y141.3992 F7200 ; Move
G1 X127.6801 Y180.0408 E3.16364 F1800 ; Fill
G0 X128.3962 Y180.0408 F7200 ; Move
G1 X167.0379 Y141.3992 E3.16364 F1800 ; Fill
G0 X167.7539 Y141.3992 F7200 ; Move
G1 X129.1123 Y180.0408 E3.16364 F1800 ; Fill
G0 X129.8284 Y180.0408 F7200 ; Move
G1 X168.47 Y141.3992 E3.16364 F1800 ; Fill
G0 X169.1861 Y141.3992 F7200 ; Move
G1 X130.5445 Y180.0408 E3.16364 F1800 ; Fill
G0 X131.2606 Y180.0408 F7200 ; Move
G1 X169.9022 Y141.3992 E3.16364 F1800 ; Fill
G0 X170.6183 Y141.3992 F7200 ; Move
G1 X131.9766 Y180.0408 E3.16364 F1800 ; Fill
G0 X132.6927 Y180.0408 F7200 ; Move
G1 X171.3344 Y141.3992 E3.16364 F1800 ; Fill
G0 X172.0505 Y141.3992 F7200 ; Move
G1 X133.4088 Y180.0408 E3.16364 F1800 ; Fill
G0 X134.1249 Y180.0408 F7200 ; Move
G1 X172.7665 Y141.3992 E3.16364 F1800 ; Fill
G0 X173.4826 Y141.3992 F7200 ; Move
G1 X134.841 Y180.0408 E3.16364 F1800 ; Fill
G0 X135.5571 Y180.0408 F7200 ; Move
G1 X174.1987 Y141.3992 E3.16364 F1800 ; Fill
G0 X174.9148 Y141.3992 F7200 ; Move
G1 X136.2732 Y180.0408 E3.16364 F1800 ; Fill
G0 X136.9892 Y180.0408 F7200 ; Move
G1 X175.6309 Y141.3992 E3.16364 F1800 ; Fill
G0 X176.347 Y141.3992 F7200 ; Move
G1 X137.7053 Y180.0408 E3.16364 F1800 ; Fill
G0 X138.4214 Y180.0408 F7200 ; Move
G1 X177.0631 Y141.3992 E3.16364 F1800 ; Fill
G0 X177.7792 Y141.3992 F7200 ; Move
G1 X139.1375 Y180.0408 E3.16364 F1800 ; Fill
G0 X139.8536 Y180.0408 F7200 ; Move
G1 X178.4952 Y141.3992 E3.16364 F1800 ; Fill
G0 X179.2113 Y141.3992 F7200 ; Move
G1 X140.5697 Y180.0408 E3.16364 F1800 ; Fill
G0 X141.2858 Y180.0408 F7200 ; Move
G1 X179.9274 Y141.3992 E3.16364 F1800 ; Fill
G0 X180.6435 Y141.3992 F7200 ; Move
G1 X142.0019 Y180.0408 E3.16364 F1800 ; Fill
G0 X142.7179 Y180.0408 F7200 ; Move
G1 X181.3596 Y141.3992 E3.16364 F1800 ; Fill
G0 X182.0757 Y141.3992 F7200 ; Move
G1 X143.434 Y180.0408 E3.16364 F1800 ; Fill
G0 X144.1501 Y180.0408 F7200 ; Move
G1 X182.7918 Y141.3992 E3.16364 F1800 ; Fill
G0 X183.5078 Y141.3992 F7200 ; Move
G1 X144.8662 Y180.0408 E3.16364 F1800 ; Fill
G0 X145.5823 Y180.0408 F7200 ; Move
G1 X184.2239 Y141.3992 E3.16364 F1800 ; Fill
G0 X184.94 Y141.3992 F7200 ; Move
G1 X146.2984 Y180.0408 E3.16364 F1800 ; Fill
G0 X147.0145 Y180.0408 F7200 ; Move
G1 X185.6561 Y141.3992 E3.16364 F1800 ; Fill
G0 X186.3722 Y141.3992 F7200 ; Move
G1 X147.7305 Y180.0408 E3.16364 F1800 ; Fill
G0 X148.4466 Y180.0408 F7200 ; Move
G1 X187.0883 Y141.3992 E3.16364 F1800 ; Fill
G0 X187.8044 Y141.3992 F7200 ; Move
G1 X149.1627 Y180.0408 E3.16364 F1800 ; Fill
G0 X149.8788 Y180.0408 F7200 ; Move
G1 X188.5204 Y141.3992 E3.16364 F1800 ; Fill
G0 X189.2365 Y141.3992 F7200 ; Move
G1 X150.5949 Y180.0408 E3.16364 F1800 ; Fill
G0 X151.311 Y180.0408 F7200 ; Move
G1 X189.9526 Y141.3992 E3.16364 F1800 ; Fill
G0 X190.6687 Y141.3992 F7200 ; Move
G1 X152.0271 Y180.0408 E3.16364 F1800 ; Fill
G0 X152.7431 Y180.0408 F7200 ; Move
G1 X191.3848 Y141.3992 E3.16364 F1800 ; Fill
G0 X192.1009 Y141.3992 F7200 ; Move
G1 X153.4592 Y180.0408 E3.16364 F1800 ; Fill
G0 X154.1753 Y180.0408 F7200 ; Move
G1 X192.817 Y141.3992 E3.16364 F1800 ; Fill
G0 X193.5331 Y141.3992 F7200 ; Move
G1 X154.8914 Y180.0408 E3.16364 F1800 ; Fill
G0 X155.6075 Y180.0408 F7200 ; Move
G1 X194.2491 Y141.3992 E3.16364 F1800 ; Fill
G0 X194.9652 Y141.3992 F7200 ; Move
G1 X156.3236 Y180.0408 E3.16364 F1800 ; Fill
G0 X157.0397 Y180.0408 F7200 ; Move
G1 X195.6813 Y141.3992 E3.16364 F1800 ; Fill
G0 X196.3974 Y141.3992 F7200 ; Move
G1 X157.7558 Y180.0408 E3.16364 F1800 ; Fill
G0 X158.4718 Y180.0408 F7200 ; Move
G1 X197.1135 Y141.3992 E3.16364 F1800 ; Fill
G0 X197.8296 Y141.3992 F7200 ; Move
G1 X159.1879 Y180.0408 E3.16364 F1800 ; Fill
G0 X159.904 Y180.0408 F7200 ; Move
G1 X198.5457 Y141.3992 E3.16364 F1800 ; Fill
G0 X199.2617 Y141.3992 F7200 ; Move
G1 X160.6201 Y180.0408 E3.16364 F1800 ; Fill
G0 X161.3362 Y180.0408 F7200 ; Move
G1 X199.9778 Y141.3992 E3.16364 F1800 ; Fill
G0 X200.6939 Y141.3992 F7200 ; Move
G1 X162.0523 Y180.0408 E3.16364 F1800 ; Fill
G0 X162.7684 Y180.0408 F7200 ; Move
G1 X201.41 Y141.3992 E3.16364 F1800 ; Fill
G0 X202.1261 Y141.3992 F7200 ; Move
G1 X163.4844 Y180.0408 E3.16364 F1800 ; Fill
G0 X164.2005 Y180.0408 F7200 ; Move
G1 X202.8422 Y141.3992 E3.16364 F1800 ; Fill
G0 X203.5583 Y141.3992 F7200 ; Move
G1 X164.9166 Y180.0408 E3.16364 F1800 ; Fill
G0 X165.6327 Y180.0408 F7200 ; Move
G1 X204.2743 Y141.3992 E3.16364 F1800 ; Fill
G0 X204.9904 Y141.3992 F7200 ; Move
G1 X166.3488 Y180.0408 E3.16364 F1800 ; Fill
G0 X167.0649 Y180.0408 F7200 ; Move
G1 X205.7065 Y141.3992 E3.16364 F1800 ; Fill
G0 X206.4226 Y141.3992 F7200 ; Move
G1 X167.781 Y180.0408 E3.16364 F1800 ; Fill
G0 X168.497 Y180.0408 F7200 ; Move
G1 X207.1387 Y141.3992 E3.16364 F1800 ; Fill
G0 X207.8548 Y141.3992 F7200 ; Move
G1 X169.2131 Y180.0408 E3.16364 F1800 ; Fill
G0 X169.9292 Y180.0408 F7200 ; Move
G1 X208.5709 Y141.3992 E3.16364 F1800 ; Fill
G0 X209.287 Y141.3992 F7200 ; Move
G1 X170.6453 Y180.0408 E3.16364 F1800 ; Fill
G0 X171.3614 Y180.0408 F7200 ; Move
G1 X210.003 Y141.3992 E3.16364 F1800 ; Fill
G0 X210.7191 Y141.3992 F7200 ; Move
G1 X172.0775 Y180.0408 E3.16364 F1800 ; Fill
G0 X172.7936 Y180.0408 F7200 ; Move
G1 X211.4352 Y141.3992 E3.16364 F1800 ; Fill
G0 X211.656 Y141.8945 F7200 ; Move
G1 X173.5097 Y180.0408 E3.1231 F1800 ; Fill
G0 X174.2257 Y180.0408 F7200 ; Move
G1 X211.656 Y142.6105 E3.06447 F1800 ; Fill
G0 X211.656 Y143.3266 F7200 ; Move
G1 X174.9418 Y180.0408 E3.00584 F1800 ; Fill
G0 X175.6579 Y180.0408 F7200 ; Move
G1 X211.656 Y144.0427 E2.94721 F1800 ; Fill
G0 X211.656 Y144.7588 F7200 ; Move
G1 X176.374 Y180.0408 E2.88859 F1800 ; Fill
G0 X177.0901 Y180.0408 F7200 ; Move
G1 X211.656 Y145.4749 E2.82996 F1800 ; Fill
G0 X211.656 Y146.191 F7200 ; Move
G1 X177.8062 Y180.0408 E2.77133 F1800 ; Fill
G0 X178.5223 Y180.0408 F7200 ; Move
G1 X211.656 Y146.9071 E2.71271 F1800 ; Fill
G0 X211.656 Y147.6232 F7200 ; Move
G1 X179.2383 Y180.0408 E2.65408 F1800 ; Fill
G0 X179.9544 Y180.0408 F7200 ; Move
G1 X211.656 Y148.3392 E2.59545 F1800 ; Fill
G0 X211.656 Y149.0553 F7200 ; Move
G1 X180.6705 Y180.0408 E2.53683 F1800 ; Fill
G0 X181.3866 Y180.0408 F7200 ; Move
G1 X211.656 Y149.7714 E2.4782 F1800 ; Fill
G0 X211.656 Y150.4875 F7200 ; Move
G1 X182.1027 Y180.0408 E2.41957 F1800 ; Fill
G0 X182.8188 Y180.0408 F7200 ; Move
G1 X211.656 Y151.2036 E2.36094 F1800 ; Fill
G0 X211.656 Y151.9197 F7200 ; Move
G1 X183.5349 Y180.0408 E2.30232 F1800 ; Fill
G0 X184.251 Y180.0408 F7200 ; Move
G1 X211.656 Y152.6358 E2.24369 F1800 ; Fill
G0 X211.656 Y153.3518 F7200 ; Move
G1 X184.967 Y180.0408 E2.18506 F1800 ; Fill
G0 X185.6831 Y180.0408 F7200 ; Move
G1 X211.656 Y154.0679 E2.12644 F1800 ; Fill
G0 X211.656 Y154.784 F7200 ; Move
G1 X186.3992 Y180.0408 E2.06781 F1800 ; Fill
G0 X187.1153 Y180.0408 F7200 ; Move
G1 X211.656 Y155.5001 E2.00918 F1800 ; Fill
G0 X211.656 Y156.2162 F7200 ; Move
G1 X187.8314 Y180.0408 E1.95056 F1800 ; Fill
G0 X188.5475 Y180.0408 F7200 ; Move
G1 X211.656 Y156.9323 E1.89193 F1800 ; Fill
G0 X211.656 Y157.6484 F7200 ; Move
G1 X189.2636 Y180.0408 E1.8333 F1800 ; Fill
G0 X189.9796 Y180.0408 F7200 ; Move
G1 X211.656 Y158.3644 E1.77468 F1800 ; Fill
G0 X211.656 Y159.0805 F7200 ; Move
G1 X190.6957 Y180.0408 E1.71605 F1800 ; Fill
G0 X191.4118 Y180.0408 F7200 ; Move
G1 X211.656 Y159.7966 E1.65742 F1800 ; Fill
G0 X211.656 Y160.5127 F7200 ; Move
G1 X192.1279 Y180.0408 E1.59879 F1800 ; Fill
G0 X192.844 Y180.0408 F7200 ; Move
G1 X211.656 Y161.2288 E1.54017 F1800 ; Fill
G0 X211.656 Y161.9449 F7200 ; Move
G1 X193.5601 Y180.0408 E1.48154 F1800 ; Fill
G0 X194.2762 Y180.0408 F7200 ; Move
G1 X211.656 Y162.661 E1.42291 F1800 ; Fill
G0 X211.656 Y163.3771 F7200 ; Move
G1 X194.9922 Y180.0408 E1.36429 F1800 ; Fill
G0 X195.7083 Y180.0408 F7200 ; Move
G1 X211.656 Y164.0931 E1.30566 F1800 ; Fill
G0 X211.656 Y164.8092 F7200 ; Move
G1 X196.4244 Y180.0408 E1.24703 F1800 ; Fill
G0 X197.1405 Y180.0408 F7200 ; Move
G1 X211.656 Y165.5253 E1.18841 F1800 ; Fill
G0 X211.656 Y166.2414 F7200 ; Move
G1 X197.8566 Y180.0408 E1.12978 F1800 ; Fill
G0 X198.5727 Y180.0408 F7200 ; Move
G1 X211.656 Y166.9575 E1.07115 F1800 ; Fill
G0 X211.656 Y167.6736 F7200 ; Move
G1 X199.2888 Y180.0408 E1.01252 F1800 ; Fill
G0 X200.0049 Y180.0408 F7200 ; Move
G1 X211.656 Y168.3897 E0.9539 F1800 ; Fill
G0 X211.656 Y169.1057 F7200 ; Move
G1 X200.7209 Y180.0408 E0.89527 F1800 ; Fill
G0 X201.437 Y180.0408 F7200 ; Move
G1 X211.656 Y169.8218 E0.83664 F1800 ; Fill
G0 X211.656 Y170.5379 F7200 ; Move
G1 X202.1531 Y180.0408 E0.77802 F1800 ; Fill
G0 X202.8692 Y180.0408 F7200 ; Move
G1 X211.656 Y171.254 E0.71939 F1800 ; Fill
G0 X211.656 Y171.9701 F7200 ; Move
G1 X203.5853 Y180.0408 E0.66076 F1800 ; Fill
G0 X204.3014 Y180.0408 F7200 ; Move
G1 X211.656 Y172.6862 E0.60214 F1800 ; Fill
G0 X211.656 Y173.4023 F7200 ; Move
G1 X205.0175 Y180.0408 E0.54351 F1800 ; Fill
G0 X205.7335 Y180.0408 F7200 ; Move
G1 X211.656 Y174.1183 E0.48488 F1800 ; Fill
G0 X211.656 Y174.8344 F7200 ; Move
G1 X206.4496 Y180.0408 E0.42625 F1800 ; Fill
G0 X207.1657 Y180.0408 F7200 ; Move
G1 X211.656 Y175.5505 E0.36763 F1800 ; Fill
G0 X211.656 Y176.2666 F7200 ; Move
G1 X207.8818 Y180.0408 E0.309 F1800 ; Fill
G0 X208.5979 Y180.0408 F7200 ; Move
G1 X211.656 Y176.9827 E0.25037 F1800 ; Fill
G0 X211.656 Y177.6988 F7200 ; Move
G1 X209.314 Y180.0408 E0.19175 F1800 ; Fill
G0 X210.0301 Y180.0408 F7200 ; Move
G1 X211.656 Y178.4149 E0.13312 F1800 ; Fill
G0 X211.656 Y179.131 F7200 ; Move
G1 X210.7461 Y180.0408 E0.07449 F1800 ; Fill
G1 E-2.5 F2700 ; Retract
G1 Z0.35 F7200 ; Z hop
G0 X116.4516 Y182.4396 F7200 ; Move to box start
G1 Z0.25 F7200 ; Z hop return
G1 E2.5 F2100 ; Un-retract
G1 X116.4516 Y190.9459 E0.49245 F1800 ; Draw perimeter (up)
G1 X195.1117 Y190.9459 E4.55377 F1800 ; Draw perimeter (right)
G1 X195.1117 Y182.4396 E0.49245 F1800 ; Draw perimeter (down)
G1 X116.4516 Y182.4396 E4.55377 F1800 ; Draw perimeter (left)
G0 X116.9579 Y182.9459 F7200 ; Step inwards to print next perimeter
G1 X116.9579 Y190.4396 E0.43382 F1800 ; Draw perimeter (up)
G1 X194.6053 Y190.4396 E4.49515 F1800 ; Draw perimeter (right)
G1 X194.6053 Y182.9459 E0.43382 F1800 ; Draw perimeter (down)
G1 X116.9579 Y182.9459 E4.49515 F1800 ; Draw perimeter (left)
G0 X117.4643 Y183.4523 F7200 ; Step inwards to print next perimeter
G1 X117.4643 Y189.9332 E0.37519 F1800 ; Draw perimeter (up)
G1 X194.099 Y189.9332 E4.43652 F1800 ; Draw perimeter (right)
G1 X194.099 Y183.4523 E0.37519 F1800 ; Draw perimeter (down)
G1 X117.4643 Y183.4523 E4.43652 F1800 ; Draw perimeter (left)
G0 X117.9706 Y183.9586 F7200 ; Step inwards to print next perimeter
G1 X117.9706 Y189.4269 E0.31657 F1800 ; Draw perimeter (up)
G1 X193.5926 Y189.4269 E4.37789 F1800 ; Draw perimeter (right)
G1 X193.5926 Y183.9586 E0.31657 F1800 ; Draw perimeter (down)
G1 X117.9706 Y183.9586 E4.37789 F1800 ; Draw perimeter (left)
G0 X118.344 Y184.3319 F7200 ; Move to fill start
G0 X119.0601 Y184.3319 F7200 ; Move
G1 X118.344 Y185.048 E0.05863 F1800 ; Fill
G0 X118.344 Y185.7641 F7200 ; Move
G1 X119.7762 Y184.3319 E0.11725 F1800 ; Fill
G0 X120.4922 Y184.3319 F7200 ; Move
G1 X118.344 Y186.4802 E0.17588 F1800 ; Fill
G0 X118.344 Y187.1963 F7200 ; Move
G1 X121.2083 Y184.3319 E0.23451 F1800 ; Fill
G0 X121.9244 Y184.3319 F7200 ; Move
G1 X118.344 Y187.9124 E0.29313 F1800 ; Fill
G0 X118.344 Y188.6285 F7200 ; Move
G1 X122.6405 Y184.3319 E0.35176 F1800 ; Fill
G0 X123.3566 Y184.3319 F7200 ; Move
G1 X118.635 Y189.0535 E0.38656 F1800 ; Fill
G0 X119.3511 Y189.0535 F7200 ; Move
G1 X124.0727 Y184.3319 E0.38656 F1800 ; Fill
G0 X124.7888 Y184.3319 F7200 ; Move
G1 X120.0672 Y189.0535 E0.38656 F1800 ; Fill
G0 X120.7833 Y189.0535 F7200 ; Move
G1 X125.5048 Y184.3319 E0.38656 F1800 ; Fill
G0 X126.2209 Y184.3319 F7200 ; Move
G1 X121.4993 Y189.0535 E0.38656 F1800 ; Fill
G0 X122.2154 Y189.0535 F7200 ; Move
G1 X126.937 Y184.3319 E0.38656 F1800 ; Fill
G0 X127.6531 Y184.3319 F7200 ; Move
G1 X122.9315 Y189.0535 E0.38656 F1800 ; Fill
G0 X123.6476 Y189.0535 F7200 ; Move
G1 X128.3692 Y184.3319 E0.38656 F1800 ; Fill
G0 X129.0853 Y184.3319 F7200 ; Move
G1 X124.3637 Y189.0535 E0.38656 F1800 ; Fill
G0 X125.0798 Y189.0535 F7200 ; Move
G1 X129.8014 Y184.3319 E0.38656 F1800 ; Fill
G0 X130.5174 Y184.3319 F7200 ; Move
G1 X125.7959 Y189.0535 E0.38656 F1800 ; Fill
G0 X126.512 Y189.0535 F7200 ; Move
G1 X131.2335 Y184.3319 E0.38656 F1800 ; Fill
G0 X131.9496 Y184.3319 F7200 ; Move
G1 X127.228 Y189.0535 E0.38656 F1800 ; Fill
G0 X127.9441 Y189.0535 F7200 ; Move
G1 X132.6657 Y184.3319 E0.38656 F1800 ; Fill
G0 X133.3818 Y184.3319 F7200 ; Move
G1 X128.6602 Y189.0535 E0.38656 F1800 ; Fill
G0 X129.3763 Y189.0535 F7200 ; Move
G1 X134.0979 Y184.3319 E0.38656 F1800 ; Fill
G0 X134.814 Y184.3319 F7200 ; Move
G1 X130.0924 Y189.0535 E0.38656 F1800 ; Fill
G0 X130.8085 Y189.0535 F7200 ; Move
G1 X135.5301 Y184.3319 E0.38656 F1800 ; Fill
G0 X136.2461 Y184.3319 F7200 ; Move
G1 X131.5246 Y189.0535 E0.38656 F1800 ; Fill
G0 X132.2406 Y189.0535 F7200 ; Move
G1 X136.9622 Y184.3319 E0.38656 F1800 ; Fill
G0 X137.6783 Y184.3319 F7200 ; Move
G1 X132.9567 Y189.0535 E0.38656 F1800 ; Fill
G0 X133.6728 Y189.0535 F7200 ; Move
G1 X138.3944 Y184.3319 E0.38656 F1800 ; Fill
G0 X139.1105 Y184.3319 F7200 ; Move
G1 X134.3889 Y189.0535 E0.38656 F1800 ; Fill
G0 X135.105 Y189.0535 F7200 ; Move
G1 X139.8266 Y184.3319 E0.38656 F1800 ; Fill
G0 X140.5427 Y184.3319 F7200 ; Move
G1 X135.8211 Y189.0535 E0.38656 F1800 ; Fill
G0 X136.5372 Y189.0535 F7200 ; Move
G1 X141.2587 Y184.3319 E0.38656 F1800 ; Fill
G0 X141.9748 Y184.3319 F7200 ; Move
G1 X137.2532 Y189.0535 E0.38656 F1800 ; Fill
G0 X137.9693 Y189.0535 F7200 ; Move
G1 X142.6909 Y184.3319 E0.38656 F1800 ; Fill
G0 X143.407 Y184.3319 F7200 ; Move
G1 X138.6854 Y189.0535 E0.38656 F1800 ; Fill
G0 X139.4015 Y189.0535 F7200 ; Move
G1 X144.1231 Y184.3319 E0.38656 F1800 ; Fill
G0 X144.8392 Y184.3319 F7200 ; Move
G1 X140.1176 Y189.0535 E0.38656 F1800 ; Fill
G0 X140.8337 Y189.0535 F7200 ; Move
G1 X145.5553 Y184.3319 E0.38656 F1800 ; Fill
G0 X146.2713 Y184.3319 F7200 ; Move
G1 X141.5498 Y189.0535 E0.38656 F1800 ; Fill
G0 X142.2659 Y189.0535 F7200 ; Move
G1 X146.9874 Y184.3319 E0.38656 F1800 ; Fill
G0 X147.7035 Y184.3319 F7200 ; Move
G1 X142.9819 Y189.0535 E0.38656 F1800 ; Fill
G0 X143.698 Y189.0535 F7200 ; Move
G1 X148.4196 Y184.3319 E0.38656 F1800 ; Fill
G0 X149.1357 Y184.3319 F7200 ; Move
G1 X144.4141 Y189.0535 E0.38656 F1800 ; Fill
G0 X145.1302 Y189.0535 F7200 ; Move
G1 X149.8518 Y184.3319 E0.38656 F1800 ; Fill
G0 X150.5679 Y184.3319 F7200 ; Move
G1 X145.8463 Y189.0535 E0.38656 F1800 ; Fill
G0 X146.5624 Y189.0535 F7200 ; Move
G1 X151.284 Y184.3319 E0.38656 F1800 ; Fill
G0 X152 Y184.3319 F7200 ; Move
G1 X147.2785 Y189.0535 E0.38656 F1800 ; Fill
G0 X147.9945 Y189.0535 F7200 ; Move
G1 X152.7161 Y184.3319 E0.38656 F1800 ; Fill
G0 X153.4322 Y184.3319 F7200 ; Move
G1 X148.7106 Y189.0535 E0.38656 F1800 ; Fill
G0 X149.4267 Y189.0535 F7200 ; Move
G1 X154.1483 Y184.3319 E0.38656 F1800 ; Fill
G0 X154.8644 Y184.3319 F7200 ; Move
G1 X150.1428 Y189.0535 E0.38656 F1800 ; Fill
G0 X150.8589 Y189.0535 F7200 ; Move
G1 X155.5805 Y184.3319 E0.38656 F1800 ; Fill
G0 X156.2966 Y184.3319 F7200 ; Move
G1 X151.575 Y189.0535 E0.38656 F1800 ; Fill
G0 X152.2911 Y189.0535 F7200 ; Move
G1 X157.0126 Y184.3319 E0.38656 F1800 ; Fill
G0 X157.7287 Y184.3319 F7200 ; Move
G1 X153.0071 Y189.0535 E0.38656 F1800 ; Fill
G0 X153.7232 Y189.0535 F7200 ; Move
G1 X158.4448 Y184.3319 E0.38656 F1800 ; Fill
G0 X159.1609 Y184.3319 F7200 ; Move
G1 X154.4393 Y189.0535 E0.38656 F1800 ; Fill
G0 X155.1554 Y189.0535 F7200 ; Move
G1 X159.877 Y184.3319 E0.38656 F1800 ; Fill
G0 X160.5931 Y184.3319 F7200 ; Move
G1 X155.8715 Y189.0535 E0.38656 F1800 ; Fill
G0 X156.5876 Y189.0535 F7200 ; Move
G1 X161.3092 Y184.3319 E0.38656 F1800 ; Fill
G0 X162.0253 Y184.3319 F7200 ; Move
G1 X157.3037 Y189.0535 E0.38656 F1800 ; Fill
G0 X158.0198 Y189.0535 F7200 ; Move
G1 X162.7413 Y184.3319 E0.38656 F1800 ; Fill
G0 X163.4574 Y184.3319 F7200 ; Move
G1 X158.7358 Y189.0535 E0.38656 F1800 ; Fill
G0 X159.4519 Y189.0535 F7200 ; Move
G1 X164.1735 Y184.3319 E0.38656 F1800 ; Fill
G0 X164.8896 Y184.3319 F7200 ; Move
G1 X160.168 Y189.0535 E0.38656 F1800 ; Fill
G0 X160.8841 Y189.0535 F7200 ; Move
G1 X165.6057 Y184.3319 E0.38656 F1800 ; Fill
G0 X166.3218 Y184.3319 F7200 ; Move
G1 X161.6002 Y189.0535 E0.38656 F1800 ; Fill
G0 X162.3163 Y189.0535 F7200 ; Move
G1 X167.0379 Y184.3319 E0.38656 F1800 ; Fill
G0 X167.7539 Y184.3319 F7200 ; Move
G1 X163.0324 Y189.0535 E0.38656 F1800 ; Fill
G0 X163.7484 Y189.0535 F7200 ; Move
G1 X168.47 Y184.3319 E0.38656 F1800 ; Fill
G0 X169.1861 Y184.3319 F7200 ; Move
G1 X164.4645 Y189.0535 E0.38656 F1800 ; Fill
G0 X165.1806 Y189.0535 F7200 ; Move
G1 X169.9022 Y184.3319 E0.38656 F1800 ; Fill
G0 X170.6183 Y184.3319 F7200 ; Move
G1 X165.8967 Y189.0535 E0.38656 F1800 ; Fill
G0 X166.6128 Y189.0535 F7200 ; Move
G1 X171.3344 Y184.3319 E0.38656 F1800 ; Fill
G0 X172.0505 Y184.3319 F7200 ; Move
G1 X167.3289 Y189.0535 E0.38656 F1800 ; Fill
G0 X168.045 Y189.0535 F7200 ; Move
G1 X172.7665 Y184.3319 E0.38656 F1800 ; Fill
G0 X173.4826 Y184.3319 F7200 ; Move
G1 X168.761 Y189.0535 E0.38656 F1800 ; Fill
G0 X169.4771 Y189.0535 F7200 ; Move
G1 X174.1987 Y184.3319 E0.38656 F1800 ; Fill
G0 X174.9148 Y184.3319 F7200 ; Move
G1 X170.1932 Y189.0535 E0.38656 F1800 ; Fill
G0 X170.9093 Y189.0535 F7200 ; Move
G1 X175.6309 Y184.3319 E0.38656 F1800 ; Fill
G0 X176.347 Y184.3319 F7200 ; Move
G1 X171.6254 Y189.0535 E0.38656 F1800 ; Fill
G0 X172.3415 Y189.0535 F7200 ; Move
G1 X177.0631 Y184.3319 E0.38656 F1800 ; Fill
G0 X177.7792 Y184.3319 F7200 ; Move
G1 X173.0576 Y189.0535 E0.38656 F1800 ; Fill
G0 X173.7737 Y189.0535 F7200 ; Move
G1 X178.4952 Y184.3319 E0.38656 F1800 ; Fill
G0 X179.2113 Y184.3319 F7200 ; Move
G1 X174.4897 Y189.0535 E0.38656 F1800 ; Fill
G0 X175.2058 Y189.0535 F7200 ; Move
G1 X179.9274 Y184.3319 E0.38656 F1800 ; Fill
G0 X180.6435 Y184.3319 F7200 ; Move
G1 X175.9219 Y189.0535 E0.38656 F1800 ; Fill
G0 X176.638 Y189.0535 F7200 ; Move
G1 X181.3596 Y184.3319 E0.38656 F1800 ; Fill
G0 X182.0757 Y184.3319 F7200 ; Move
G1 X177.3541 Y189.0535 E0.38656 F1800 ; Fill
G0 X178.0702 Y189.0535 F7200 ; Move
G1 X182.7918 Y184.3319 E0.38656 F1800 ; Fill
G0 X183.5078 Y184.3319 F7200 ; Move
G1 X178.7863 Y189.0535 E0.38656 F1800 ; Fill
G0 X179.5023 Y189.0535 F7200 ; Move
G1 X184.2239 Y184.3319 E0.38656 F1800 ; Fill
G0 X184.94 Y184.3319 F7200 ; Move
G1 X180.2184 Y189.0535 E0.38656 F1800 ; Fill
G0 X180.9345 Y189.0535 F7200 ; Move
G1 X185.6561 Y184.3319 E0.38656 F1800 ; Fill
G0 X186.3722 Y184.3319 F7200 ; Move
G1 X181.6506 Y189.0535 E0.38656 F1800 ; Fill
G0 X182.3667 Y189.0535 F7200 ; Move
G1 X187.0883 Y184.3319 E0.38656 F1800 ; Fill
G0 X187.8044 Y184.3319 F7200 ; Move
G1 X183.0828 Y189.0535 E0.38656 F1800 ; Fill
G0 X183.7989 Y189.0535 F7200 ; Move
G1 X188.5204 Y184.3319 E0.38656 F1800 ; Fill
G0 X189.2365 Y184.3319 F7200 ; Move
G1 X184.5149 Y189.0535 E0.38656 F1800 ; Fill
G0 X185.231 Y189.0535 F7200 ; Move
G1 X189.9526 Y184.3319 E0.38656 F1800 ; Fill
G0 X190.6687 Y184.3319 F7200 ; Move
G1 X185.9471 Y189.0535 E0.38656 F1800 ; Fill
G0 X186.6632 Y189.0535 F7200 ; Move
G1 X191.3848 Y184.3319 E0.38656 F1800 ; Fill
G0 X192.1009 Y184.3319 F7200 ; Move
G1 X187.3793 Y189.0535 E0.38656 F1800 ; Fill
G0 X188.0954 Y189.0535 F7200 ; Move
G1 X192.817 Y184.3319 E0.38656 F1800 ; Fill
G0 X193.2193 Y184.6457 F7200 ; Move
G1 X188.8115 Y189.0535 E0.36087 F1800 ; Fill
G0 X189.5276 Y189.0535 F7200 ; Move
G1 X193.2193 Y185.3618 E0.30225 F1800 ; Fill
G0 X193.2193 Y186.0779 F7200 ; Move
G1 X190.2436 Y189.0535 E0.24362 F1800 ; Fill
G0 X190.9597 Y189.0535 F7200 ; Move
G1 X193.2193 Y186.794 E0.18499 F1800 ; Fill
G0 X193.2193 Y187.5101 F7200 ; Move
G1 X191.6758 Y189.0535 E0.12637 F1800 ; Fill
G0 X192.3919 Y189.0535 F7200 ; Move
G1 X193.2193 Y188.2262 E0.06774 F1800 ; Fill
G0 X193.2193 Y188.9422 F7200 ; Move
G1 X193.108 Y189.0535 E0.00911 F1800 ; Fill
M106 S255 ; Set fan speed
G0 Z0.45 F7200 ; Move to layer height
SET_PRESSURE_ADVANCE ADVANCE=0 ; Set pressure advance to start value for numbering
M117 PA 0
G1 E-2.5 F2700 ; Retract
G1 Z0.55 F7200 ; Z hop
G0 X117.7316 Y183.3832 F7200 ; Move
G1 Z0.45 F7200 ; Z hop return
G1 E2.5 F2100 ; Un-retract
G1 X119.7316 Y183.3832 E0.07447 F1800 ; Glyph: 0
G1 X121.7316 Y183.3832 E0.07447 F1800 ; Glyph: 0
G1 X121.7316 Y185.3832 E0.07447 F1800 ; Glyph: 0
G1 X119.7316 Y185.3832 E0.07447 F1800 ; Glyph: 0
G1 X117.7316 Y185.3832 E0.07447 F1800 ; Glyph: 0
G1 X117.7316 Y183.3832 E0.07447 F1800 ; Glyph: 0
G1 E-2.5 F2700 ; Retract
G1 Z0.55 F7200 ; Z hop
G0 X124.9344 Y183.3832 F7200 ; Move
G1 Z0.45 F7200 ; Z hop return
G1 E2.5 F2100 ; Un-retract
G1 X126.9344 Y183.3832 E0.07447 F1800 ; Glyph: 0
G1 X128.9344 Y183.3832 E0.07447 F1800 ; Glyph: 0
G1 X128.9344 Y185.3832 E0.07447 F1800 ; Glyph: 0
G1 X126.9344 Y185.3832 E0.07447 F1800 ; Glyph: 0
G1 X124.9344 Y185.3832 E0.07447 F1800 ; Glyph: 0
G1 X124.9344 Y183.3832 E0.07447 F1800 ; Glyph: 0
G1 E-2.5 F2700 ; Retract
G1 Z0.55 F7200 ; Z hop
G0 X128.9344 Y186.3832 F7200 ; Move
G1 Z0.45 F7200 ; Z hop return
G1 E2.5 F2100 ; Un-retract
G1 X128.1844 Y186.3832 E0.02793 F1800 ; Glyph: .
G1 E-2.5 F2700 ; Retract
G1 Z0.55 F7200 ; Z hop
G0 X124.9344 Y187.3832 F7200 ; Move
G1 Z0.45 F7200 ; Z hop return
G1 E2.5 F2100 ; Un-retract
G1 X126.9344 Y187.3832 E0.07447 F1800 ; Glyph: 1
G1 X128.9344 Y187.3832 E0.07447 F1800 ; Glyph: 1
G1 E-2.5 F2700 ; Retract
G1 Z0.55 F7200 ; Z hop
G0 X132.1372 Y183.3832 F7200 ; Move
G1 Z0.45 F7200 ; Z hop return
G1 E2.5 F2100 ; Un-retract
G1 X134.1372 Y183.3832 E0.07447 F1800 ; Glyph: 0
G1 X136.1372 Y183.3832 E0.07447 F1800 ; Glyph: 0
G1 X136.1372 Y185.3832 E0.07447 F1800 ; Glyph: 0
G1 X134.1372 Y185.3832 E0.07447 F1800 ; Glyph: 0
G1 X132.1372 Y185.3832 E0.07447 F1800 ; Glyph: 0
G1 X132.1372 Y183.3832 E0.07447 F1800 ; Glyph: 0
G1 E-2.5 F2700 ; Retract
G1 Z0.55 F7200 ; Z hop
G0 X136.1372 Y186.3832 F7200 ; Move
G1 Z0.45 F7200 ; Z hop return
G1 E2.5 F2100 ; Un-retract
G1 X135.3872 Y186.3832 E0.02793 F1800 ; Glyph: .
G1 E-2.5 F2700 ; Retract
G1 Z0.55 F7200 ; Z hop
G0 X132.1372 Y187.3832 F7200 ; Move
G1 Z0.45 F7200 ; Z hop return
G1 E2.5 F2100 ; Un-retract
G1 X132.1372 Y189.3832 E0.07447 F1800 ; Glyph: 2
G1 X134.1372 Y189.3832 E0.07447 F1800 ; Glyph: 2
G1 X134.1372 Y187.3832 E0.07447 F1800 ; Glyph: 2
G1 X136.1372 Y187.3832 E0.07447 F1800 ; Glyph: 2
G1 X136.1372 Y189.3832 E0.07447 F1800 ; Glyph: 2
G1 E-2.5 F2700 ; Retract
G1 Z0.55 F7200 ; Z hop
G0 X139.34 Y183.3832 F7200 ; Move
G1 Z0.45 F7200 ; Z hop return
G1 E2.5 F2100 ; Un-retract
G1 X141.34 Y183.3832 E0.07447 F1800 ; Glyph: 0
G1 X143.34 Y183.3832 E0.07447 F1800 ; Glyph: 0
G1 X143.34 Y185.3832 E0.07447 F1800 ; Glyph: 0
G1 X141.34 Y185.3832 E0.07447 F1800 ; Glyph: 0
G1 X139.34 Y185.3832 E0.07447 F1800 ; Glyph: 0
G1 X139.34 Y183.3832 E0.07447 F1800 ; Glyph: 0
G1 E-2.5 F2700 ; Retract
G1 Z0.55 F7200 ; Z hop
G0 X143.34 Y186.3832 F7200 ; Move
G1 Z0.45 F7200 ; Z hop return
G1 E2.5 F2100 ; Un-retract
G1 X142.59 Y186.3832 E0.02793 F1800 ; Glyph: .
G1 E-2.5 F2700 ; Retract
G1 Z0.55 F7200 ; Z hop
G0 X139.34 Y187.3832 F7200 ; Move
G1 Z0.45 F7200 ; Z hop return
G1 E2.5 F2100 ; Un-retract
G1 X139.34 Y189.3832 E0.07447 F1800 ; Glyph: 3
G1 X141.34 Y189.3832 E0.07447 F1800 ; Glyph: 3
G1 X141.34 Y187.3832 E0.07447 F1800 ; Glyph: 3
G0 X141.34 Y189.3832 F7200 ; Move
G1 X143.34 Y189.3832 E0.07447 F1800 ; Glyph: 3
G1 X143.34 Y187.3832 E0.07447 F1800 ; Glyph: 3
G1 E-2.5 F2700 ; Retract
G1 Z0.55 F7200 ; Z hop
G0 X146.5428 Y183.3832 F7200 ; Move
G1 Z0.45 F7200 ; Z hop return
G1 E2.5 F2100 ; Un-retract
G1 X148.5428 Y183.3832 E0.07447 F1800 ; Glyph: 0
G1 X150.5428 Y183.3832 E0.07447 F1800 ; Glyph: 0
G1 X150.5428 Y185.3832 E0.07447 F1800 ; Glyph: 0
G1 X148.5428 Y185.3832 E0.07447 F1800 ; Glyph: 0
G1 X146.5428 Y185.3832 E0.07447 F1800 ; Glyph: 0
G1 X146.5428 Y183.3832 E0.07447 F1800 ; Glyph: 0
G1 E-2.5 F2700 ; Retract
G1 Z0.55 F7200 ; Z hop
G0 X150.5428 Y186.3832 F7200 ; Move
G1 Z0.45 F7200 ; Z hop return
G1 E2.5 F2100 ; Un-retract
G1 X149.7928 Y186.3832 E0.02793 F1800 ; Glyph: .
G1 E-2.5 F2700 ; Retract
G1 Z0.55 F7200 ; Z hop
G0 X146.5428 Y189.3832 F7200 ; Move
G1 Z0.45 F7200 ; Z hop return
G1 E2.5 F2100 ; Un-retract
G1 X148.5428 Y189.3832 E0.07447 F1800 ; Glyph: 4
G1 X150.5428 Y189.3832 E0.07447 F1800 ; Glyph: 4
G0 X148.5428 Y189.3832 F7200 ; Move
G1 X148.5428 Y187.3832 E0.07447 F1800 ; Glyph: 4
G1 X146.5428 Y187.3832 E0.07447 F1800 ; Glyph: 4
G1 E-2.5 F2700 ; Retract
G1 Z0.55 F7200 ; Z hop
G0 X153.7455 Y183.3832 F7200 ; Move
G1 Z0.45 F7200 ; Z hop return
G1 E2.5 F2100 ; Un-retract
G1 X155.7455 Y183.3832 E0.07447 F1800 ; Glyph: 0
G1 X157.7455 Y183.3832 E0.07447 F1800 ; Glyph: 0
G1 X157.7455 Y185.3832 E0.07447 F1800 ; Glyph: 0
G1 X155.7455 Y185.3832 E0.07447 F1800 ; Glyph: 0
G1 X153.7455 Y185.3832 E0.07447 F1800 ; Glyph: 0
G1 X153.7455 Y183.3832 E0.07447 F1800 ; Glyph: 0
G1 E-2.5 F2700 ; Retract
G1 Z0.55 F7200 ; Z hop
G0 X157.7455 Y186.3832 F7200 ; Move
G1 Z0.45 F7200 ; Z hop return
G1 E2.5 F2100 ; Un-retract
G1 X156.9955 Y186.3832 E0.02793 F1800 ; Glyph: .
G1 E-2.5 F2700 ; Retract
G1 Z0.55 F7200 ; Z hop
G0 X153.7455 Y189.3832 F7200 ; Move
G1 Z0.45 F7200 ; Z hop return
G1 E2.5 F2100 ; Un-retract
G1 X153.7455 Y187.3832 E0.07447 F1800 ; Glyph: 5
G1 X155.7455 Y187.3832 E0.07447 F1800 ; Glyph: 5
G1 X155.7455 Y189.3832 E0.07447 F1800 ; Glyph: 5
G1 X157.7455 Y189.3832 E0.07447 F1800 ; Glyph: 5
G1 X157.7455 Y187.3832 E0.07447 F1800 ; Glyph: 5
G1 E-2.5 F2700 ; Retract
G1 Z0.55 F7200 ; Z hop
G0 X160.9483 Y183.3832 F7200 ; Move
G1 Z0.45 F7200 ; Z hop return
G1 E2.5 F2100 ; Un-retract
G1 X162.9483 Y183.3832 E0.07447 F1800 ; Glyph: 0
G1 X164.9483 Y183.3832 E0.07447 F1800 ; Glyph: 0
G1 X164.9483 Y185.3832 E0.07447 F1800 ; Glyph: 0
G1 X162.9483 Y185.3832 E0.07447 F1800 ; Glyph: 0
G1 X160.9483 Y185.3832 E0.07447 F1800 ; Glyph: 0
G1 X160.9483 Y183.3832 E0.07447 F1800 ; Glyph: 0
G1 E-2.5 F2700 ; Retract
G1 Z0.55 F7200 ; Z hop
G0 X164.9483 Y186.3832 F7200 ; Move
G1 Z0.45 F7200 ; Z hop return
G1 E2.5 F2100 ; Un-retract
G1 X164.1983 Y186.3832 E0.02793 F1800 ; Glyph: .
G1 E-2.5 F2700 ; Retract
G1 Z0.55 F7200 ; Z hop
G0 X160.9483 Y189.3832 F7200 ; Move
G1 Z0.45 F7200 ; Z hop return
G1 E2.5 F2100 ; Un-retract
G1 X160.9483 Y187.3832 E0.07447 F1800 ; Glyph: 6
G1 X162.9483 Y187.3832 E0.07447 F1800 ; Glyph: 6
G1 X164.9483 Y187.3832 E0.07447 F1800 ; Glyph: 6
G1 X164.9483 Y189.3832 E0.07447 F1800 ; Glyph: 6
G1 X162.9483 Y189.3832 E0.07447 F1800 ; Glyph: 6
G1 X162.9483 Y187.3832 E0.07447 F1800 ; Glyph: 6
G1 E-2.5 F2700 ; Retract
G1 Z0.55 F7200 ; Z hop
G0 X168.1511 Y183.3832 F7200 ; Move
G1 Z0.45 F7200 ; Z hop return
G1 E2.5 F2100 ; Un-retract
G1 X170.1511 Y183.3832 E0.07447 F1800 ; Glyph: 0
G1 X172.1511 Y183.3832 E0.07447 F1800 ; Glyph: 0
G1 X172.1511 Y185.3832 E0.07447 F1800 ; Glyph: 0
G1 X170.1511 Y185.3832 E0.07447 F1800 ; Glyph: 0
G1 X168.1511 Y185.3832 E0.07447 F1800 ; Glyph: 0
G1 X168.1511 Y183.3832 E0.07447 F1800 ; Glyph: 0
G1 E-2.5 F2700 ; Retract
G1 Z0.55 F7200 ; Z hop
G0 X172.1511 Y186.3832 F7200 ; Move
G1 Z0.45 F7200 ; Z hop return
G1 E2.5 F2100 ; Un-retract
G1 X171.4011 Y186.3832 E0.02793 F1800 ; Glyph: .
G1 E-2.5 F2700 ; Retract
G1 Z0.55 F7200 ; Z hop
G0 X168.1511 Y187.3832 F7200 ; Move
G1 Z0.45 F7200 ; Z hop return
G1 E2.5 F2100 ; Un-retract
G1 X168.1511 Y189.3832 E0.07447 F1800 ; Glyph: 7
G1 X170.1511 Y189.3832 E0.07447 F1800 ; Glyph: 7
G1 X172.1511 Y189.3832 E0.07447 F1800 ; Glyph: 7
G1 E-2.5 F2700 ; Retract
G1 Z0.55 F7200 ; Z hop
G0 X175.3539 Y183.3832 F7200 ; Move
G1 Z0.45 F7200 ; Z hop return
G1 E2.5 F2100 ; Un-retract
G1 X177.3539 Y183.3832 E0.07447 F1800 ; Glyph: 0
G1 X179.3539 Y183.3832 E0.07447 F1800 ; Glyph: 0
G1 X179.3539 Y185.3832 E0.07447 F1800 ; Glyph: 0
G1 X177.3539 Y185.3832 E0.07447 F1800 ; Glyph: 0
G1 X175.3539 Y185.3832 E0.07447 F1800 ; Glyph: 0
G1 X175.3539 Y183.3832 E0.07447 F1800 ; Glyph: 0
G1 E-2.5 F2700 ; Retract
G1 Z0.55 F7200 ; Z hop
G0 X179.3539 Y186.3832 F7200 ; Move
G1 Z0.45 F7200 ; Z hop return
G1 E2.5 F2100 ; Un-retract
G1 X178.6039 Y186.3832 E0.02793 F1800 ; Glyph: .
G1 E-2.5 F2700 ; Retract
G1 Z0.55 F7200 ; Z hop
G0 X175.3539 Y187.3832 F7200 ; Move
G1 Z0.45 F7200 ; Z hop return
G1 E2.5 F2100 ; Un-retract
G1 X177.3539 Y187.3832 E0.07447 F1800 ; Glyph: 8
G1 X179.3539 Y187.3832 E0.07447 F1800 ; Glyph: 8
G1 X179.3539 Y189.3832 E0.07447 F1800 ; Glyph: 8
G1 X177.3539 Y189.3832 E0.07447 F1800 ; Glyph: 8
G1 X175.3539 Y189.3832 E0.07447 F1800 ; Glyph: 8
G1 X175.3539 Y187.3832 E0.07447 F1800 ; Glyph: 8
G0 X177.3539 Y187.3832 F7200 ; Move
G1 X177.3539 Y189.3832 E0.07447 F1800 ; Glyph: 8
G1 E-2.5 F2700 ; Retract
G1 Z0.55 F7200 ; Z hop
G0 X182.5567 Y183.3832 F7200 ; Move
G1 Z0.45 F7200 ; Z hop return
G1 E2.5 F2100 ; Un-retract
G1 X184.5567 Y183.3832 E0.07447 F1800 ; Glyph: 0
G1 X186.5567 Y183.3832 E0.07447 F1800 ; Glyph: 0
G1 X186.5567 Y185.3832 E0.07447 F1800 ; Glyph: 0
G1 X184.5567 Y185.3832 E0.07447 F1800 ; Glyph: 0
G1 X182.5567 Y185.3832 E0.07447 F1800 ; Glyph: 0
G1 X182.5567 Y183.3832 E0.07447 F1800 ; Glyph: 0
G1 E-2.5 F2700 ; Retract
G1 Z0.55 F7200 ; Z hop
G0 X186.5567 Y186.3832 F7200 ; Move
G1 Z0.45 F7200 ; Z hop return
G1 E2.5 F2100 ; Un-retract
G1 X185.8067 Y186.3832 E0.02793 F1800 ; Glyph: .
G0 X186.5567 Y187.3832 F7200 ; Move
G1 X186.5567 Y189.3832 E0.07447 F1800 ; Glyph: 9
G1 X184.5567 Y189.3832 E0.07447 F1800 ; Glyph: 9
G1 X182.5567 Y189.3832 E0.07447 F1800 ; Glyph: 9
G1 X182.5567 Y187.3832 E0.07447 F1800 ; Glyph: 9
G1 X184.5567 Y187.3832 E0.07447 F1800 ; Glyph: 9
G1 X184.5567 Y189.3832 E0.07447 F1800 ; Glyph: 9
G1 E-2.5 F2700 ; Retract
G1 Z0.55 F7200 ; Z hop
G0 X189.7595 Y183.3832 F7200 ; Move
G1 Z0.45 F7200 ; Z hop return
G1 E2.5 F2100 ; Un-retract
G1 X191.7595 Y183.3832 E0.07447 F1800 ; Glyph: 1
G1 X193.7595 Y183.3832 E0.07447 F1800 ; Glyph: 1
G1 E-2.5 F2700 ; Retract
G1 Z0.55 F7200 ; Z hop
G0 X119.1559 Y139.5068 F7200 ; Move to pattern start

G1 Z0.45 F7200 ; Z hop return
G1 E2.5 F2100 ; Un-retract
SET_PRESSURE_ADVANCE ADVANCE=0 ; Set pressure advance
M117 PA 0
G1 X140.3691 Y160.72 E1.11701 F6000 ; Print pattern wall
G1 X119.1559 Y181.9332 E1.11701 F6000 ; Print pattern wall
G1 E-2.5 F2700 ; Retract
G1 Z0.55 F7200 ; Z hop
G0 X119.7316 Y139.5068 F7200 ; Move to start next pattern wall
G1 Z0.45 F7200 ; Z hop return
G1 E2.5 F2100 ; Un-retract
G1 X140.9448 Y160.72 E1.11701 F6000 ; Print pattern wall
G1 X119.7316 Y181.9332 E1.11701 F6000 ; Print pattern wall
G1 E-2.5 F2700 ; Retract
G1 Z0.55 F7200 ; Z hop
G0 X120.3073 Y139.5068 F7200 ; Move to start next pattern wall
G1 Z0.45 F7200 ; Z hop return
G1 E2.5 F2100 ; Un-retract
G1 X141.5205 Y160.72 E1.11701 F6000 ; Print pattern wall
G1 X120.3073 Y181.9332 E1.11701 F6000 ; Print pattern wall
G1 E-2.5 F2700 ; Retract
G1 Z0.55 F7200 ; Z hop
G0 X122.7573 Y139.5068 F7200 ; Move to next pattern
G1 Z0.45 F7200 ; Z hop return
G1 E2.5 F2100 ; Un-retract
SET_PRESSURE_ADVANCE ADVANCE=0.05 ; Set pressure advance
M117 PA 0.05
G1 X143.9705 Y160.72 E1.11701 F6000 ; Print pattern wall
G1 X122.7573 Y181.9332 E1.11701 F6000 ; Print pattern wall
G1 E-2.5 F2700 ; Retract
G1 Z0.55 F7200 ; Z hop
G0 X123.333 Y139.5068 F7200 ; Move to start next pattern wall
G1 Z0.45 F7200 ; Z hop return
G1 E2.5 F2100 ; Un-retract
G1 X144.5462 Y160.72 E1.11701 F6000 ; Print pattern wall
G1 X123.333 Y181.9332 E1.11701 F6000 ; Print pattern wall
G1 E-2.5 F2700 ; Retract
G1 Z0.55 F7200 ; Z hop
G0 X123.9087 Y139.5068 F7200 ; Move to start next pattern wall
G1 Z0.45 F7200 ; Z hop return
G1 E2.5 F2100 ; Un-retract
G1 X145.1219 Y160.72 E1.11701 F6000 ; Print pattern wall
G1 X123.9087 Y181.9332 E1.11701 F6000 ; Print pattern wall
G1 E-2.5 F2700 ; Retract
G1 Z0.55 F7200 ; Z hop
G0 X126.3587 Y139.5068 F7200 ; Move to next pattern
G1 Z0.45 F7200 ; Z hop return
G1 E2.5 F2100 ; Un-retract
SET_PRESSURE_ADVANCE ADVANCE=0.1 ; Set pressure advance
M117 PA 0.1
G1 X147.5719 Y160.72 E1.11701 F6000 ; Print pattern wall
G1 X126.3587 Y181.9332 E1.11701 F6000 ; Print pattern wall
G1 E-2.5 F2700 ; Retract
G1 Z0.55 F7200 ; Z hop
G0 X126.9344 Y139.5068 F7200 ; Move to start next pattern wall
G1 Z0.45 F7200 ; Z hop return
G1 E2.5 F2100 ; Un-retract
G1 X148.1476 Y160.72 E1.11701 F6000 ; Print pattern wall
G1 X126.9344 Y181.9332 E1.11701 F6000 ; Print pattern wall
G1 E-2.5 F2700 ; Retract
G1 Z0.55 F7200 ; Z hop
G0 X127.5101 Y139.5068 F7200 ; Move to start next pattern wall
G1 Z0.45 F7200 ; Z hop return
G1 E2.5 F2100 ; Un-retract
G1 X148.7233 Y160.72 E1.11701 F6000 ; Print pattern wall
G1 X127.5101 Y181.9332 E1.11701 F6000 ; Print pattern wall
G1 E-2.5 F2700 ; Retract
G1 Z0.55 F7200 ; Z hop
G0 X129.9601 Y139.5068 F7200 ; Move to next pattern
G1 Z0.45 F7200 ; Z hop return
G1 E2.5 F2100 ; Un-retract
SET_PRESSURE_ADVANCE ADVANCE=0.15 ; Set pressure advance
M117 PA 0.15
G1 X151.1733 Y160.72 E1.11701 F6000 ; Print pattern wall
G1 X129.9601 Y181.9332 E1.11701 F6000 ; Print pattern wall
G1 E-2.5 F2700 ; Retract
G1 Z0.55 F7200 ; Z hop
G0 X130.5358 Y139.5068 F7200 ; Move to start next pattern wall
G1 Z0.45 F7200 ; Z hop return
G1 E2.5 F2100 ; Un-retract
G1 X151.749 Y160.72 E1.11701 F6000 ; Print pattern wall
G1 X130.5358 Y181.9332 E1.11701 F6000 ; Print pattern wall
G1 E-2.5 F2700 ; Retract
G1 Z0.55 F7200 ; Z hop
G0 X131.1115 Y139.5068 F7200 ; Move to start next pattern wall
G1 Z0.45 F7200 ; Z hop return
G1 E2.5 F2100 ; Un-retract
G1 X152.3247 Y160.72 E1.11701 F6000 ; Print pattern wall
G1 X131.1115 Y181.9332 E1.11701 F6000 ; Print pattern wall
G1 E-2.5 F2700 ; Retract
G1 Z0.55 F7200 ; Z hop
G0 X133.5615 Y139.5068 F7200 ; Move to next pattern
G1 Z0.45 F7200 ; Z hop return
G1 E2.5 F2100 ; Un-retract
SET_PRESSURE_ADVANCE ADVANCE=0.2 ; Set pressure advance
M117 PA 0.2
G1 X154.7747 Y160.72 E1.11701 F6000 ; Print pattern wall
G1 X133.5615 Y181.9332 E1.11701 F6000 ; Print pattern wall
G1 E-2.5 F2700 ; Retract
G1 Z0.55 F7200 ; Z hop
G0 X134.1372 Y139.5068 F7200 ; Move to start next pattern wall
G1 Z0.45 F7200 ; Z hop return
G1 E2.5 F2100 ; Un-retract
G1 X155.3504 Y160.72 E1.11701 F6000 ; Print pattern wall
G1 X134.1372 Y181.9332 E1.11701 F6000 ; Print pattern wall
G1 E-2.5 F2700 ; Retract
G1 Z0.55 F7200 ; Z hop
G0 X134.7129 Y139.5068 F7200 ; Move to start next pattern wall
G1 Z0.45 F7200 ; Z hop return
G1 E2.5 F2100 ; Un-retract
G1 X155.9261 Y160.72 E1.11701 F6000 ; Print pattern wall
G1 X134.7129 Y181.9332 E1.11701 F6000 ; Print pattern wall
G1 E-2.5 F2700 ; Retract
G1 Z0.55 F7200 ; Z hop
G0 X137.1629 Y139.5068 F7200 ; Move to next pattern
G1 Z0.45 F7200 ; Z hop return
G1 E2.5 F2100 ; Un-retract
SET_PRESSURE_ADVANCE ADVANCE=0.25 ; Set pressure advance
M117 PA 0.25
G1 X158.3761 Y160.72 E1.11701 F6000 ; Print pattern wall
G1 X137.1629 Y181.9332 E1.11701 F6000 ; Print pattern wall
G1 E-2.5 F2700 ; Retract
G1 Z0.55 F7200 ; Z hop
G0 X137.7386 Y139.5068 F7200 ; Move to start next pattern wall
G1 Z0.45 F7200 ; Z hop return
G1 E2.5 F2100 ; Un-retract
G1 X158.9518 Y160.72 E1.11701 F6000 ; Print pattern wall
G1 X137.7386 Y181.9332 E1.11701 F6000 ; Print pattern wall
G1 E-2.5 F2700 ; Retract
G1 Z0.55 F7200 ; Z hop
G0 X138.3143 Y139.5068 F7200 ; Move to start next pattern wall
G1 Z0.45 F7200 ; Z hop return
G1 E2.5 F2100 ; Un-retract
G1 X159.5275 Y160.72 E1.11701 F6000 ; Print pattern wall
G1 X138.3143 Y181.9332 E1.11701 F6000 ; Print pattern wall
G1 E-2.5 F2700 ; Retract
G1 Z0.55 F7200 ; Z hop
G0 X140.7643 Y139.5068 F7200 ; Move to next pattern
G1 Z0.45 F7200 ; Z hop return
G1 E2.5 F2100 ; Un-retract
SET_PRESSURE_ADVANCE ADVANCE=0.3 ; Set pressure advance
M117 PA 0.3
G1 X161.9775 Y160.72 E1.11701 F6000 ; Print pattern wall
G1 X140.7643 Y181.9332 E1.11701 F6000 ; Print pattern wall
G1 E-2.5 F2700 ; Retract
G1 Z0.55 F7200 ; Z hop
G0 X141.34 Y139.5068 F7200 ; Move to start next pattern wall
G1 Z0.45 F7200 ; Z hop return
G1 E2.5 F2100 ; Un-retract
G1 X162.5532 Y160.72 E1.11701 F6000 ; Print pattern wall
G1 X141.34 Y181.9332 E1.11701 F6000 ; Print pattern wall
G1 E-2.5 F2700 ; Retract
G1 Z0.55 F7200 ; Z hop
G0 X141.9157 Y139.5068 F7200 ; Move to start next pattern wall
G1 Z0.45 F7200 ; Z hop return
G1 E2.5 F2100 ; Un-retract
G1 X163.1289 Y160.72 E1.11701 F6000 ; Print pattern wall
G1 X141.9157 Y181.9332 E1.11701 F6000 ; Print pattern wall
G1 E-2.5 F2700 ; Retract
G1 Z0.55 F7200 ; Z hop
G0 X144.3657 Y139.5068 F7200 ; Move to next pattern
G1 Z0.45 F7200 ; Z hop return
G1 E2.5 F2100 ; Un-retract
SET_PRESSURE_ADVANCE ADVANCE=0.35 ; Set pressure advance
M117 PA 0.35
G1 X165.5789 Y160.72 E1.11701 F6000 ; Print pattern wall
G1 X144.3657 Y181.9332 E1.11701 F6000 ; Print pattern wall
G1 E-2.5 F2700 ; Retract
G1 Z0.55 F7200 ; Z hop
G0 X144.9414 Y139.5068 F7200 ; Move to start next pattern wall
G1 Z0.45 F7200 ; Z hop return
G1 E2.5 F2100 ; Un-retract
G1 X166.1546 Y160.72 E1.11701 F6000 ; Print pattern wall
G1 X144.9414 Y181.9332 E1.11701 F6000 ; Print pattern wall
G1 E-2.5 F2700 ; Retract
G1 Z0.55 F7200 ; Z hop
G0 X145.5171 Y139.5068 F7200 ; Move to start next pattern wall
G1 Z0.45 F7200 ; Z hop return
G1 E2.5 F2100 ; Un-retract
G1 X166.7303 Y160.72 E1.11701 F6000 ; Print pattern wall
G1 X145.5171 Y181.9332 E1.11701 F6000 ; Print pattern wall
G1 E-2.5 F2700 ; Retract
G1 Z0.55 F7200 ; Z hop
G0 X147.9671 Y139.5068 F7200 ; Move to next pattern
G1 Z0.45 F7200 ; Z hop return
G1 E2.5 F2100 ; Un-retract
SET_PRESSURE_ADVANCE ADVANCE=0.4 ; Set pressure advance
M117 PA 0.4
G1 X169.1803 Y160.72 E1.11701 F6000 ; Print pattern wall
G1 X147.9671 Y181.9332 E1.11701 F6000 ; Print pattern wall
G1 E-2.5 F2700 ; Retract
G1 Z0.55 F7200 ; Z hop
G0 X148.5428 Y139.5068 F7200 ; Move to start next pattern wall
G1 Z0.45 F7200 ; Z hop return
G1 E2.5 F2100 ; Un-retract
G1 X169.756 Y160.72 E1.11701 F6000 ; Print pattern wall
G1 X148.5428 Y181.9332 E1.11701 F6000 ; Print pattern wall
G1 E-2.5 F2700 ; Retract
G1 Z0.55 F7200 ; Z hop
G0 X149.1185 Y139.5068 F7200 ; Move to start next pattern wall
G1 Z0.45 F7200 ; Z hop return
G1 E2.5 F2100 ; Un-retract
G1 X170.3317 Y160.72 E1.11701 F6000 ; Print pattern wall
G1 X149.1185 Y181.9332 E1.11701 F6000 ; Print pattern wall
G1 E-2.5 F2700 ; Retract
G1 Z0.55 F7200 ; Z hop
G0 X151.5685 Y139.5068 F7200 ; Move to next pattern
G1 Z0.45 F7200 ; Z hop return
G1 E2.5 F2100 ; Un-retract
SET_PRESSURE_ADVANCE ADVANCE=0.45 ; Set pressure advance
M117 PA 0.45
G1 X172.7817 Y160.72 E1.11701 F6000 ; Print pattern wall
G1 X151.5685 Y181.9332 E1.11701 F6000 ; Print pattern wall
G1 E-2.5 F2700 ; Retract
G1 Z0.55 F7200 ; Z hop
G0 X152.1442 Y139.5068 F7200 ; Move to start next pattern wall
G1 Z0.45 F7200 ; Z hop return
G1 E2.5 F2100 ; Un-retract
G1 X173.3574 Y160.72 E1.11701 F6000 ; Print pattern wall
G1 X152.1442 Y181.9332 E1.11701 F6000 ; Print pattern wall
G1 E-2.5 F2700 ; Retract
G1 Z0.55 F7200 ; Z hop
G0 X152.7199 Y139.5068 F7200 ; Move to start next pattern wall
G1 Z0.45 F7200 ; Z hop return
G1 E2.5 F2100 ; Un-retract
G1 X173.9331 Y160.72 E1.11701 F6000 ; Print pattern wall
G1 X152.7199 Y181.9332 E1.11701 F6000 ; Print pattern wall
G1 E-2.5 F2700 ; Retract
G1 Z0.55 F7200 ; Z hop
G0 X155.1699 Y139.5068 F7200 ; Move to next pattern
G1 Z0.45 F7200 ; Z hop return
G1 E2.5 F2100 ; Un-retract
SET_PRESSURE_ADVANCE ADVANCE=0.5 ; Set pressure advance
M117 PA 0.5
G1 X176.3831 Y160.72 E1.11701 F6000 ; Print pattern wall
G1 X155.1699 Y181.9332 E1.11701 F6000 ; Print pattern wall
G1 E-2.5 F2700 ; Retract
G1 Z0.55 F7200 ; Z hop
G0 X155.7455 Y139.5068 F7200 ; Move to start next pattern wall
G1 Z0.45 F7200 ; Z hop return
G1 E2.5 F2100 ; Un-retract
G1 X176.9588 Y160.72 E1.11701 F6000 ; Print pattern wall
G1 X155.7455 Y181.9332 E1.11701 F6000 ; Print pattern wall
G1 E-2.5 F2700 ; Retract
G1 Z0.55 F7200 ; Z hop
G0 X156.3212 Y139.5068 F7200 ; Move to start next pattern wall
G1 Z0.45 F7200 ; Z hop return
G1 E2.5 F2100 ; Un-retract
G1 X177.5345 Y160.72 E1.11701 F6000 ; Print pattern wall
G1 X156.3212 Y181.9332 E1.11701 F6000 ; Print pattern wall
G1 E-2.5 F2700 ; Retract
G1 Z0.55 F7200 ; Z hop
G0 X158.7712 Y139.5068 F7200 ; Move to next pattern
G1 Z0.45 F7200 ; Z hop return
G1 E2.5 F2100 ; Un-retract
SET_PRESSURE_ADVANCE ADVANCE=0.55 ; Set pressure advance
M117 PA 0.55
G1 X179.9845 Y160.72 E1.11701 F6000 ; Print pattern wall
G1 X158.7712 Y181.9332 E1.11701 F6000 ; Print pattern wall
G1 E-2.5 F2700 ; Retract
G1 Z0.55 F7200 ; Z hop
G0 X159.3469 Y139.5068 F7200 ; Move to start next pattern wall
G1 Z0.45 F7200 ; Z hop return
G1 E2.5 F2100 ; Un-retract
G1 X180.5601 Y160.72 E1.11701 F6000 ; Print pattern wall
G1 X159.3469 Y181.9332 E1.11701 F6000 ; Print pattern wall
G1 E-2.5 F2700 ; Retract
G1 Z0.55 F7200 ; Z hop
G0 X159.9226 Y139.5068 F7200 ; Move to start next pattern wall
G1 Z0.45 F7200 ; Z hop return
G1 E2.5 F2100 ; Un-retract
G1 X181.1358 Y160.72 E1.11701 F6000 ; Print pattern wall
G1 X159.9226 Y181.9332 E1.11701 F6000 ; Print pattern wall
G1 E-2.5 F2700 ; Retract
G1 Z0.55 F7200 ; Z hop
G0 X162.3726 Y139.5068 F7200 ; Move to next pattern
G1 Z0.45 F7200 ; Z hop return
G1 E2.5 F2100 ; Un-retract
SET_PRESSURE_ADVANCE ADVANCE=0.6 ; Set pressure advance
M117 PA 0.6
G1 X183.5858 Y160.72 E1.11701 F6000 ; Print pattern wall
G1 X162.3726 Y181.9332 E1.11701 F6000 ; Print pattern wall
G1 E-2.5 F2700 ; Retract
G1 Z0.55 F7200 ; Z hop
G0 X162.9483 Y139.5068 F7200 ; Move to start next pattern wall
G1 Z0.45 F7200 ; Z hop return
G1 E2.5 F2100 ; Un-retract
G1 X184.1615 Y160.72 E1.11701 F6000 ; Print pattern wall
G1 X162.9483 Y181.9332 E1.11701 F6000 ; Print pattern wall
G1 E-2.5 F2700 ; Retract
G1 Z0.55 F7200 ; Z hop
G0 X163.524 Y139.5068 F7200 ; Move to start next pattern wall
G1 Z0.45 F7200 ; Z hop return
G1 E2.5 F2100 ; Un-retract
G1 X184.7372 Y160.72 E1.11701 F6000 ; Print pattern wall
G1 X163.524 Y181.9332 E1.11701 F6000 ; Print pattern wall
G1 E-2.5 F2700 ; Retract
G1 Z0.55 F7200 ; Z hop
G0 X165.974 Y139.5068 F7200 ; Move to next pattern
G1 Z0.45 F7200 ; Z hop return
G1 E2.5 F2100 ; Un-retract
SET_PRESSURE_ADVANCE ADVANCE=0.65 ; Set pressure advance
M117 PA 0.65
G1 X187.1872 Y160.72 E1.11701 F6000 ; Print pattern wall
G1 X165.974 Y181.9332 E1.11701 F6000 ; Print pattern wall
G1 E-2.5 F2700 ; Retract
G1 Z0.55 F7200 ; Z hop
G0 X166.5497 Y139.5068 F7200 ; Move to start next pattern wall
G1 Z0.45 F7200 ; Z hop return
G1 E2.5 F2100 ; Un-retract
G1 X187.7629 Y160.72 E1.11701 F6000 ; Print pattern wall
G1 X166.5497 Y181.9332 E1.11701 F6000 ; Print pattern wall
G1 E-2.5 F2700 ; Retract
G1 Z0.55 F7200 ; Z hop
G0 X167.1254 Y139.5068 F7200 ; Move to start next pattern wall
G1 Z0.45 F7200 ; Z hop return
G1 E2.5 F2100 ; Un-retract
G1 X188.3386 Y160.72 E1.11701 F6000 ; Print pattern wall
G1 X167.1254 Y181.9332 E1.11701 F6000 ; Print pattern wall
G1 E-2.5 F2700 ; Retract
G1 Z0.55 F7200 ; Z hop
G0 X169.5754 Y139.5068 F7200 ; Move to next pattern
G1 Z0.45 F7200 ; Z hop return
G1 E2.5 F2100 ; Un-retract
SET_PRESSURE_ADVANCE ADVANCE=0.7 ; Set pressure advance
M117 PA 0.7
G1 X190.7886 Y160.72 E1.11701 F6000 ; Print pattern wall
G1 X169.5754 Y181.9332 E1.11701 F6000 ; Print pattern wall
G1 E-2.5 F2700 ; Retract
G1 Z0.55 F7200 ; Z hop
G0 X170.1511 Y139.5068 F7200 ; Move to start next pattern wall
G1 Z0.45 F7200 ; Z hop return
G1 E2.5 F2100 ; Un-retract
G1 X191.3643 Y160.72 E1.11701 F6000 ; Print pattern wall
G1 X170.1511 Y181.9332 E1.11701 F6000 ; Print pattern wall
G1 E-2.5 F2700 ; Retract
G1 Z0.55 F7200 ; Z hop
G0 X170.7268 Y139.5068 F7200 ; Move to start next pattern wall
G1 Z0.45 F7200 ; Z hop return
G1 E2.5 F2100 ; Un-retract
G1 X191.94 Y160.72 E1.11701 F6000 ; Print pattern wall
G1 X170.7268 Y181.9332 E1.11701 F6000 ; Print pattern wall
G1 E-2.5 F2700 ; Retract
G1 Z0.55 F7200 ; Z hop
G0 X173.1768 Y139.5068 F7200 ; Move to next pattern
G1 Z0.45 F7200 ; Z hop return
G1 E2.5 F2100 ; Un-retract
SET_PRESSURE_ADVANCE ADVANCE=0.75 ; Set pressure advance
M117 PA 0.75
G1 X194.39 Y160.72 E1.11701 F6000 ; Print pattern wall
G1 X173.1768 Y181.9332 E1.11701 F6000 ; Print pattern wall
G1 E-2.5 F2700 ; Retract
G1 Z0.55 F7200 ; Z hop
G0 X173.7525 Y139.5068 F7200 ; Move to start next pattern wall
G1 Z0.45 F7200 ; Z hop return
G1 E2.5 F2100 ; Un-retract
G1 X194.9657 Y160.72 E1.11701 F6000 ; Print pattern wall
G1 X173.7525 Y181.9332 E1.11701 F6000 ; Print pattern wall
G1 E-2.5 F2700 ; Retract
G1 Z0.55 F7200 ; Z hop
G0 X174.3282 Y139.5068 F7200 ; Move to start next pattern wall
G1 Z0.45 F7200 ; Z hop return
G1 E2.5 F2100 ; Un-retract
G1 X195.5414 Y160.72 E1.11701 F6000 ; Print pattern wall
G1 X174.3282 Y181.9332 E1.11701 F6000 ; Print pattern wall
G1 E-2.5 F2700 ; Retract
G1 Z0.55 F7200 ; Z hop
G0 X176.7782 Y139.5068 F7200 ; Move to next pattern
G1 Z0.45 F7200 ; Z hop return
G1 E2.5 F2100 ; Un-retract
SET_PRESSURE_ADVANCE ADVANCE=0.8 ; Set pressure advance
M117 PA 0.8
G1 X197.9914 Y160.72 E1.11701 F6000 ; Print pattern wall
G1 X176.7782 Y181.9332 E1.11701 F6000 ; Print pattern wall
G1 E-2.5 F2700 ; Retract
G1 Z0.55 F7200 ; Z hop
G0 X177.3539 Y139.5068 F7200 ; Move to start next pattern wall
G1 Z0.45 F7200 ; Z hop return
G1 E2.5 F2100 ; Un-retract
G1 X198.5671 Y160.72 E1.11701 F6000 ; Print pattern wall
G1 X177.3539 Y181.9332 E1.11701 F6000 ; Print pattern wall
G1 E-2.5 F2700 ; Retract
G1 Z0.55 F7200 ; Z hop
G0 X177.9296 Y139.5068 F7200 ; Move to start next pattern wall
G1 Z0.45 F7200 ; Z hop return
G1 E2.5 F2100 ; Un-retract
G1 X199.1428 Y160.72 E1.11701 F6000 ; Print pattern wall
G1 X177.9296 Y181.9332 E1.11701 F6000 ; Print pattern wall
G1 E-2.5 F2700 ; Retract
G1 Z0.55 F7200 ; Z hop
G0 X180.3796 Y139.5068 F7200 ; Move to next pattern
G1 Z0.45 F7200 ; Z hop return
G1 E2.5 F2100 ; Un-retract
SET_PRESSURE_ADVANCE ADVANCE=0.85 ; Set pressure advance
M117 PA 0.85
G1 X201.5928 Y160.72 E1.11701 F6000 ; Print pattern wall
G1 X180.3796 Y181.9332 E1.11701 F6000 ; Print pattern wall
G1 E-2.5 F2700 ; Retract
G1 Z0.55 F7200 ; Z hop
G0 X180.9553 Y139.5068 F7200 ; Move to start next pattern wall
G1 Z0.45 F7200 ; Z hop return
G1 E2.5 F2100 ; Un-retract
G1 X202.1685 Y160.72 E1.11701 F6000 ; Print pattern wall
G1 X180.9553 Y181.9332 E1.11701 F6000 ; Print pattern wall
G1 E-2.5 F2700 ; Retract
G1 Z0.55 F7200 ; Z hop
G0 X181.531 Y139.5068 F7200 ; Move to start next pattern wall
G1 Z0.45 F7200 ; Z hop return
G1 E2.5 F2100 ; Un-retract
G1 X202.7442 Y160.72 E1.11701 F6000 ; Print pattern wall
G1 X181.531 Y181.9332 E1.11701 F6000 ; Print pattern wall
G1 E-2.5 F2700 ; Retract
G1 Z0.55 F7200 ; Z hop
G0 X183.981 Y139.5068 F7200 ; Move to next pattern
G1 Z0.45 F7200 ; Z hop return
G1 E2.5 F2100 ; Un-retract
SET_PRESSURE_ADVANCE ADVANCE=0.9 ; Set pressure advance
M117 PA 0.9
G1 X205.1942 Y160.72 E1.11701 F6000 ; Print pattern wall
G1 X183.981 Y181.9332 E1.11701 F6000 ; Print pattern wall
G1 E-2.5 F2700 ; Retract
G1 Z0.55 F7200 ; Z hop
G0 X184.5567 Y139.5068 F7200 ; Move to start next pattern wall
G1 Z0.45 F7200 ; Z hop return
G1 E2.5 F2100 ; Un-retract
G1 X205.7699 Y160.72 E1.11701 F6000 ; Print pattern wall
G1 X184.5567 Y181.9332 E1.11701 F6000 ; Print pattern wall
G1 E-2.5 F2700 ; Retract
G1 Z0.55 F7200 ; Z hop
G0 X185.1324 Y139.5068 F7200 ; Move to start next pattern wall
G1 Z0.45 F7200 ; Z hop return
G1 E2.5 F2100 ; Un-retract
G1 X206.3456 Y160.72 E1.11701 F6000 ; Print pattern wall
G1 X185.1324 Y181.9332 E1.11701 F6000 ; Print pattern wall
G1 E-2.5 F2700 ; Retract
G1 Z0.55 F7200 ; Z hop
G0 X187.5824 Y139.5068 F7200 ; Move to next pattern
G1 Z0.45 F7200 ; Z hop return
G1 E2.5 F2100 ; Un-retract
SET_PRESSURE_ADVANCE ADVANCE=0.95 ; Set pressure advance
M117 PA 0.95
G1 X208.7956 Y160.72 E1.11701 F6000 ; Print pattern wall
G1 X187.5824 Y181.9332 E1.11701 F6000 ; Print pattern wall
G1 E-2.5 F2700 ; Retract
G1 Z0.55 F7200 ; Z hop
G0 X188.1581 Y139.5068 F7200 ; Move to start next pattern wall
G1 Z0.45 F7200 ; Z hop return
G1 E2.5 F2100 ; Un-retract
G1 X209.3713 Y160.72 E1.11701 F6000 ; Print pattern wall
G1 X188.1581 Y181.9332 E1.11701 F6000 ; Print pattern wall
G1 E-2.5 F2700 ; Retract
G1 Z0.55 F7200 ; Z hop
G0 X188.7338 Y139.5068 F7200 ; Move to start next pattern wall
G1 Z0.45 F7200 ; Z hop return
G1 E2.5 F2100 ; Un-retract
G1 X209.947 Y160.72 E1.11701 F6000 ; Print pattern wall
G1 X188.7338 Y181.9332 E1.11701 F6000 ; Print pattern wall
G1 E-2.5 F2700 ; Retract
G1 Z0.55 F7200 ; Z hop
G0 X191.1838 Y139.5068 F7200 ; Move to next pattern
G1 Z0.45 F7200 ; Z hop return
G1 E2.5 F2100 ; Un-retract
SET_PRESSURE_ADVANCE ADVANCE=1 ; Set pressure advance
M117 PA 1
G1 X212.397 Y160.72 E1.11701 F6000 ; Print pattern wall
G1 X191.1838 Y181.9332 E1.11701 F6000 ; Print pattern wall
G1 E-2.5 F2700 ; Retract
G1 Z0.55 F7200 ; Z hop
G0 X191.7595 Y139.5068 F7200 ; Move to start next pattern wall
G1 Z0.45 F7200 ; Z hop return
G1 E2.5 F2100 ; Un-retract
G1 X212.9727 Y160.72 E1.11701 F6000 ; Print pattern wall
G1 X191.7595 Y181.9332 E1.11701 F6000 ; Print pattern wall
G1 E-2.5 F2700 ; Retract
G1 Z0.55 F7200 ; Z hop
G0 X192.3352 Y139.5068 F7200 ; Move to start next pattern wall
G1 Z0.45 F7200 ; Z hop return
G1 E2.5 F2100 ; Un-retract
G1 X213.5484 Y160.72 E1.11701 F6000 ; Print pattern wall
G1 X192.3352 Y181.9332 E1.11701 F6000 ; Print pattern wall
G1 E-2.5 F2700 ; Retract
G1 Z0.55 F7200 ; Z hop
G0 X119.1559 Y139.5068 F7200 ; Move back to start position
G1 Z0.45 F7200 ; Z hop return
G1 E2.5 F2100 ; Un-retract
G0 Z0.65 F7200 ; Move to layer height
SET_PRESSURE_ADVANCE ADVANCE=0 ; Set pressure advance
M117 PA 0
G1 X140.3691 Y160.72 E1.11701 F6000 ; Print pattern wall
G1 X119.1559 Y181.9332 E1.11701 F6000 ; Print pattern wall
G1 E-2.5 F2700 ; Retract
G1 Z0.75 F7200 ; Z hop
G0 X119.7316 Y139.5068 F7200 ; Move to start next pattern wall
G1 Z0.65 F7200 ; Z hop return
G1 E2.5 F2100 ; Un-retract
G1 X140.9448 Y160.72 E1.11701 F6000 ; Print pattern wall
G1 X119.7316 Y181.9332 E1.11701 F6000 ; Print pattern wall
G1 E-2.5 F2700 ; Retract
G1 Z0.75 F7200 ; Z hop
G0 X120.3073 Y139.5068 F7200 ; Move to start next pattern wall
G1 Z0.65 F7200 ; Z hop return
G1 E2.5 F2100 ; Un-retract
G1 X141.5205 Y160.72 E1.11701 F6000 ; Print pattern wall
G1 X120.3073 Y181.9332 E1.11701 F6000 ; Print pattern wall
G1 E-2.5 F2700 ; Retract
G1 Z0.75 F7200 ; Z hop
G0 X122.7573 Y139.5068 F7200 ; Move to next pattern
G1 Z0.65 F7200 ; Z hop return
G1 E2.5 F2100 ; Un-retract
SET_PRESSURE_ADVANCE ADVANCE=0.05 ; Set pressure advance
M117 PA 0.05
G1 X143.9705 Y160.72 E1.11701 F6000 ; Print pattern wall
G1 X122.7573 Y181.9332 E1.11701 F6000 ; Print pattern wall
G1 E-2.5 F2700 ; Retract
G1 Z0.75 F7200 ; Z hop
G0 X123.333 Y139.5068 F7200 ; Move to start next pattern wall
G1 Z0.65 F7200 ; Z hop return
G1 E2.5 F2100 ; Un-retract
G1 X144.5462 Y160.72 E1.11701 F6000 ; Print pattern wall
G1 X123.333 Y181.9332 E1.11701 F6000 ; Print pattern wall
G1 E-2.5 F2700 ; Retract
G1 Z0.75 F7200 ; Z hop
G0 X123.9087 Y139.5068 F7200 ; Move to start next pattern wall
G1 Z0.65 F7200 ; Z hop return
G1 E2.5 F2100 ; Un-retract
G1 X145.1219 Y160.72 E1.11701 F6000 ; Print pattern wall
G1 X123.9087 Y181.9332 E1.11701 F6000 ; Print pattern wall
G1 E-2.5 F2700 ; Retract
G1 Z0.75 F7200 ; Z hop
G0 X126.3587 Y139.5068 F7200 ; Move to next pattern
G1 Z0.65 F7200 ; Z hop return
G1 E2.5 F2100 ; Un-retract
SET_PRESSURE_ADVANCE ADVANCE=0.1 ; Set pressure advance
M117 PA 0.1
G1 X147.5719 Y160.72 E1.11701 F6000 ; Print pattern wall
G1 X126.3587 Y181.9332 E1.11701 F6000 ; Print pattern wall
G1 E-2.5 F2700 ; Retract
G1 Z0.75 F7200 ; Z hop
G0 X126.9344 Y139.5068 F7200 ; Move to start next pattern wall
G1 Z0.65 F7200 ; Z hop return
G1 E2.5 F2100 ; Un-retract
G1 X148.1476 Y160.72 E1.11701 F6000 ; Print pattern wall
G1 X126.9344 Y181.9332 E1.11701 F6000 ; Print pattern wall
G1 E-2.5 F2700 ; Retract
G1 Z0.75 F7200 ; Z hop
G0 X127.5101 Y139.5068 F7200 ; Move to start next pattern wall
G1 Z0.65 F7200 ; Z hop return
G1 E2.5 F2100 ; Un-retract
G1 X148.7233 Y160.72 E1.11701 F6000 ; Print pattern wall
G1 X127.5101 Y181.9332 E1.11701 F6000 ; Print pattern wall
G1 E-2.5 F2700 ; Retract
G1 Z0.75 F7200 ; Z hop
G0 X129.9601 Y139.5068 F7200 ; Move to next pattern
G1 Z0.65 F7200 ; Z hop return
G1 E2.5 F2100 ; Un-retract
SET_PRESSURE_ADVANCE ADVANCE=0.15 ; Set pressure advance
M117 PA 0.15
G1 X151.1733 Y160.72 E1.11701 F6000 ; Print pattern wall
G1 X129.9601 Y181.9332 E1.11701 F6000 ; Print pattern wall
G1 E-2.5 F2700 ; Retract
G1 Z0.75 F7200 ; Z hop
G0 X130.5358 Y139.5068 F7200 ; Move to start next pattern wall
G1 Z0.65 F7200 ; Z hop return
G1 E2.5 F2100 ; Un-retract
G1 X151.749 Y160.72 E1.11701 F6000 ; Print pattern wall
G1 X130.5358 Y181.9332 E1.11701 F6000 ; Print pattern wall
G1 E-2.5 F2700 ; Retract
G1 Z0.75 F7200 ; Z hop
G0 X131.1115 Y139.5068 F7200 ; Move to start next pattern wall
G1 Z0.65 F7200 ; Z hop return
G1 E2.5 F2100 ; Un-retract
G1 X152.3247 Y160.72 E1.11701 F6000 ; Print pattern wall
G1 X131.1115 Y181.9332 E1.11701 F6000 ; Print pattern wall
G1 E-2.5 F2700 ; Retract
G1 Z0.75 F7200 ; Z hop
G0 X133.5615 Y139.5068 F7200 ; Move to next pattern
G1 Z0.65 F7200 ; Z hop return
G1 E2.5 F2100 ; Un-retract
SET_PRESSURE_ADVANCE ADVANCE=0.2 ; Set pressure advance
M117 PA 0.2
G1 X154.7747 Y160.72 E1.11701 F6000 ; Print pattern wall
G1 X133.5615 Y181.9332 E1.11701 F6000 ; Print pattern wall
G1 E-2.5 F2700 ; Retract
G1 Z0.75 F7200 ; Z hop
G0 X134.1372 Y139.5068 F7200 ; Move to start next pattern wall
G1 Z0.65 F7200 ; Z hop return
G1 E2.5 F2100 ; Un-retract
G1 X155.3504 Y160.72 E1.11701 F6000 ; Print pattern wall
G1 X134.1372 Y181.9332 E1.11701 F6000 ; Print pattern wall
G1 E-2.5 F2700 ; Retract
G1 Z0.75 F7200 ; Z hop
G0 X134.7129 Y139.5068 F7200 ; Move to start next pattern wall
G1 Z0.65 F7200 ; Z hop return
G1 E2.5 F2100 ; Un-retract
G1 X155.9261 Y160.72 E1.11701 F6000 ; Print pattern wall
G1 X134.7129 Y181.9332 E1.11701 F6000 ; Print pattern wall
G1 E-2.5 F2700 ; Retract
G1 Z0.75 F7200 ; Z hop
G0 X137.1629 Y139.5068 F7200 ; Move to next pattern
G1 Z0.65 F7200 ; Z hop return
G1 E2.5 F2100 ; Un-retract
SET_PRESSURE_ADVANCE ADVANCE=0.25 ; Set pressure advance
M117 PA 0.25
G1 X158.3761 Y160.72 E1.11701 F6000 ; Print pattern wall
G1 X137.1629 Y181.9332 E1.11701 F6000 ; Print pattern wall
G1 E-2.5 F2700 ; Retract
G1 Z0.75 F7200 ; Z hop
G0 X137.7386 Y139.5068 F7200 ; Move to start next pattern wall
G1 Z0.65 F7200 ; Z hop return
G1 E2.5 F2100 ; Un-retract
G1 X158.9518 Y160.72 E1.11701 F6000 ; Print pattern wall
G1 X137.7386 Y181.9332 E1.11701 F6000 ; Print pattern wall
G1 E-2.5 F2700 ; Retract
G1 Z0.75 F7200 ; Z hop
G0 X138.3143 Y139.5068 F7200 ; Move to start next pattern wall
G1 Z0.65 F7200 ; Z hop return
G1 E2.5 F2100 ; Un-retract
G1 X159.5275 Y160.72 E1.11701 F6000 ; Print pattern wall
G1 X138.3143 Y181.9332 E1.11701 F6000 ; Print pattern wall
G1 E-2.5 F2700 ; Retract
G1 Z0.75 F7200 ; Z hop
G0 X140.7643 Y139.5068 F7200 ; Move to next pattern
G1 Z0.65 F7200 ; Z hop return
G1 E2.5 F2100 ; Un-retract
SET_PRESSURE_ADVANCE ADVANCE=0.3 ; Set pressure advance
M117 PA 0.3
G1 X161.9775 Y160.72 E1.11701 F6000 ; Print pattern wall
G1 X140.7643 Y181.9332 E1.11701 F6000 ; Print pattern wall
G1 E-2.5 F2700 ; Retract
G1 Z0.75 F7200 ; Z hop
G0 X141.34 Y139.5068 F7200 ; Move to start next pattern wall
G1 Z0.65 F7200 ; Z hop return
G1 E2.5 F2100 ; Un-retract
G1 X162.5532 Y160.72 E1.11701 F6000 ; Print pattern wall
G1 X141.34 Y181.9332 E1.11701 F6000 ; Print pattern wall
G1 E-2.5 F2700 ; Retract
G1 Z0.75 F7200 ; Z hop
G0 X141.9157 Y139.5068 F7200 ; Move to start next pattern wall
G1 Z0.65 F7200 ; Z hop return
G1 E2.5 F2100 ; Un-retract
G1 X163.1289 Y160.72 E1.11701 F6000 ; Print pattern wall
G1 X141.9157 Y181.9332 E1.11701 F6000 ; Print pattern wall
G1 E-2.5 F2700 ; Retract
G1 Z0.75 F7200 ; Z hop
G0 X144.3657 Y139.5068 F7200 ; Move to next pattern
G1 Z0.65 F7200 ; Z hop return
G1 E2.5 F2100 ; Un-retract
SET_PRESSURE_ADVANCE ADVANCE=0.35 ; Set pressure advance
M117 PA 0.35
G1 X165.5789 Y160.72 E1.11701 F6000 ; Print pattern wall
G1 X144.3657 Y181.9332 E1.11701 F6000 ; Print pattern wall
G1 E-2.5 F2700 ; Retract
G1 Z0.75 F7200 ; Z hop
G0 X144.9414 Y139.5068 F7200 ; Move to start next pattern wall
G1 Z0.65 F7200 ; Z hop return
G1 E2.5 F2100 ; Un-retract
G1 X166.1546 Y160.72 E1.11701 F6000 ; Print pattern wall
G1 X144.9414 Y181.9332 E1.11701 F6000 ; Print pattern wall
G1 E-2.5 F2700 ; Retract
G1 Z0.75 F7200 ; Z hop
G0 X145.5171 Y139.5068 F7200 ; Move to start next pattern wall
G1 Z0.65 F7200 ; Z hop return
G1 E2.5 F2100 ; Un-retract
G1 X166.7303 Y160.72 E1.11701 F6000 ; Print pattern wall
G1 X145.5171 Y181.9332 E1.11701 F6000 ; Print pattern wall
G1 E-2.5 F2700 ; Retract
G1 Z0.75 F7200 ; Z hop
G0 X147.9671 Y139.5068 F7200 ; Move to next pattern
G1 Z0.65 F7200 ; Z hop return
G1 E2.5 F2100 ; Un-retract
SET_PRESSURE_ADVANCE ADVANCE=0.4 ; Set pressure advance
M117 PA 0.4
G1 X169.1803 Y160.72 E1.11701 F6000 ; Print pattern wall
G1 X147.9671 Y181.9332 E1.11701 F6000 ; Print pattern wall
G1 E-2.5 F2700 ; Retract
G1 Z0.75 F7200 ; Z hop
G0 X148.5428 Y139.5068 F7200 ; Move to start next pattern wall
G1 Z0.65 F7200 ; Z hop return
G1 E2.5 F2100 ; Un-retract
G1 X169.756 Y160.72 E1.11701 F6000 ; Print pattern wall
G1 X148.5428 Y181.9332 E1.11701 F6000 ; Print pattern wall
G1 E-2.5 F2700 ; Retract
G1 Z0.75 F7200 ; Z hop
G0 X149.1185 Y139.5068 F7200 ; Move to start next pattern wall
G1 Z0.65 F7200 ; Z hop return
G1 E2.5 F2100 ; Un-retract
G1 X170.3317 Y160.72 E1.11701 F6000 ; Print pattern wall
G1 X149.1185 Y181.9332 E1.11701 F6000 ; Print pattern wall
G1 E-2.5 F2700 ; Retract
G1 Z0.75 F7200 ; Z hop
G0 X151.5685 Y139.5068 F7200 ; Move to next pattern
G1 Z0.65 F7200 ; Z hop return
G1 E2.5 F2100 ; Un-retract
SET_PRESSURE_ADVANCE ADVANCE=0.45 ; Set pressure advance
M117 PA 0.45
G1 X172.7817 Y160.72 E1.11701 F6000 ; Print pattern wall
G1 X151.5685 Y181.9332 E1.11701 F6000 ; Print pattern wall
G1 E-2.5 F2700 ; Retract
G1 Z0.75 F7200 ; Z hop
G0 X152.1442 Y139.5068 F7200 ; Move to start next pattern wall
G1 Z0.65 F7200 ; Z hop return
G1 E2.5 F2100 ; Un-retract
G1 X173.3574 Y160.72 E1.11701 F6000 ; Print pattern wall
G1 X152.1442 Y181.9332 E1.11701 F6000 ; Print pattern wall
G1 E-2.5 F2700 ; Retract
G1 Z0.75 F7200 ; Z hop
G0 X152.7199 Y139.5068 F7200 ; Move to start next pattern wall
G1 Z0.65 F7200 ; Z hop return
G1 E2.5 F2100 ; Un-retract
G1 X173.9331 Y160.72 E1.11701 F6000 ; Print pattern wall
G1 X152.7199 Y181.9332 E1.11701 F6000 ; Print pattern wall
G1 E-2.5 F2700 ; Retract
G1 Z0.75 F7200 ; Z hop
G0 X155.1699 Y139.5068 F7200 ; Move to next pattern
G1 Z0.65 F7200 ; Z hop return
G1 E2.5 F2100 ; Un-retract
SET_PRESSURE_ADVANCE ADVANCE=0.5 ; Set pressure advance
M117 PA 0.5
G1 X176.3831 Y160.72 E1.11701 F6000 ; Print pattern wall
G1 X155.1699 Y181.9332 E1.11701 F6000 ; Print pattern wall
G1 E-2.5 F2700 ; Retract
G1 Z0.75 F7200 ; Z hop
G0 X155.7455 Y139.5068 F7200 ; Move to start next pattern wall
G1 Z0.65 F7200 ; Z hop return
G1 E2.5 F2100 ; Un-retract
G1 X176.9588 Y160.72 E1.11701 F6000 ; Print pattern wall
G1 X155.7455 Y181.9332 E1.11701 F6000 ; Print pattern wall
G1 E-2.5 F2700 ; Retract
G1 Z0.75 F7200 ; Z hop
G0 X156.3212 Y139.5068 F7200 ; Move to start next pattern wall
G1 Z0.65 F7200 ; Z hop return
G1 E2.5 F2100 ; Un-retract
G1 X177.5345 Y160.72 E1.11701 F6000 ; Print pattern wall
G1 X156.3212 Y181.9332 E1.11701 F6000 ; Print pattern wall
G1 E-2.5 F2700 ; Retract
G1 Z0.75 F7200 ; Z hop
G0 X158.7712 Y139.5068 F7200 ; Move to next pattern
G1 Z0.65 F7200 ; Z hop return
G1 E2.5 F2100 ; Un-retract
SET_PRESSURE_ADVANCE ADVANCE=0.55 ; Set pressure advance
M117 PA 0.55
G1 X179.9845 Y160.72 E1.11701 F6000 ; Print pattern wall
G1 X158.7712 Y181.9332 E1.11701 F6000 ; Print pattern wall
G1 E-2.5 F2700 ; Retract
G1 Z0.75 F7200 ; Z hop
G0 X159.3469 Y139.5068 F7200 ; Move to start next pattern wall
G1 Z0.65 F7200 ; Z hop return
G1 E2.5 F2100 ; Un-retract
G1 X180.5601 Y160.72 E1.11701 F6000 ; Print pattern wall
G1 X159.3469 Y181.9332 E1.11701 F6000 ; Print pattern wall
G1 E-2.5 F2700 ; Retract
G1 Z0.75 F7200 ; Z hop
G0 X159.9226 Y139.5068 F7200 ; Move to start next pattern wall
G1 Z0.65 F7200 ; Z hop return
G1 E2.5 F2100 ; Un-retract
G1 X181.1358 Y160.72 E1.11701 F6000 ; Print pattern wall
G1 X159.9226 Y181.9332 E1.11701 F6000 ; Print pattern wall
G1 E-2.5 F2700 ; Retract
G1 Z0.75 F7200 ; Z hop
G0 X162.3726 Y139.5068 F7200 ; Move to next pattern
G1 Z0.65 F7200 ; Z hop return
G1 E2.5 F2100 ; Un-retract
SET_PRESSURE_ADVANCE ADVANCE=0.6 ; Set pressure advance
M117 PA 0.6
G1 X183.5858 Y160.72 E1.11701 F6000 ; Print pattern wall
G1 X162.3726 Y181.9332 E1.11701 F6000 ; Print pattern wall
G1 E-2.5 F2700 ; Retract
G1 Z0.75 F7200 ; Z hop
G0 X162.9483 Y139.5068 F7200 ; Move to start next pattern wall
G1 Z0.65 F7200 ; Z hop return
G1 E2.5 F2100 ; Un-retract
G1 X184.1615 Y160.72 E1.11701 F6000 ; Print pattern wall
G1 X162.9483 Y181.9332 E1.11701 F6000 ; Print pattern wall
G1 E-2.5 F2700 ; Retract
G1 Z0.75 F7200 ; Z hop
G0 X163.524 Y139.5068 F7200 ; Move to start next pattern wall
G1 Z0.65 F7200 ; Z hop return
G1 E2.5 F2100 ; Un-retract
G1 X184.7372 Y160.72 E1.11701 F6000 ; Print pattern wall
G1 X163.524 Y181.9332 E1.11701 F6000 ; Print pattern wall
G1 E-2.5 F2700 ; Retract
G1 Z0.75 F7200 ; Z hop
G0 X165.974 Y139.5068 F7200 ; Move to next pattern
G1 Z0.65 F7200 ; Z hop return
G1 E2.5 F2100 ; Un-retract
SET_PRESSURE_ADVANCE ADVANCE=0.65 ; Set pressure advance
M117 PA 0.65
G1 X187.1872 Y160.72 E1.11701 F6000 ; Print pattern wall
G1 X165.974 Y181.9332 E1.11701 F6000 ; Print pattern wall
G1 E-2.5 F2700 ; Retract
G1 Z0.75 F7200 ; Z hop
G0 X166.5497 Y139.5068 F7200 ; Move to start next pattern wall
G1 Z0.65 F7200 ; Z hop return
G1 E2.5 F2100 ; Un-retract
G1 X187.7629 Y160.72 E1.11701 F6000 ; Print pattern wall
G1 X166.5497 Y181.9332 E1.11701 F6000 ; Print pattern wall
G1 E-2.5 F2700 ; Retract
G1 Z0.75 F7200 ; Z hop
G0 X167.1254 Y139.5068 F7200 ; Move to start next pattern wall
G1 Z0.65 F7200 ; Z hop return
G1 E2.5 F2100 ; Un-retract
G1 X188.3386 Y160.72 E1.11701 F6000 ; Print pattern wall
G1 X167.1254 Y181.9332 E1.11701 F6000 ; Print pattern wall
G1 E-2.5 F2700 ; Retract
G1 Z0.75 F7200 ; Z hop
G0 X169.5754 Y139.5068 F7200 ; Move to next pattern
G1 Z0.65 F7200 ; Z hop return
G1 E2.5 F2100 ; Un-retract
SET_PRESSURE_ADVANCE ADVANCE=0.7 ; Set pressure advance
M117 PA 0.7
G1 X190.7886 Y160.72 E1.11701 F6000 ; Print pattern wall
G1 X169.5754 Y181.9332 E1.11701 F6000 ; Print pattern wall
G1 E-2.5 F2700 ; Retract
G1 Z0.75 F7200 ; Z hop
G0 X170.1511 Y139.5068 F7200 ; Move to start next pattern wall
G1 Z0.65 F7200 ; Z hop return
G1 E2.5 F2100 ; Un-retract
G1 X191.3643 Y160.72 E1.11701 F6000 ; Print pattern wall
G1 X170.1511 Y181.9332 E1.11701 F6000 ; Print pattern wall
G1 E-2.5 F2700 ; Retract
G1 Z0.75 F7200 ; Z hop
G0 X170.7268 Y139.5068 F7200 ; Move to start next pattern wall
G1 Z0.65 F7200 ; Z hop return
G1 E2.5 F2100 ; Un-retract
G1 X191.94 Y160.72 E1.11701 F6000 ; Print pattern wall
G1 X170.7268 Y181.9332 E1.11701 F6000 ; Print pattern wall
G1 E-2.5 F2700 ; Retract
G1 Z0.75 F7200 ; Z hop
G0 X173.1768 Y139.5068 F7200 ; Move to next pattern
G1 Z0.65 F7200 ; Z hop return
G1 E2.5 F2100 ; Un-retract
SET_PRESSURE_ADVANCE ADVANCE=0.75 ; Set pressure advance
M117 PA 0.75
G1 X194.39 Y160.72 E1.11701 F6000 ; Print pattern wall
G1 X173.1768 Y181.9332 E1.11701 F6000 ; Print pattern wall
G1 E-2.5 F2700 ; Retract
G1 Z0.75 F7200 ; Z hop
G0 X173.7525 Y139.5068 F7200 ; Move to start next pattern wall
G1 Z0.65 F7200 ; Z hop return
G1 E2.5 F2100 ; Un-retract
G1 X194.9657 Y160.72 E1.11701 F6000 ; Print pattern wall
G1 X173.7525 Y181.9332 E1.11701 F6000 ; Print pattern wall
G1 E-2.5 F2700 ; Retract
G1 Z0.75 F7200 ; Z hop
G0 X174.3282 Y139.5068 F7200 ; Move to start next pattern wall
G1 Z0.65 F7200 ; Z hop return
G1 E2.5 F2100 ; Un-retract
G1 X195.5414 Y160.72 E1.11701 F6000 ; Print pattern wall
G1 X174.3282 Y181.9332 E1.11701 F6000 ; Print pattern wall
G1 E-2.5 F2700 ; Retract
G1 Z0.75 F7200 ; Z hop
G0 X176.7782 Y139.5068 F7200 ; Move to next pattern
G1 Z0.65 F7200 ; Z hop return
G1 E2.5 F2100 ; Un-retract
SET_PRESSURE_ADVANCE ADVANCE=0.8 ; Set pressure advance
M117 PA 0.8
G1 X197.9914 Y160.72 E1.11701 F6000 ; Print pattern wall
G1 X176.7782 Y181.9332 E1.11701 F6000 ; Print pattern wall
G1 E-2.5 F2700 ; Retract
G1 Z0.75 F7200 ; Z hop
G0 X177.3539 Y139.5068 F7200 ; Move to start next pattern wall
G1 Z0.65 F7200 ; Z hop return
G1 E2.5 F2100 ; Un-retract
G1 X198.5671 Y160.72 E1.11701 F6000 ; Print pattern wall
G1 X177.3539 Y181.9332 E1.11701 F6000 ; Print pattern wall
G1 E-2.5 F2700 ; Retract
G1 Z0.75 F7200 ; Z hop
G0 X177.9296 Y139.5068 F7200 ; Move to start next pattern wall
G1 Z0.65 F7200 ; Z hop return
G1 E2.5 F2100 ; Un-retract
G1 X199.1428 Y160.72 E1.11701 F6000 ; Print pattern wall
G1 X177.9296 Y181.9332 E1.11701 F6000 ; Print pattern wall
G1 E-2.5 F2700 ; Retract
G1 Z0.75 F7200 ; Z hop
G0 X180.3796 Y139.5068 F7200 ; Move to next pattern
G1 Z0.65 F7200 ; Z hop return
G1 E2.5 F2100 ; Un-retract
SET_PRESSURE_ADVANCE ADVANCE=0.85 ; Set pressure advance
M117 PA 0.85
G1 X201.5928 Y160.72 E1.11701 F6000 ; Print pattern wall
G1 X180.3796 Y181.9332 E1.11701 F6000 ; Print pattern wall
G1 E-2.5 F2700 ; Retract
G1 Z0.75 F7200 ; Z hop
G0 X180.9553 Y139.5068 F7200 ; Move to start next pattern wall
G1 Z0.65 F7200 ; Z hop return
G1 E2.5 F2100 ; Un-retract
G1 X202.1685 Y160.72 E1.11701 F6000 ; Print pattern wall
G1 X180.9553 Y181.9332 E1.11701 F6000 ; Print pattern wall
G1 E-2.5 F2700 ; Retract
G1 Z0.75 F7200 ; Z hop
G0 X181.531 Y139.5068 F7200 ; Move to start next pattern wall
G1 Z0.65 F7200 ; Z hop return
G1 E2.5 F2100 ; Un-retract
G1 X202.7442 Y160.72 E1.11701 F6000 ; Print pattern wall
G1 X181.531 Y181.9332 E1.11701 F6000 ; Print pattern wall
G1 E-2.5 F2700 ; Retract
G1 Z0.75 F7200 ; Z hop
G0 X183.981 Y139.5068 F7200 ; Move to next pattern
G1 Z0.65 F7200 ; Z hop return
G1 E2.5 F2100 ; Un-retract
SET_PRESSURE_ADVANCE ADVANCE=0.9 ; Set pressure advance
M117 PA 0.9
G1 X205.1942 Y160.72 E1.11701 F6000 ; Print pattern wall
G1 X183.981 Y181.9332 E1.11701 F6000 ; Print pattern wall
G1 E-2.5 F2700 ; Retract
G1 Z0.75 F7200 ; Z hop
G0 X184.5567 Y139.5068 F7200 ; Move to start next pattern wall
G1 Z0.65 F7200 ; Z hop return
G1 E2.5 F2100 ; Un-retract
G1 X205.7699 Y160.72 E1.11701 F6000 ; Print pattern wall
G1 X184.5567 Y181.9332 E1.11701 F6000 ; Print pattern wall
G1 E-2.5 F2700 ; Retract
G1 Z0.75 F7200 ; Z hop
G0 X185.1324 Y139.5068 F7200 ; Move to start next pattern wall
G1 Z0.65 F7200 ; Z hop return
G1 E2.5 F2100 ; Un-retract
G1 X206.3456 Y160.72 E1.11701 F6000 ; Print pattern wall
G1 X185.1324 Y181.9332 E1.11701 F6000 ; Print pattern wall
G1 E-2.5 F2700 ; Retract
G1 Z0.75 F7200 ; Z hop
G0 X187.5824 Y139.5068 F7200 ; Move to next pattern
G1 Z0.65 F7200 ; Z hop return
G1 E2.5 F2100 ; Un-retract
SET_PRESSURE_ADVANCE ADVANCE=0.95 ; Set pressure advance
M117 PA 0.95
G1 X208.7956 Y160.72 E1.11701 F6000 ; Print pattern wall
G1 X187.5824 Y181.9332 E1.11701 F6000 ; Print pattern wall
G1 E-2.5 F2700 ; Retract
G1 Z0.75 F7200 ; Z hop
G0 X188.1581 Y139.5068 F7200 ; Move to start next pattern wall
G1 Z0.65 F7200 ; Z hop return
G1 E2.5 F2100 ; Un-retract
G1 X209.3713 Y160.72 E1.11701 F6000 ; Print pattern wall
G1 X188.1581 Y181.9332 E1.11701 F6000 ; Print pattern wall
G1 E-2.5 F2700 ; Retract
G1 Z0.75 F7200 ; Z hop
G0 X188.7338 Y139.5068 F7200 ; Move to start next pattern wall
G1 Z0.65 F7200 ; Z hop return
G1 E2.5 F2100 ; Un-retract
G1 X209.947 Y160.72 E1.11701 F6000 ; Print pattern wall
G1 X188.7338 Y181.9332 E1.11701 F6000 ; Print pattern wall
G1 E-2.5 F2700 ; Retract
G1 Z0.75 F7200 ; Z hop
G0 X191.1838 Y139.5068 F7200 ; Move to next pattern
G1 Z0.65 F7200 ; Z hop return
G1 E2.5 F2100 ; Un-retract
SET_PRESSURE_ADVANCE ADVANCE=1 ; Set pressure advance
M117 PA 1
G1 X212.397 Y160.72 E1.11701 F6000 ; Print pattern wall
G1 X191.1838 Y181.9332 E1.11701 F6000 ; Print pattern wall
G1 E-2.5 F2700 ; Retract
G1 Z0.75 F7200 ; Z hop
G0 X191.7595 Y139.5068 F7200 ; Move to start next pattern wall
G1 Z0.65 F7200 ; Z hop return
G1 E2.5 F2100 ; Un-retract
G1 X212.9727 Y160.72 E1.11701 F6000 ; Print pattern wall
G1 X191.7595 Y181.9332 E1.11701 F6000 ; Print pattern wall
G1 E-2.5 F2700 ; Retract
G1 Z0.75 F7200 ; Z hop
G0 X192.3352 Y139.5068 F7200 ; Move to start next pattern wall
G1 Z0.65 F7200 ; Z hop return
G1 E2.5 F2100 ; Un-retract
G1 X213.5484 Y160.72 E1.11701 F6000 ; Print pattern wall
G1 X192.3352 Y181.9332 E1.11701 F6000 ; Print pattern wall
G1 E-2.5 F2700 ; Retract
G1 Z0.75 F7200 ; Z hop
G0 X119.1559 Y139.5068 F7200 ; Move back to start position
G1 Z0.65 F7200 ; Z hop return
G1 E2.5 F2100 ; Un-retract
G0 Z0.85 F7200 ; Move to layer height
SET_PRESSURE_ADVANCE ADVANCE=0 ; Set pressure advance
M117 PA 0
G1 X140.3691 Y160.72 E1.11701 F6000 ; Print pattern wall
G1 X119.1559 Y181.9332 E1.11701 F6000 ; Print pattern wall
G1 E-2.5 F2700 ; Retract
G1 Z0.95 F7200 ; Z hop
G0 X119.7316 Y139.5068 F7200 ; Move to start next pattern wall
G1 Z0.85 F7200 ; Z hop return
G1 E2.5 F2100 ; Un-retract
G1 X140.9448 Y160.72 E1.11701 F6000 ; Print pattern wall
G1 X119.7316 Y181.9332 E1.11701 F6000 ; Print pattern wall
G1 E-2.5 F2700 ; Retract
G1 Z0.95 F7200 ; Z hop
G0 X120.3073 Y139.5068 F7200 ; Move to start next pattern wall
G1 Z0.85 F7200 ; Z hop return
G1 E2.5 F2100 ; Un-retract
G1 X141.5205 Y160.72 E1.11701 F6000 ; Print pattern wall
G1 X120.3073 Y181.9332 E1.11701 F6000 ; Print pattern wall
G1 E-2.5 F2700 ; Retract
G1 Z0.95 F7200 ; Z hop
G0 X122.7573 Y139.5068 F7200 ; Move to next pattern
G1 Z0.85 F7200 ; Z hop return
G1 E2.5 F2100 ; Un-retract
SET_PRESSURE_ADVANCE ADVANCE=0.05 ; Set pressure advance
M117 PA 0.05
G1 X143.9705 Y160.72 E1.11701 F6000 ; Print pattern wall
G1 X122.7573 Y181.9332 E1.11701 F6000 ; Print pattern wall
G1 E-2.5 F2700 ; Retract
G1 Z0.95 F7200 ; Z hop
G0 X123.333 Y139.5068 F7200 ; Move to start next pattern wall
G1 Z0.85 F7200 ; Z hop return
G1 E2.5 F2100 ; Un-retract
G1 X144.5462 Y160.72 E1.11701 F6000 ; Print pattern wall
G1 X123.333 Y181.9332 E1.11701 F6000 ; Print pattern wall
G1 E-2.5 F2700 ; Retract
G1 Z0.95 F7200 ; Z hop
G0 X123.9087 Y139.5068 F7200 ; Move to start next pattern wall
G1 Z0.85 F7200 ; Z hop return
G1 E2.5 F2100 ; Un-retract
G1 X145.1219 Y160.72 E1.11701 F6000 ; Print pattern wall
G1 X123.9087 Y181.9332 E1.11701 F6000 ; Print pattern wall
G1 E-2.5 F2700 ; Retract
G1 Z0.95 F7200 ; Z hop
G0 X126.3587 Y139.5068 F7200 ; Move to next pattern
G1 Z0.85 F7200 ; Z hop return
G1 E2.5 F2100 ; Un-retract
SET_PRESSURE_ADVANCE ADVANCE=0.1 ; Set pressure advance
M117 PA 0.1
G1 X147.5719 Y160.72 E1.11701 F6000 ; Print pattern wall
G1 X126.3587 Y181.9332 E1.11701 F6000 ; Print pattern wall
G1 E-2.5 F2700 ; Retract
G1 Z0.95 F7200 ; Z hop
G0 X126.9344 Y139.5068 F7200 ; Move to start next pattern wall
G1 Z0.85 F7200 ; Z hop return
G1 E2.5 F2100 ; Un-retract
G1 X148.1476 Y160.72 E1.11701 F6000 ; Print pattern wall
G1 X126.9344 Y181.9332 E1.11701 F6000 ; Print pattern wall
G1 E-2.5 F2700 ; Retract
G1 Z0.95 F7200 ; Z hop
G0 X127.5101 Y139.5068 F7200 ; Move to start next pattern wall
G1 Z0.85 F7200 ; Z hop return
G1 E2.5 F2100 ; Un-retract
G1 X148.7233 Y160.72 E1.11701 F6000 ; Print pattern wall
G1 X127.5101 Y181.9332 E1.11701 F6000 ; Print pattern wall
G1 E-2.5 F2700 ; Retract
G1 Z0.95 F7200 ; Z hop
G0 X129.9601 Y139.5068 F7200 ; Move to next pattern
G1 Z0.85 F7200 ; Z hop return
G1 E2.5 F2100 ; Un-retract
SET_PRESSURE_ADVANCE ADVANCE=0.15 ; Set pressure advance
M117 PA 0.15
G1 X151.1733 Y160.72 E1.11701 F6000 ; Print pattern wall
G1 X129.9601 Y181.9332 E1.11701 F6000 ; Print pattern wall
G1 E-2.5 F2700 ; Retract
G1 Z0.95 F7200 ; Z hop
G0 X130.5358 Y139.5068 F7200 ; Move to start next pattern wall
G1 Z0.85 F7200 ; Z hop return
G1 E2.5 F2100 ; Un-retract
G1 X151.749 Y160.72 E1.11701 F6000 ; Print pattern wall
G1 X130.5358 Y181.9332 E1.11701 F6000 ; Print pattern wall
G1 E-2.5 F2700 ; Retract
G1 Z0.95 F7200 ; Z hop
G0 X131.1115 Y139.5068 F7200 ; Move to start next pattern wall
G1 Z0.85 F7200 ; Z hop return
G1 E2.5 F2100 ; Un-retract
G1 X152.3247 Y160.72 E1.11701 F6000 ; Print pattern wall
G1 X131.1115 Y181.9332 E1.11701 F6000 ; Print pattern wall
G1 E-2.5 F2700 ; Retract
G1 Z0.95 F7200 ; Z hop
G0 X133.5615 Y139.5068 F7200 ; Move to next pattern
G1 Z0.85 F7200 ; Z hop return
G1 E2.5 F2100 ; Un-retract
SET_PRESSURE_ADVANCE ADVANCE=0.2 ; Set pressure advance
M117 PA 0.2
G1 X154.7747 Y160.72 E1.11701 F6000 ; Print pattern wall
G1 X133.5615 Y181.9332 E1.11701 F6000 ; Print pattern wall
G1 E-2.5 F2700 ; Retract
G1 Z0.95 F7200 ; Z hop
G0 X134.1372 Y139.5068 F7200 ; Move to start next pattern wall
G1 Z0.85 F7200 ; Z hop return
G1 E2.5 F2100 ; Un-retract
G1 X155.3504 Y160.72 E1.11701 F6000 ; Print pattern wall
G1 X134.1372 Y181.9332 E1.11701 F6000 ; Print pattern wall
G1 E-2.5 F2700 ; Retract
G1 Z0.95 F7200 ; Z hop
G0 X134.7129 Y139.5068 F7200 ; Move to start next pattern wall
G1 Z0.85 F7200 ; Z hop return
G1 E2.5 F2100 ; Un-retract
G1 X155.9261 Y160.72 E1.11701 F6000 ; Print pattern wall
G1 X134.7129 Y181.9332 E1.11701 F6000 ; Print pattern wall
G1 E-2.5 F2700 ; Retract
G1 Z0.95 F7200 ; Z hop
G0 X137.1629 Y139.5068 F7200 ; Move to next pattern
G1 Z0.85 F7200 ; Z hop return
G1 E2.5 F2100 ; Un-retract
SET_PRESSURE_ADVANCE ADVANCE=0.25 ; Set pressure advance
M117 PA 0.25
G1 X158.3761 Y160.72 E1.11701 F6000 ; Print pattern wall
G1 X137.1629 Y181.9332 E1.11701 F6000 ; Print pattern wall
G1 E-2.5 F2700 ; Retract
G1 Z0.95 F7200 ; Z hop
G0 X137.7386 Y139.5068 F7200 ; Move to start next pattern wall
G1 Z0.85 F7200 ; Z hop return
G1 E2.5 F2100 ; Un-retract
G1 X158.9518 Y160.72 E1.11701 F6000 ; Print pattern wall
G1 X137.7386 Y181.9332 E1.11701 F6000 ; Print pattern wall
G1 E-2.5 F2700 ; Retract
G1 Z0.95 F7200 ; Z hop
G0 X138.3143 Y139.5068 F7200 ; Move to start next pattern wall
G1 Z0.85 F7200 ; Z hop return
G1 E2.5 F2100 ; Un-retract
G1 X159.5275 Y160.72 E1.11701 F6000 ; Print pattern wall
G1 X138.3143 Y181.9332 E1.11701 F6000 ; Print pattern wall
G1 E-2.5 F2700 ; Retract
G1 Z0.95 F7200 ; Z hop
G0 X140.7643 Y139.5068 F7200 ; Move to next pattern
G1 Z0.85 F7200 ; Z hop return
G1 E2.5 F2100 ; Un-retract
SET_PRESSURE_ADVANCE ADVANCE=0.3 ; Set pressure advance
M117 PA 0.3
G1 X161.9775 Y160.72 E1.11701 F6000 ; Print pattern wall
G1 X140.7643 Y181.9332 E1.11701 F6000 ; Print pattern wall
G1 E-2.5 F2700 ; Retract
G1 Z0.95 F7200 ; Z hop
G0 X141.34 Y139.5068 F7200 ; Move to start next pattern wall
G1 Z0.85 F7200 ; Z hop return
G1 E2.5 F2100 ; Un-retract
G1 X162.5532 Y160.72 E1.11701 F6000 ; Print pattern wall
G1 X141.34 Y181.9332 E1.11701 F6000 ; Print pattern wall
G1 E-2.5 F2700 ; Retract
G1 Z0.95 F7200 ; Z hop
G0 X141.9157 Y139.5068 F7200 ; Move to start next pattern wall
G1 Z0.85 F7200 ; Z hop return
G1 E2.5 F2100 ; Un-retract
G1 X163.1289 Y160.72 E1.11701 F6000 ; Print pattern wall
G1 X141.9157 Y181.9332 E1.11701 F6000 ; Print pattern wall
G1 E-2.5 F2700 ; Retract
G1 Z0.95 F7200 ; Z hop
G0 X144.3657 Y139.5068 F7200 ; Move to next pattern
G1 Z0.85 F7200 ; Z hop return
G1 E2.5 F2100 ; Un-retract
SET_PRESSURE_ADVANCE ADVANCE=0.35 ; Set pressure advance
M117 PA 0.35
G1 X165.5789 Y160.72 E1.11701 F6000 ; Print pattern wall
G1 X144.3657 Y181.9332 E1.11701 F6000 ; Print pattern wall
G1 E-2.5 F2700 ; Retract
G1 Z0.95 F7200 ; Z hop
G0 X144.9414 Y139.5068 F7200 ; Move to start next pattern wall
G1 Z0.85 F7200 ; Z hop return
G1 E2.5 F2100 ; Un-retract
G1 X166.1546 Y160.72 E1.11701 F6000 ; Print pattern wall
G1 X144.9414 Y181.9332 E1.11701 F6000 ; Print pattern wall
G1 E-2.5 F2700 ; Retract
G1 Z0.95 F7200 ; Z hop
G0 X145.5171 Y139.5068 F7200 ; Move to start next pattern wall
G1 Z0.85 F7200 ; Z hop return
G1 E2.5 F2100 ; Un-retract
G1 X166.7303 Y160.72 E1.11701 F6000 ; Print pattern wall
G1 X145.5171 Y181.9332 E1.11701 F6000 ; Print pattern wall
G1 E-2.5 F2700 ; Retract
G1 Z0.95 F7200 ; Z hop
G0 X147.9671 Y139.5068 F7200 ; Move to next pattern
G1 Z0.85 F7200 ; Z hop return
G1 E2.5 F2100 ; Un-retract
SET_PRESSURE_ADVANCE ADVANCE=0.4 ; Set pressure advance
M117 PA 0.4
G1 X169.1803 Y160.72 E1.11701 F6000 ; Print pattern wall
G1 X147.9671 Y181.9332 E1.11701 F6000 ; Print pattern wall
G1 E-2.5 F2700 ; Retract
G1 Z0.95 F7200 ; Z hop
G0 X148.5428 Y139.5068 F7200 ; Move to start next pattern wall
G1 Z0.85 F7200 ; Z hop return
G1 E2.5 F2100 ; Un-retract
G1 X169.756 Y160.72 E1.11701 F6000 ; Print pattern wall
G1 X148.5428 Y181.9332 E1.11701 F6000 ; Print pattern wall
G1 E-2.5 F2700 ; Retract
G1 Z0.95 F7200 ; Z hop
G0 X149.1185 Y139.5068 F7200 ; Move to start next pattern wall
G1 Z0.85 F7200 ; Z hop return
G1 E2.5 F2100 ; Un-retract
G1 X170.3317 Y160.72 E1.11701 F6000 ; Print pattern wall
G1 X149.1185 Y181.9332 E1.11701 F6000 ; Print pattern wall
G1 E-2.5 F2700 ; Retract
G1 Z0.95 F7200 ; Z hop
G0 X151.5685 Y139.5068 F7200 ; Move to next pattern
G1 Z0.85 F7200 ; Z hop return
G1 E2.5 F2100 ; Un-retract
SET_PRESSURE_ADVANCE ADVANCE=0.45 ; Set pressure advance
M117 PA 0.45
G1 X172.7817 Y160.72 E1.11701 F6000 ; Print pattern wall
G1 X151.5685 Y181.9332 E1.11701 F6000 ; Print pattern wall
G1 E-2.5 F2700 ; Retract
G1 Z0.95 F7200 ; Z hop
G0 X152.1442 Y139.5068 F7200 ; Move to start next pattern wall
G1 Z0.85 F7200 ; Z hop return
G1 E2.5 F2100 ; Un-retract
G1 X173.3574 Y160.72 E1.11701 F6000 ; Print pattern wall
G1 X152.1442 Y181.9332 E1.11701 F6000 ; Print pattern wall
G1 E-2.5 F2700 ; Retract
G1 Z0.95 F7200 ; Z hop
G0 X152.7199 Y139.5068 F7200 ; Move to start next pattern wall
G1 Z0.85 F7200 ; Z hop return
G1 E2.5 F2100 ; Un-retract
G1 X173.9331 Y160.72 E1.11701 F6000 ; Print pattern wall
G1 X152.7199 Y181.9332 E1.11701 F6000 ; Print pattern wall
G1 E-2.5 F2700 ; Retract
G1 Z0.95 F7200 ; Z hop
G0 X155.1699 Y139.5068 F7200 ; Move to next pattern
G1 Z0.85 F7200 ; Z hop return
G1 E2.5 F2100 ; Un-retract
SET_PRESSURE_ADVANCE ADVANCE=0.5 ; Set pressure advance
M117 PA 0.5
G1 X176.3831 Y160.72 E1.11701 F6000 ; Print pattern wall
G1 X155.1699 Y181.9332 E1.11701 F6000 ; Print pattern wall
G1 E-2.5 F2700 ; Retract
G1 Z0.95 F7200 ; Z hop
G0 X155.7455 Y139.5068 F7200 ; Move to start next pattern wall
G1 Z0.85 F7200 ; Z hop return
G1 E2.5 F2100 ; Un-retract
G1 X176.9588 Y160.72 E1.11701 F6000 ; Print pattern wall
G1 X155.7455 Y181.9332 E1.11701 F6000 ; Print pattern wall
G1 E-2.5 F2700 ; Retract
G1 Z0.95 F7200 ; Z hop
G0 X156.3212 Y139.5068 F7200 ; Move to start next pattern wall
G1 Z0.85 F7200 ; Z hop return
G1 E2.5 F2100 ; Un-retract
G1 X177.5345 Y160.72 E1.11701 F6000 ; Print pattern wall
G1 X156.3212 Y181.9332 E1.11701 F6000 ; Print pattern wall
G1 E-2.5 F2700 ; Retract
G1 Z0.95 F7200 ; Z hop
G0 X158.7712 Y139.5068 F7200 ; Move to next pattern
G1 Z0.85 F7200 ; Z hop return
G1 E2.5 F2100 ; Un-retract
SET_PRESSURE_ADVANCE ADVANCE=0.55 ; Set pressure advance
M117 PA 0.55
G1 X179.9845 Y160.72 E1.11701 F6000 ; Print pattern wall
G1 X158.7712 Y181.9332 E1.11701 F6000 ; Print pattern wall
G1 E-2.5 F2700 ; Retract
G1 Z0.95 F7200 ; Z hop
G0 X159.3469 Y139.5068 F7200 ; Move to start next pattern wall
G1 Z0.85 F7200 ; Z hop return
G1 E2.5 F2100 ; Un-retract
G1 X180.5601 Y160.72 E1.11701 F6000 ; Print pattern wall
G1 X159.3469 Y181.9332 E1.11701 F6000 ; Print pattern wall
G1 E-2.5 F2700 ; Retract
G1 Z0.95 F7200 ; Z hop
G0 X159.9226 Y139.5068 F7200 ; Move to start next pattern wall
G1 Z0.85 F7200 ; Z hop return
G1 E2.5 F2100 ; Un-retract
G1 X181.1358 Y160.72 E1.11701 F6000 ; Print pattern wall
G1 X159.9226 Y181.9332 E1.11701 F6000 ; Print pattern wall
G1 E-2.5 F2700 ; Retract
G1 Z0.95 F7200 ; Z hop
G0 X162.3726 Y139.5068 F7200 ; Move to next pattern
G1 Z0.85 F7200 ; Z hop return
G1 E2.5 F2100 ; Un-retract
SET_PRESSURE_ADVANCE ADVANCE=0.6 ; Set pressure advance
M117 PA 0.6
G1 X183.5858 Y160.72 E1.11701 F6000 ; Print pattern wall
G1 X162.3726 Y181.9332 E1.11701 F6000 ; Print pattern wall
G1 E-2.5 F2700 ; Retract
G1 Z0.95 F7200 ; Z hop
G0 X162.9483 Y139.5068 F7200 ; Move to start next pattern wall
G1 Z0.85 F7200 ; Z hop return
G1 E2.5 F2100 ; Un-retract
G1 X184.1615 Y160.72 E1.11701 F6000 ; Print pattern wall
G1 X162.9483 Y181.9332 E1.11701 F6000 ; Print pattern wall
G1 E-2.5 F2700 ; Retract
G1 Z0.95 F7200 ; Z hop
G0 X163.524 Y139.5068 F7200 ; Move to start next pattern wall
G1 Z0.85 F7200 ; Z hop return
G1 E2.5 F2100 ; Un-retract
G1 X184.7372 Y160.72 E1.11701 F6000 ; Print pattern wall
G1 X163.524 Y181.9332 E1.11701 F6000 ; Print pattern wall
G1 E-2.5 F2700 ; Retract
G1 Z0.95 F7200 ; Z hop
G0 X165.974 Y139.5068 F7200 ; Move to next pattern
G1 Z0.85 F7200 ; Z hop return
G1 E2.5 F2100 ; Un-retract
SET_PRESSURE_ADVANCE ADVANCE=0.65 ; Set pressure advance
M117 PA 0.65
G1 X187.1872 Y160.72 E1.11701 F6000 ; Print pattern wall
G1 X165.974 Y181.9332 E1.11701 F6000 ; Print pattern wall
G1 E-2.5 F2700 ; Retract
G1 Z0.95 F7200 ; Z hop
G0 X166.5497 Y139.5068 F7200 ; Move to start next pattern wall
G1 Z0.85 F7200 ; Z hop return
G1 E2.5 F2100 ; Un-retract
G1 X187.7629 Y160.72 E1.11701 F6000 ; Print pattern wall
G1 X166.5497 Y181.9332 E1.11701 F6000 ; Print pattern wall
G1 E-2.5 F2700 ; Retract
G1 Z0.95 F7200 ; Z hop
G0 X167.1254 Y139.5068 F7200 ; Move to start next pattern wall
G1 Z0.85 F7200 ; Z hop return
G1 E2.5 F2100 ; Un-retract
G1 X188.3386 Y160.72 E1.11701 F6000 ; Print pattern wall
G1 X167.1254 Y181.9332 E1.11701 F6000 ; Print pattern wall
G1 E-2.5 F2700 ; Retract
G1 Z0.95 F7200 ; Z hop
G0 X169.5754 Y139.5068 F7200 ; Move to next pattern
G1 Z0.85 F7200 ; Z hop return
G1 E2.5 F2100 ; Un-retract
SET_PRESSURE_ADVANCE ADVANCE=0.7 ; Set pressure advance
M117 PA 0.7
G1 X190.7886 Y160.72 E1.11701 F6000 ; Print pattern wall
G1 X169.5754 Y181.9332 E1.11701 F6000 ; Print pattern wall
G1 E-2.5 F2700 ; Retract
G1 Z0.95 F7200 ; Z hop
G0 X170.1511 Y139.5068 F7200 ; Move to start next pattern wall
G1 Z0.85 F7200 ; Z hop return
G1 E2.5 F2100 ; Un-retract
G1 X191.3643 Y160.72 E1.11701 F6000 ; Print pattern wall
G1 X170.1511 Y181.9332 E1.11701 F6000 ; Print pattern wall
G1 E-2.5 F2700 ; Retract
G1 Z0.95 F7200 ; Z hop
G0 X170.7268 Y139.5068 F7200 ; Move to start next pattern wall
G1 Z0.85 F7200 ; Z hop return
G1 E2.5 F2100 ; Un-retract
G1 X191.94 Y160.72 E1.11701 F6000 ; Print pattern wall
G1 X170.7268 Y181.9332 E1.11701 F6000 ; Print pattern wall
G1 E-2.5 F2700 ; Retract
G1 Z0.95 F7200 ; Z hop
G0 X173.1768 Y139.5068 F7200 ; Move to next pattern
G1 Z0.85 F7200 ; Z hop return
G1 E2.5 F2100 ; Un-retract
SET_PRESSURE_ADVANCE ADVANCE=0.75 ; Set pressure advance
M117 PA 0.75
G1 X194.39 Y160.72 E1.11701 F6000 ; Print pattern wall
G1 X173.1768 Y181.9332 E1.11701 F6000 ; Print pattern wall
G1 E-2.5 F2700 ; Retract
G1 Z0.95 F7200 ; Z hop
G0 X173.7525 Y139.5068 F7200 ; Move to start next pattern wall
G1 Z0.85 F7200 ; Z hop return
G1 E2.5 F2100 ; Un-retract
G1 X194.9657 Y160.72 E1.11701 F6000 ; Print pattern wall
G1 X173.7525 Y181.9332 E1.11701 F6000 ; Print pattern wall
G1 E-2.5 F2700 ; Retract
G1 Z0.95 F7200 ; Z hop
G0 X174.3282 Y139.5068 F7200 ; Move to start next pattern wall
G1 Z0.85 F7200 ; Z hop return
G1 E2.5 F2100 ; Un-retract
G1 X195.5414 Y160.72 E1.11701 F6000 ; Print pattern wall
G1 X174.3282 Y181.9332 E1.11701 F6000 ; Print pattern wall
G1 E-2.5 F2700 ; Retract
G1 Z0.95 F7200 ; Z hop
G0 X176.7782 Y139.5068 F7200 ; Move to next pattern
G1 Z0.85 F7200 ; Z hop return
G1 E2.5 F2100 ; Un-retract
SET_PRESSURE_ADVANCE ADVANCE=0.8 ; Set pressure advance
M117 PA 0.8
G1 X197.9914 Y160.72 E1.11701 F6000 ; Print pattern wall
G1 X176.7782 Y181.9332 E1.11701 F6000 ; Print pattern wall
G1 E-2.5 F2700 ; Retract
G1 Z0.95 F7200 ; Z hop
G0 X177.3539 Y139.5068 F7200 ; Move to start next pattern wall
G1 Z0.85 F7200 ; Z hop return
G1 E2.5 F2100 ; Un-retract
G1 X198.5671 Y160.72 E1.11701 F6000 ; Print pattern wall
G1 X177.3539 Y181.9332 E1.11701 F6000 ; Print pattern wall
G1 E-2.5 F2700 ; Retract
G1 Z0.95 F7200 ; Z hop
G0 X177.9296 Y139.5068 F7200 ; Move to start next pattern wall
G1 Z0.85 F7200 ; Z hop return
G1 E2.5 F2100 ; Un-retract
G1 X199.1428 Y160.72 E1.11701 F6000 ; Print pattern wall
G1 X177.9296 Y181.9332 E1.11701 F6000 ; Print pattern wall
G1 E-2.5 F2700 ; Retract
G1 Z0.95 F7200 ; Z hop
G0 X180.3796 Y139.5068 F7200 ; Move to next pattern
G1 Z0.85 F7200 ; Z hop return
G1 E2.5 F2100 ; Un-retract
SET_PRESSURE_ADVANCE ADVANCE=0.85 ; Set pressure advance
M117 PA 0.85
G1 X201.5928 Y160.72 E1.11701 F6000 ; Print pattern wall
G1 X180.3796 Y181.9332 E1.11701 F6000 ; Print pattern wall
G1 E-2.5 F2700 ; Retract
G1 Z0.95 F7200 ; Z hop
G0 X180.9553 Y139.5068 F7200 ; Move to start next pattern wall
G1 Z0.85 F7200 ; Z hop return
G1 E2.5 F2100 ; Un-retract
G1 X202.1685 Y160.72 E1.11701 F6000 ; Print pattern wall
G1 X180.9553 Y181.9332 E1.11701 F6000 ; Print pattern wall
G1 E-2.5 F2700 ; Retract
G1 Z0.95 F7200 ; Z hop
G0 X181.531 Y139.5068 F7200 ; Move to start next pattern wall
G1 Z0.85 F7200 ; Z hop return
G1 E2.5 F2100 ; Un-retract
G1 X202.7442 Y160.72 E1.11701 F6000 ; Print pattern wall
G1 X181.531 Y181.9332 E1.11701 F6000 ; Print pattern wall
G1 E-2.5 F2700 ; Retract
G1 Z0.95 F7200 ; Z hop
G0 X183.981 Y139.5068 F7200 ; Move to next pattern
G1 Z0.85 F7200 ; Z hop return
G1 E2.5 F2100 ; Un-retract
SET_PRESSURE_ADVANCE ADVANCE=0.9 ; Set pressure advance
M117 PA 0.9
G1 X205.1942 Y160.72 E1.11701 F6000 ; Print pattern wall
G1 X183.981 Y181.9332 E1.11701 F6000 ; Print pattern wall
G1 E-2.5 F2700 ; Retract
G1 Z0.95 F7200 ; Z hop
G0 X184.5567 Y139.5068 F7200 ; Move to start next pattern wall
G1 Z0.85 F7200 ; Z hop return
G1 E2.5 F2100 ; Un-retract
G1 X205.7699 Y160.72 E1.11701 F6000 ; Print pattern wall
G1 X184.5567 Y181.9332 E1.11701 F6000 ; Print pattern wall
G1 E-2.5 F2700 ; Retract
G1 Z0.95 F7200 ; Z hop
G0 X185.1324 Y139.5068 F7200 ; Move to start next pattern wall
G1 Z0.85 F7200 ; Z hop return
G1 E2.5 F2100 ; Un-retract
G1 X206.3456 Y160.72 E1.11701 F6000 ; Print pattern wall
G1 X185.1324 Y181.9332 E1.11701 F6000 ; Print pattern wall
G1 E-2.5 F2700 ; Retract
G1 Z0.95 F7200 ; Z hop
G0 X187.5824 Y139.5068 F7200 ; Move to next pattern
G1 Z0.85 F7200 ; Z hop return
G1 E2.5 F2100 ; Un-retract
SET_PRESSURE_ADVANCE ADVANCE=0.95 ; Set pressure advance
M117 PA 0.95
G1 X208.7956 Y160.72 E1.11701 F6000 ; Print pattern wall
G1 X187.5824 Y181.9332 E1.11701 F6000 ; Print pattern wall
G1 E-2.5 F2700 ; Retract
G1 Z0.95 F7200 ; Z hop
G0 X188.1581 Y139.5068 F7200 ; Move to start next pattern wall
G1 Z0.85 F7200 ; Z hop return
G1 E2.5 F2100 ; Un-retract
G1 X209.3713 Y160.72 E1.11701 F6000 ; Print pattern wall
G1 X188.1581 Y181.9332 E1.11701 F6000 ; Print pattern wall
G1 E-2.5 F2700 ; Retract
G1 Z0.95 F7200 ; Z hop
G0 X188.7338 Y139.5068 F7200 ; Move to start next pattern wall
G1 Z0.85 F7200 ; Z hop return
G1 E2.5 F2100 ; Un-retract
G1 X209.947 Y160.72 E1.11701 F6000 ; Print pattern wall
G1 X188.7338 Y181.9332 E1.11701 F6000 ; Print pattern wall
G1 E-2.5 F2700 ; Retract
G1 Z0.95 F7200 ; Z hop
G0 X191.1838 Y139.5068 F7200 ; Move to next pattern
G1 Z0.85 F7200 ; Z hop return
G1 E2.5 F2100 ; Un-retract
SET_PRESSURE_ADVANCE ADVANCE=1 ; Set pressure advance
M117 PA 1
G1 X212.397 Y160.72 E1.11701 F6000 ; Print pattern wall
G1 X191.1838 Y181.9332 E1.11701 F6000 ; Print pattern wall
G1 E-2.5 F2700 ; Retract
G1 Z0.95 F7200 ; Z hop
G0 X191.7595 Y139.5068 F7200 ; Move to start next pattern wall
G1 Z0.85 F7200 ; Z hop return
G1 E2.5 F2100 ; Un-retract
G1 X212.9727 Y160.72 E1.11701 F6000 ; Print pattern wall
G1 X191.7595 Y181.9332 E1.11701 F6000 ; Print pattern wall
G1 E-2.5 F2700 ; Retract
G1 Z0.95 F7200 ; Z hop
G0 X192.3352 Y139.5068 F7200 ; Move to start next pattern wall
G1 Z0.85 F7200 ; Z hop return
G1 E2.5 F2100 ; Un-retract
G1 X213.5484 Y160.72 E1.11701 F6000 ; Print pattern wall
G1 X192.3352 Y181.9332 E1.11701 F6000 ; Print pattern wall
SET_PRESSURE_ADVANCE ADVANCE=0 ; Set pressure advance back to start value
M117 PA 0
G1 E-2.5 F2700 ; Retract
G1 Z0.95 F7200 ; Z hop
G0 Z5.85 F7200 ; Z raise
M104 S0 ; Turn off hotend
M140 S0 ; Turn off bed
M107    ; Turn off fan
;
; End G-code
;
PRINT_END ; End macro. Change name to match yours
;
; FINISH
;
