; generated by SuperSlicer 2.4 on 2023-05-17 at 09:03:38 UTC

; 

; external perimeters extrusion width = 0.42mm
; perimeters extrusion width = 0.45mm
; infill extrusion width = 0.45mm
; solid infill extrusion width = 0.45mm
; top infill extrusion width = 0.42mm
; support material extrusion width = 0.30mm

; external perimeters extrusion width = 0.42mm
; perimeters extrusion width = 0.45mm
; infill extrusion width = 0.45mm
; solid infill extrusion width = 0.45mm
; top infill extrusion width = 0.42mm
; support material extrusion width = 0.30mm


;TYPE:Custom
START_PRINT EXTRUDER_TEMP=220 BED_TEMP=90 SIZE=111.736_124.619_198.264_183.995
M107
G21 ; set units to millimeters
G90 ; use absolute coordinates
M82 ; use absolute distances for extrusion
G92 E0
; Filament gcode
;_TOOLCHANGE 0
M104 S220 ; set temperature
M109 S220 ; set temperature and wait for it to be reached
M190 S90 ; set bed temperature and wait for it to be reached
M107
;LAYER_CHANGE
;Z:0.2
;HEIGHT:0.2
;LAYER:0
G1 Z0.2 F7200
G1 E-4 F2700
M204 S300
G1 X113.34 Y126.183 F7200
G1 E0 F2700
;TYPE:Skirt
;WIDTH:0.45
G1 F1500
G1 X113.98 Y125.609 E0.02909
G1 X114.528 Y125.29 E0.05055
G1 X115.096 Y125.05 E0.07143
G1 X116.235 Y124.823 E0.11074
G1 X152.009 Y124.823 E1.32164
G1 X153.2 Y125.07 E1.36281
G1 X153.98 Y125.433 E1.39195
G1 X154.65 Y125.917 E1.41991
G1 X155.233 Y126.504 E1.44792
G1 X155.713 Y127.181 E1.476
G1 X156.07 Y127.975 E1.50548
G1 X156.271 Y128.822 E1.53494
G1 X156.29 Y140.555 E1.93211
G1 X156.022 Y141.729 E1.97287
G1 X155.464 Y142.796 E2.01362
G1 X154.551 Y143.768 E2.05878
G1 X152.925 Y144.739 E2.12286
G1 X152.925 Y178.667 E3.27131
G1 X152.738 Y179.893 E3.31326
G1 X152.248 Y181.088 E3.35701
G1 X151.445 Y182.168 E3.40253
G1 X150.38 Y183.021 E3.44874
G1 X149.125 Y183.577 E3.4952
G1 X147.802 Y183.792 E3.54056
G1 X121.48 Y183.791 E4.43153
G1 X120.241 Y183.604 E4.47396
G1 X119.021 Y183.107 E4.51855
G1 X117.952 Y182.309 E4.56372
G1 X117.109 Y181.255 E4.60937
G1 X116.554 Y180.011 E4.65549
G1 X116.333 Y178.672 E4.70143
G1 X116.332 Y145.858 E5.81214
G1 X113.813 Y144.381 E5.91098
G1 X112.773 Y143.307 E5.96161
G1 X112.157 Y142.076 E6.0082
G1 X111.95 Y141.049 E6.04365
G1 X111.939 Y129.123 E6.44734
G1 X112.112 Y128.157 E6.48054
G1 X112.517 Y127.2 E6.51573
G1 X113.115 Y126.385 E6.54992
G1 X113.296 Y126.223 E6.55816
G1 X113.568 Y126.524 F7200
G1 F1500
G1 X114.203 Y125.949 E6.58715
G1 X114.698 Y125.66 E6.60656
G1 X115.236 Y125.433 E6.6263
G1 X116.255 Y125.23 E6.66149
G1 X151.988 Y125.23 E7.87101
G1 X153.051 Y125.449 E7.90772
G1 X153.759 Y125.775 E7.93412
G1 X154.374 Y126.216 E7.95973
G1 X154.912 Y126.754 E7.98548
G1 X155.35 Y127.368 E8.01101
G1 X155.68 Y128.09 E8.03788
G1 X155.864 Y128.847 E8.06424
G1 X155.888 Y140.489 E8.45832
G1 X155.648 Y141.566 E8.49567
G1 X155.147 Y142.539 E8.53273
G1 X154.317 Y143.433 E8.57403
G1 X152.518 Y144.508 E8.64495
G1 X152.518 Y178.652 E9.80069
G1 X152.339 Y179.806 E9.84023
G1 X151.881 Y180.909 E9.88064
G1 X151.135 Y181.903 E9.92272
G1 X150.19 Y182.66 E9.96373
G1 X149.033 Y183.18 E10.00665
G1 X147.785 Y183.384 E10.04944
G1 X121.495 Y183.384 E10.93932
G1 X120.326 Y183.206 E10.97936
G1 X119.2 Y182.741 E11.0206
G1 X118.218 Y181.999 E11.06226
G1 X117.444 Y181.023 E11.10443
G1 X116.951 Y179.918 E11.14537
G1 X116.74 Y178.655 E11.18872
G1 X116.739 Y145.625 E12.30675
G1 X114.043 Y144.044 E12.41254
G1 X113.088 Y143.048 E12.45926
G1 X112.534 Y141.92 E12.50178
G1 X112.353 Y140.99 E12.53385
G1 X112.346 Y129.141 E12.93493
G1 X112.509 Y128.253 E12.96549
G1 X112.882 Y127.382 E12.99758
G1 X113.403 Y126.674 E13.02734
G1 X113.524 Y126.564 E13.03285
G1 X113.798 Y126.865 F7200
G1 F1500
G1 X114.427 Y126.29 E13.06169
G1 X114.892 Y126.018 E13.07992
G1 X115.374 Y125.816 E13.09761
G1 X116.275 Y125.637 E13.12871
G1 X151.968 Y125.637 E14.33685
G1 X152.901 Y125.829 E14.36912
G1 X153.57 Y126.137 E14.39406
G1 X154.122 Y126.536 E14.41709
G1 X154.611 Y127.029 E14.4406
G1 X155.007 Y127.588 E14.46378
G1 X155.289 Y128.208 E14.48684
G1 X155.457 Y128.872 E14.51005
G1 X155.481 Y140.467 E14.90253
G1 X155.274 Y141.405 E14.93503
G1 X154.828 Y142.285 E14.96842
G1 X154.083 Y143.099 E15.00578
G1 X152.111 Y144.276 E15.08352
G1 X152.111 Y178.636 E16.24655
G1 X151.941 Y179.719 E16.28364
G1 X151.516 Y180.727 E16.32068
G1 X150.826 Y181.636 E16.35932
G1 X149.957 Y182.325 E16.39686
G1 X148.892 Y182.797 E16.43629
G1 X147.769 Y182.977 E16.47478
G1 X121.511 Y182.977 E17.36359
G1 X120.413 Y182.807 E17.4012
G1 X119.381 Y182.375 E17.43906
G1 X118.485 Y181.691 E17.47722
G1 X117.78 Y180.792 E17.51591
G1 X117.334 Y179.778 E17.55339
G1 X117.147 Y178.638 E17.59247
G1 X117.146 Y145.392 E18.71784
G1 X114.274 Y143.708 E18.83055
G1 X113.405 Y142.791 E18.8733
G1 X112.913 Y141.768 E18.91173
G1 X112.756 Y140.934 E18.94045
G1 X112.753 Y129.16 E19.33899
G1 X112.904 Y128.35 E19.36686
G1 X113.246 Y127.565 E19.39584
G1 X113.692 Y126.961 E19.42127
G1 X113.753 Y126.905 E19.42408
G1 X114.029 Y127.204 F7200
G1 F1500
G1 X114.652 Y126.63 E19.45277
G1 X115.062 Y126.388 E19.46887
G1 X115.513 Y126.2 E19.4854
G1 X116.295 Y126.044 E19.5124
G1 X151.947 Y126.044 E20.71918
G1 X152.754 Y126.209 E20.74705
G1 X153.349 Y126.479 E20.76918
G1 X153.845 Y126.836 E20.78986
G1 X154.29 Y127.28 E20.81114
G1 X154.645 Y127.774 E20.83174
G1 X154.911 Y128.359 E20.85349
G1 X155.056 Y128.946 E20.87396
G1 X155.074 Y140.446 E21.2632
G1 X154.898 Y141.246 E21.29094
G1 X154.507 Y142.033 E21.32069
G1 X153.848 Y142.765 E21.35403
G1 X151.704 Y144.045 E21.43856
G1 X151.704 Y178.62 E22.60888
G1 X151.555 Y179.585 E22.64193
G1 X151.175 Y180.503 E22.67556
G1 X150.552 Y181.335 E22.71074
G1 X149.766 Y181.965 E22.74482
G1 X148.8 Y182.399 E22.78068
G1 X147.753 Y182.57 E22.8166
G1 X121.526 Y182.57 E23.70433
G1 X120.545 Y182.422 E23.73792
G1 X119.606 Y182.034 E23.77232
G1 X118.788 Y181.418 E23.80698
G1 X118.141 Y180.602 E23.84221
G1 X117.732 Y179.685 E23.87621
G1 X117.555 Y178.622 E23.91271
G1 X117.553 Y145.14 E25.04602
G1 X117.469 Y145.109 E25.04906
G1 X114.548 Y143.405 E25.16354
G1 X113.758 Y142.585 E25.20208
G1 X113.291 Y141.616 E25.23847
G1 X113.16 Y140.88 E25.26377
G1 X113.16 Y129.179 E25.65984
G1 X113.3 Y128.45 E25.68498
G1 X113.609 Y127.75 E25.71086
G1 X113.985 Y127.245 E25.73218
G1 X114.273 Y127.533 F7200
G1 F1500
G1 X114.878 Y126.969 E25.76017
G1 X115.257 Y126.746 E25.77503
G1 X115.65 Y126.583 E25.78945
G1 X116.315 Y126.451 E25.81241
G1 X151.927 Y126.451 E27.01781
G1 X152.608 Y126.589 E27.04135
G1 X153.13 Y126.823 E27.06068
G1 X153.57 Y127.136 E27.07896
G1 X153.99 Y127.556 E27.09911
G1 X154.283 Y127.961 E27.11601
G1 X154.533 Y128.51 E27.13642
G1 X154.655 Y129.018 E27.15412
G1 X154.667 Y140.423 E27.54017
G1 X154.507 Y141.132 E27.56475
G1 X154.156 Y141.825 E27.59103
G1 X153.568 Y142.468 E27.62055
G1 X151.297 Y143.813 E27.70989
G1 X151.297 Y178.605 E28.88754
G1 X151.157 Y179.498 E28.91815
G1 X150.81 Y180.322 E28.9484
G1 X150.243 Y181.068 E28.98013
G1 X149.534 Y181.629 E29.01074
G1 X148.66 Y182.017 E29.04311
G1 X147.737 Y182.163 E29.07474
G1 X121.542 Y182.163 E29.9614
G1 X120.632 Y182.023 E29.99256
G1 X119.787 Y181.669 E30.02357
G1 X119.056 Y181.11 E30.05472
G1 X118.478 Y180.372 E30.08647
G1 X118.115 Y179.545 E30.11702
G1 X117.962 Y178.605 E30.14926
G1 X117.96 Y144.841 E31.29214
G1 X117.654 Y144.745 E31.30301
G1 X114.819 Y143.1 E31.41395
G1 X114.109 Y142.376 E31.44828
G1 X113.687 Y141.516 E31.48073
G1 X113.567 Y140.862 E31.50322
G1 X113.567 Y129.199 E31.898
G1 X113.695 Y128.551 E31.92035
G1 X113.971 Y127.938 E31.94312
G1 X114.237 Y127.581 E31.95818
G1 X114.563 Y127.82 F7200
G1 F1500
G1 X115.105 Y127.308 E31.98344
G1 X115.426 Y127.117 E31.99607
G1 X115.787 Y126.967 E32.00931
G1 X116.335 Y126.858 E32.02822
G1 X151.906 Y126.858 E33.23226
G1 X152.465 Y126.971 E33.25154
G1 X152.912 Y127.167 E33.26808
G1 X153.294 Y127.436 E33.28388
G1 X153.691 Y127.832 E33.30287
G1 X153.94 Y128.181 E33.31737
G1 X154.153 Y128.659 E33.33507
G1 X154.253 Y129.088 E33.35
G1 X154.26 Y140.4 E33.7329
G1 X154.116 Y141.015 E33.75427
G1 X153.807 Y141.613 E33.77706
G1 X153.29 Y142.17 E33.80278
G1 X150.889 Y143.58 E33.89702
G1 X150.889 Y178.589 E35.08203
G1 X150.772 Y179.363 E35.10852
G1 X150.445 Y180.139 E35.13703
G1 X149.936 Y180.799 E35.16524
G1 X149.304 Y181.293 E35.19239
G1 X148.521 Y181.633 E35.22127
G1 X147.721 Y181.756 E35.24867
G1 X121.557 Y181.756 E36.13429
G1 X120.766 Y181.638 E36.16137
G1 X119.969 Y181.304 E36.19062
G1 X119.326 Y180.805 E36.21818
G1 X118.816 Y180.143 E36.24646
G1 X118.499 Y179.407 E36.27357
G1 X118.369 Y178.589 E36.30162
G1 X118.368 Y144.536 E37.45428
G1 X117.836 Y144.38 E37.47301
G1 X115.088 Y142.794 E37.58044
G1 X114.458 Y142.165 E37.61056
G1 X114.082 Y141.412 E37.63904
G1 X113.975 Y140.843 E37.65865
G1 X113.975 Y129.218 E38.05213
G1 X114.076 Y128.695 E38.07018
G1 X114.312 Y128.161 E38.08994
G1 X114.527 Y127.868 E38.10222
G1 X114.852 Y128.109 F7200
G1 F1500
G1 X115.335 Y127.645 E38.1249
G1 X115.596 Y127.487 E38.13522
G1 X115.925 Y127.351 E38.14726
G1 X116.355 Y127.265 E38.16212
G1 X151.886 Y127.265 E39.3648
G1 X152.324 Y127.353 E39.37991
G1 X152.697 Y127.514 E39.39366
G1 X153.019 Y127.737 E39.40693
G1 X153.39 Y128.108 E39.42469
G1 X153.595 Y128.399 E39.43672
G1 X153.772 Y128.804 E39.4517
G1 X153.851 Y129.155 E39.46389
G1 X153.852 Y140.376 E39.8437
G1 X153.726 Y140.894 E39.86175
G1 X153.46 Y141.399 E39.88106
G1 X153.014 Y141.868 E39.90298
G1 X150.482 Y143.347 E40.00222
G1 X150.482 Y178.574 E41.19461
G1 X150.374 Y179.276 E41.21865
G1 X150.082 Y179.954 E41.24366
G1 X149.632 Y180.528 E41.26834
G1 X149.076 Y180.954 E41.29203
G1 X148.386 Y181.248 E41.31744
G1 X147.706 Y181.349 E41.3407
G1 X121.572 Y181.349 E42.22532
G1 X120.899 Y181.252 E42.24831
G1 X120.152 Y180.939 E42.27574
G1 X119.599 Y180.501 E42.29962
G1 X119.155 Y179.917 E42.32444
G1 X118.883 Y179.272 E42.34813
G1 X118.776 Y178.574 E42.37206
G1 X118.775 Y144.227 E43.53464
G1 X118.018 Y144.015 E43.56125
G1 X115.314 Y142.454 E43.66692
G1 X114.806 Y141.95 E43.69115
G1 X114.476 Y141.306 E43.71564
G1 X114.382 Y140.823 E43.7323
G1 X114.382 Y129.239 E44.12442
G1 X114.471 Y128.798 E44.13964
G1 X114.674 Y128.348 E44.15635
G1 X114.816 Y128.157 E44.16441
G1 X115.144 Y128.395 F7200
G1 F1500
G1 X115.155 Y128.379 E44.16507
G1 X115.567 Y127.98 E44.18449
G1 X115.767 Y127.857 E44.19241
G1 X116.062 Y127.735 E44.20323
G1 X116.375 Y127.672 E44.21404
G1 X151.866 Y127.672 E45.41536
G1 X152.183 Y127.736 E45.4263
G1 X152.518 Y127.88 E45.43863
G1 X152.744 Y128.037 E45.44798
G1 X153.089 Y128.382 E45.4645
G1 X153.248 Y128.613 E45.47397
G1 X153.39 Y128.946 E45.48622
G1 X153.449 Y129.219 E45.49569
G1 X153.445 Y140.35 E45.87246
G1 X153.338 Y140.769 E45.88708
G1 X153.115 Y141.18 E45.90292
G1 X152.742 Y141.565 E45.92107
G1 X150.075 Y143.112 E46.02543
G1 X150.075 Y178.558 E47.22521
G1 X149.976 Y179.186 E47.24674
G1 X149.719 Y179.767 E47.26822
G1 X149.362 Y180.222 E47.28784
G1 X148.89 Y180.591 E47.3081
G1 X148.298 Y180.85 E47.32996
G1 X147.691 Y180.942 E47.35076
G1 X121.586 Y180.942 E48.23439
G1 X121.029 Y180.866 E48.25339
G1 X120.38 Y180.601 E48.27715
G1 X119.905 Y180.232 E48.29749
G1 X119.519 Y179.732 E48.31886
G1 X119.282 Y179.184 E48.3391
G1 X119.183 Y178.558 E48.36055
G1 X119.182 Y143.83 E49.53604
G1 X118.811 Y143.821 E49.54858
G1 X118.199 Y143.65 E49.57009
G1 X115.541 Y142.115 E49.67397
G1 X115.118 Y141.686 E49.69438
G1 X114.869 Y141.198 E49.71292
G1 X114.789 Y140.803 E49.72658
G1 X114.789 Y129.259 E50.11733
G1 X114.852 Y128.942 E50.12827
G1 X115.017 Y128.57 E50.14203
G1 X115.109 Y128.443 E50.14734
G1 X115.44 Y128.676 F7200
G1 F1500
G1 X115.454 Y128.656 E50.14817
G1 X115.803 Y128.312 E50.16478
G1 X115.939 Y128.226 E50.17019
G1 X116.199 Y128.118 E50.17974
G1 X116.395 Y128.079 E50.18651
G1 X151.846 Y128.08 E51.38647
G1 X152.042 Y128.118 E51.39323
G1 X152.338 Y128.245 E51.40413
G1 X152.469 Y128.337 E51.40955
G1 X152.787 Y128.656 E51.42481
G1 X152.898 Y128.822 E51.43157
G1 X153.006 Y129.083 E51.44112
G1 X153.045 Y129.279 E51.44789
G1 X153.038 Y140.323 E51.82171
G1 X152.952 Y140.637 E51.83275
G1 X152.774 Y140.957 E51.84514
G1 X152.473 Y141.258 E51.85954
G1 X149.668 Y142.877 E51.96916
G1 X149.668 Y178.542 E53.17638
G1 X149.592 Y179.049 E53.19373
G1 X149.381 Y179.539 E53.21177
G1 X149.088 Y179.92 E53.22804
G1 X148.7 Y180.23 E53.24488
G1 X148.208 Y180.452 E53.26311
G1 X147.675 Y180.535 E53.28139
G1 X121.599 Y180.535 E54.16404
G1 X121.155 Y180.478 E54.17917
G1 X120.606 Y180.261 E54.19914
G1 X120.176 Y179.927 E54.21759
G1 X119.859 Y179.507 E54.23539
G1 X119.667 Y179.049 E54.25221
G1 X119.59 Y178.542 E54.26956
G1 X119.589 Y143.426 E55.45823
G1 X118.892 Y143.421 E55.48183
G1 X118.38 Y143.284 E55.49976
G1 X115.768 Y141.776 E55.60183
G1 X115.464 Y141.47 E55.61646
G1 X115.261 Y141.085 E55.63116
G1 X115.196 Y140.781 E55.6417
G1 X115.196 Y129.279 E56.03104
G1 X115.235 Y129.083 E56.0378
G1 X115.362 Y128.787 E56.0487
G1 X115.405 Y128.725 E56.05125
G1 X115.742 Y128.95 F7200
G1 F1500
G1 X115.756 Y128.93 E56.05209
G1 X116.046 Y128.639 E56.06599
G1 X116.113 Y128.595 E56.06871
G1 X116.337 Y128.502 E56.0769
G1 X116.415 Y128.487 E56.07962
G1 X151.826 Y128.487 E57.27823
G1 X151.905 Y128.502 E57.28094
G1 X152.128 Y128.595 E57.28914
G1 X152.195 Y128.639 E57.29185
G1 X152.485 Y128.93 E57.30576
G1 X152.53 Y128.997 E57.30847
G1 X152.623 Y129.22 E57.31667
G1 X152.638 Y129.299 E57.31938
G1 X152.631 Y140.293 E57.6915
G1 X152.569 Y140.497 E57.69873
G1 X152.435 Y140.73 E57.70786
G1 X152.246 Y140.919 E57.71688
G1 X149.261 Y142.642 E57.83355
G1 X149.261 Y178.527 E59.04819
G1 X149.193 Y178.961 E59.06306
G1 X149.041 Y179.314 E59.07608
G1 X148.811 Y179.621 E59.08907
G1 X148.508 Y179.87 E59.10236
G1 X148.067 Y180.069 E59.11871
G1 X147.66 Y180.128 E59.13263
G1 X121.611 Y180.128 E60.01438
G1 X121.276 Y180.088 E60.02578
G1 X120.829 Y179.919 E60.04198
G1 X120.481 Y179.657 E60.05671
G1 X120.222 Y179.322 E60.07105
G1 X120.065 Y178.961 E60.08437
G1 X119.997 Y178.527 E60.09924
G1 X119.996 Y143.021 E61.30107
G1 X118.92 Y143.014 E61.33748
G1 X118.56 Y142.918 E61.35009
G1 X115.995 Y141.437 E61.45035
G1 X115.807 Y141.249 E61.45937
G1 X115.651 Y140.966 E61.47029
G1 X115.603 Y140.758 E61.47752
G1 X115.603 Y129.299 E61.86539
G1 X115.619 Y129.22 E61.8681
G1 X115.709 Y129.001 E61.87614
G1 X116.072 Y129.189 F7200
G1 F1500
G1 X116.306 Y128.956 E61.88733
G1 X116.455 Y128.894 E61.89282
G1 X151.786 Y128.894 E63.08871
G1 X151.935 Y128.956 E63.0942
G1 X152.169 Y129.189 E63.10538
G1 X152.231 Y129.339 E63.11087
G1 X152.231 Y140.213 E63.47894
G1 X152.203 Y140.317 E63.48257
G1 X152.095 Y140.504 E63.48989
G1 X152.02 Y140.58 E63.49352
G1 X148.955 Y142.349 E63.61331
G1 X148.854 Y142.388 E63.61695
G1 X148.854 Y178.512 E64.8397
G1 X148.808 Y178.828 E64.85053
G1 X148.698 Y179.094 E64.86027
G1 X148.528 Y179.327 E64.87002
G1 X148.309 Y179.514 E64.87976
G1 X147.977 Y179.671 E64.89219
G1 X147.645 Y179.721 E64.90356
G1 X121.621 Y179.721 E65.78444
G1 X121.39 Y179.697 E65.7923
G1 X121.044 Y179.573 E65.80473
G1 X120.786 Y179.385 E65.81557
G1 X120.561 Y179.094 E65.82801
G1 X120.451 Y178.828 E65.83774
G1 X120.404 Y178.512 E65.84857
G1 X120.403 Y142.668 E67.06182
G1 X119.973 Y142.606 E67.07652
G1 X118.946 Y142.607 E67.11127
G1 X118.741 Y142.552 E67.11848
G1 X116.222 Y141.098 E67.21694
G1 X116.146 Y141.022 E67.22057
G1 X116.038 Y140.835 E67.22789
G1 X116.01 Y140.731 E67.23151
G1 X116.01 Y129.339 E67.61713
G1 X116.049 Y129.245 E67.62058
G1 X116.417 Y129.42 F7200
G1 F1500
G1 X116.536 Y129.301 E67.62629
G1 X151.705 Y129.301 E68.8167
G1 X151.824 Y129.42 E68.82241
G1 X151.824 Y140.159 E69.18593
G1 X151.77 Y140.254 E69.18962
G1 X148.768 Y141.987 E69.30694
G1 X148.731 Y142 E69.30826
G1 X148.447 Y142.041 E69.31798
G1 X148.447 Y178.504 E70.55221
G1 X148.413 Y178.729 E70.55993
G1 X148.406 Y178.752 E70.56074
G1 X148.36 Y178.864 E70.56482
G1 X148.348 Y178.885 E70.56563
G1 X148.221 Y179.06 E70.57295
G1 X148.205 Y179.077 E70.57376
G1 X148.113 Y179.155 E70.57784
G1 X148.093 Y179.169 E70.57865
G1 X147.897 Y179.269 E70.58611
G1 X147.867 Y179.279 E70.58719
G1 X147.637 Y179.314 E70.59505
G1 X121.625 Y179.314 E71.47552
G1 X121.505 Y179.304 E71.4796
G1 X121.481 Y179.3 E71.48041
G1 X121.272 Y179.232 E71.48787
