; HEADER_BLOCK_START
; generated by OrcaSlicer 1.6.2 on 2023-05-25 at 13:23:36
; total layer number: 414
; HEADER_BLOCK_END

; THUMBNAIL_BLOCK_START
; THUMBNAIL_BLOCK_END

; external perimeters extrusion width = 0.40mm
; perimeters extrusion width = 0.45mm
; infill extrusion width = 0.64mm
; solid infill extrusion width = 0.60mm
; top infill extrusion width = 0.40mm
; support material extrusion width = 0.40mm
; first layer extrusion width = 0.50mm

; EXECUTABLE_BLOCK_START
EXCLUDE_OBJECT_DEFINE NAME=Pieds_75deg.stl_id_0_copy_0 CENTER=170,160 POLYGON=[[140,160],[140.021,158.878],[140.084,157.758],[140.189,156.641],[140.335,155.529],[140.523,154.423],[140.752,153.324],[141.022,152.235],[141.333,151.157],[141.684,150.092],[142.074,149.04],[142.503,148.003],[142.971,146.983],[143.477,145.982],[144.019,145],[144.598,144.039],[145.213,143.1],[145.862,142.185],[146.545,141.295],[147.261,140.431],[148.008,139.595],[148.787,138.787],[149.595,138.008],[150.431,137.261],[151.295,136.545],[152.185,135.862],[153.1,135.213],[154.039,134.598],[155,134.019],[155.982,133.477],[156.983,132.971],[158.003,132.503],[159.04,132.074],[160.092,131.684],[161.157,131.333],[162.235,131.022],[163.324,130.752],[164.423,130.523],[165.529,130.335],[166.641,130.189],[167.758,130.084],[168.878,130.021],[170,130],[171.122,130.021],[172.242,130.084],[173.359,130.189],[174.471,130.335],[175.577,130.523],[176.676,130.752],[177.765,131.022],[178.843,131.333],[179.908,131.684],[180.96,132.074],[181.997,132.503],[183.017,132.971],[184.018,133.477],[185,134.019],[185.961,134.598],[186.9,135.213],[187.815,135.862],[188.705,136.545],[189.569,137.261],[190.405,138.008],[191.213,138.787],[191.992,139.595],[192.739,140.431],[193.455,141.295],[194.138,142.185],[194.787,143.1],[195.402,144.039],[195.981,145],[196.523,145.982],[197.029,146.983],[197.497,148.003],[197.926,149.04],[198.316,150.092],[198.667,151.157],[198.978,152.235],[199.248,153.324],[199.477,154.423],[199.665,155.529],[199.811,156.641],[199.916,157.758],[199.979,158.878],[200,160],[199.979,161.122],[199.916,162.242],[199.811,163.359],[199.665,164.471],[199.477,165.577],[199.248,166.676],[198.978,167.765],[198.667,168.843],[198.316,169.908],[197.926,170.96],[197.497,171.997],[197.029,173.017],[196.523,174.018],[195.981,175],[195.402,175.961],[194.787,176.9],[194.138,177.815],[193.455,178.705],[192.739,179.569],[191.992,180.405],[191.213,181.213],[190.405,181.992],[189.569,182.739],[188.705,183.455],[187.815,184.138],[186.9,184.787],[185.961,185.402],[185,185.981],[184.018,186.523],[183.017,187.029],[181.997,187.497],[180.96,187.926],[179.908,188.316],[178.843,188.667],[177.765,188.978],[176.676,189.248],[175.577,189.477],[174.471,189.665],[173.359,189.811],[172.242,189.916],[171.122,189.979],[170,190],[168.878,189.979],[167.758,189.916],[166.641,189.811],[165.529,189.665],[164.423,189.477],[163.324,189.248],[162.235,188.978],[161.157,188.667],[160.092,188.316],[159.04,187.926],[158.003,187.497],[156.983,187.029],[155.982,186.523],[155,185.981],[154.039,185.402],[153.1,184.787],[152.185,184.138],[151.295,183.455],[150.431,182.739],[149.595,181.992],[148.787,181.213],[148.008,180.405],[147.261,179.569],[146.545,178.705],[145.862,177.815],[145.213,176.9],[144.598,175.961],[144.019,175],[143.477,174.018],[142.971,173.017],[142.503,171.997],[142.074,170.96],[141.684,169.908],[141.333,168.843],[141.022,167.765],[140.752,166.676],[140.523,165.577],[140.335,164.471],[140.189,163.359],[140.084,162.242],[140.021,161.122],[140,160]]
M73 P0 R76
;TYPE:Custom
M190 S90
M109 S215
PRINT_START EXTRUDER=215 BED=90

G90
G21
M83 ; use relative distances for extrusion
START_PRINT EXTRUDER_TEMP=215 BED_TEMP=90 SIZE=130.631_120.632_209.369_199.368
M106 S0 ; disable fan
;LAYER_CHANGE
;Z:0.2
;HEIGHT:0.2
;BEFORE_LAYER_CHANGE
;0.2
G92 E0

G1 E-2.5 F2700 ; retract
;AFTER_LAYER_CHANGE
;0.2
M204 S500 ; adjust acceleration
G1 X142.447 Y132.201 F21000 ; move to first skirt point travel_to_xyz
G1 Z.6 ; move to first skirt point travel_to_xyz
G1 Z.2 ; restore layer Z
G1 E2.5 F1800 ;  ; unretract
;TYPE:Skirt
;WIDTH:0.5
G1 F3000
G1 X144.333 Y130.45 E.10757 ; skirt
G1 X145.65 Y129.357 E.07157 ; skirt
G1 X148.093 Y127.565 E.12665 ; skirt
G1 X150.491 Y126.068 E.11819 ; skirt
G1 X151.79 Y125.354 E.06197 ; skirt
G1 X153.172 Y124.662 E.0646 ; skirt
G1 X155.533 Y123.632 E.10771 ; skirt
G1 X158.646 Y122.543 E.13788 ; skirt
G1 X161.124 Y121.879 E.10723 ; skirt
G1 X162.791 Y121.53 E.0712 ; skirt
G1 X164.344 Y121.271 E.06586 ; skirt
G1 X166.905 Y120.982 E.10771 ; skirt
G1 X170.191 Y120.86 E.1375 ; skirt
G1 X172.755 Y120.957 E.10724 ; skirt
G1 X174.45 Y121.114 E.0712 ; skirt
G1 X176.003 Y121.323 E.06549 ; skirt
G1 X178.534 Y121.801 E.1077 ; skirt
G1 X181.719 Y122.656 E.13788 ; skirt
G1 X185.487 Y124.054 E.168 ; skirt
G1 X188.458 Y125.485 E.13788 ; skirt
G1 X190.679 Y126.768 E.10723 ; skirt
G1 X192.105 Y127.7 E.0712 ; skirt
G1 X193.38 Y128.61 E.06548 ; skirt
G1 X195.394 Y130.216 E.1077 ; skirt
G1 X197.799 Y132.447 E.13717 ; skirt
G1 X199.55 Y134.333 E.10757 ; skirt
G1 X200.643 Y135.65 E.07157 ; skirt
G1 X201.593 Y136.895 E.06548 ; skirt
G1 X203.045 Y139.024 E.10771 ; skirt
G1 X204.684 Y141.862 E.13703 ; skirt
G1 X206.368 Y145.533 E.16885 ; skirt
G1 X207 Y147.234 E.07586 ; skirt
G1 X207.76 Y149.696 E.10771 ; skirt
G1 X208.47 Y152.791 E.13275 ; skirt
G1 X208.874 Y155.439 E.11199 ; skirt
G1 X209.017 Y156.896 E.0612 ; skirt
G1 X209.14 Y160.174 E.13717 ; skirt
G1 X209.044 Y162.746 E.10757 ; skirt
G1 X208.886 Y164.45 E.07157 ; skirt
G1 X208.491 Y167.1 E.11199 ; skirt
G1 X208.199 Y168.534 E.06119 ; skirt
G1 X207.35 Y171.703 E.13717 ; skirt
G1 X205.946 Y175.487 E.16871 ; skirt
G1 X204.515 Y178.458 E.13788 ; skirt
G1 X203.232 Y180.679 E.10724 ; skirt
G1 X202.3 Y182.105 E.0712 ; skirt
G1 X201.39 Y183.38 E.06548 ; skirt
G1 X199.784 Y185.394 E.10771 ; skirt
G1 X197.549 Y187.803 E.1374 ; skirt
G1 X195.66 Y189.555 E.10771 ; skirt
G1 X194.457 Y190.558 E.06548 ; skirt
G1 X193.097 Y191.599 E.07157 ; skirt
G1 X190.968 Y193.05 E.10771 ; skirt
G1 X188.13 Y194.688 E.13703 ; skirt
G1 X184.467 Y196.368 E.16847 ; skirt
G1 X181.365 Y197.454 E.1374 ; skirt
G1 X177.445 Y198.426 E.16885 ; skirt
G1 X175.644 Y198.731 E.07633 ; skirt
G1 X173.095 Y199.018 E.10723 ; skirt
G1 X169.82 Y199.14 E.13704 ; skirt
G1 X167.231 Y199.042 E.10831 ; skirt
G1 X165.686 Y198.902 E.06487 ; skirt
G1 X163.989 Y198.676 E.07157 ; skirt
G1 X161.457 Y198.197 E.10771 ; skirt
G1 X158.529 Y197.421 E.12665 ; skirt
G1 X156.912 Y196.887 E.07119 ; skirt
G1 X154.513 Y195.946 E.10771 ; skirt
G1 X151.552 Y194.52 E.13741 ; skirt
G1 X149.309 Y193.224 E.10831 ; skirt
G1 X147.895 Y192.3 E.0706 ; skirt
G1 X146.62 Y191.39 E.06548 ; skirt
G1 X144.595 Y189.775 E.10831 ; skirt
G1 X142.201 Y187.553 E.13656 ; skirt
G1 X140.45 Y185.667 E.10757 ; skirt
G1 X139.357 Y184.35 E.07157 ; skirt
G1 X138.407 Y183.105 E.06548 ; skirt
G1 X136.955 Y180.976 E.10771 ; skirt
G1 X135.316 Y178.138 E.13703 ; skirt
G1 X133.632 Y174.467 E.16885 ; skirt
G1 X133 Y172.766 E.07586 ; skirt
G1 X132.24 Y170.304 E.10771 ; skirt
G1 X131.53 Y167.209 E.13275 ; skirt
G1 X131.126 Y164.561 E.11199 ; skirt
G1 X130.983 Y163.104 E.0612 ; skirt
G1 X130.86 Y159.826 E.13717 ; skirt
G1 X130.956 Y157.254 E.10757 ; skirt
G1 X131.114 Y155.55 E.07157 ; skirt
G1 X131.509 Y152.9 E.11199 ; skirt
G1 X131.801 Y151.466 E.06119 ; skirt
G1 X132.65 Y148.297 E.13717 ; skirt
G1 X134.054 Y144.513 E.16871 ; skirt
G1 X135.485 Y141.542 E.13788 ; skirt
G1 X136.768 Y139.321 E.10724 ; skirt
G1 X137.7 Y137.895 E.0712 ; skirt
G1 X138.61 Y136.62 E.06548 ; skirt
G1 X140.216 Y134.606 E.10771 ; skirt
G1 X142.406 Y132.245 E.13466 ; skirt
G1 X142.741 Y132.555 F21000
G1 F3000
G1 X142.764 Y132.53 E.00143 ; skirt
G1 X144.639 Y130.79 E.10693 ; skirt
G1 X145.942 Y129.709 E.07079 ; skirt
G1 X148.343 Y127.947 E.12451 ; skirt
G1 X150.727 Y126.46 E.11747 ; skirt
G1 X152.01 Y125.755 E.06119 ; skirt
G1 X153.362 Y125.077 E.06324 ; skirt
G1 X155.709 Y124.053 E.10706 ; skirt
G1 X158.771 Y122.982 E.13561 ; skirt
G1 X161.234 Y122.323 E.10658 ; skirt
G1 X162.884 Y121.977 E.07048 ; skirt
G1 X164.403 Y121.724 E.06437 ; skirt
G1 X166.947 Y121.437 E.10706 ; skirt
G1 X170.181 Y121.317 E.13529 ; skirt
G1 X172.729 Y121.413 E.10659 ; skirt
G1 X174.408 Y121.569 E.07048 ; skirt
G1 X175.926 Y121.773 E.06406 ; skirt
G1 X178.442 Y122.249 E.10705 ; skirt
G1 X181.575 Y123.089 E.13561 ; skirt
G1 X185.313 Y124.477 E.16669 ; skirt
G1 X188.235 Y125.885 E.13561 ; skirt
G1 X190.443 Y127.16 E.10658 ; skirt
G1 X191.854 Y128.082 E.07049 ; skirt
G1 X193.101 Y128.972 E.06406 ; skirt
G1 X195.104 Y130.569 E.10705 ; skirt
G1 X197.47 Y132.764 E.13496 ; skirt
G1 X199.21 Y134.639 E.10693 ; skirt
G1 X200.292 Y135.942 E.07079 ; skirt
G1 X201.221 Y137.16 E.06405 ; skirt
G1 X202.663 Y139.276 E.10706 ; skirt
G1 X204.276 Y142.068 E.13482 ; skirt
G1 X205.947 Y145.709 E.16749 ; skirt
G1 X206.566 Y147.377 E.07437 ; skirt
G1 X207.321 Y149.824 E.10706 ; skirt
G1 X208.023 Y152.884 E.13126 ; skirt
G1 X208.562 Y156.94 E.17105 ; skirt
G1 X208.683 Y160.166 E.13496 ; skirt
G1 X208.587 Y162.721 E.10693 ; skirt
G1 X208.431 Y164.408 E.07079 ; skirt
G1 X207.751 Y168.442 E.17105 ; skirt
G1 X206.916 Y171.56 E.13496 ; skirt
G1 X205.523 Y175.313 E.16735 ; skirt
G1 X204.115 Y178.235 E.13561 ; skirt
G1 X202.84 Y180.443 E.10659 ; skirt
G1 X201.918 Y181.854 E.07048 ; skirt
G1 X201.028 Y183.101 E.06405 ; skirt
G1 X199.431 Y185.104 E.10706 ; skirt
G1 X197.233 Y187.473 E.13513 ; skirt
G1 X195.356 Y189.215 E.10706 ; skirt
G1 X194.179 Y190.196 E.06406 ; skirt
G1 X192.834 Y191.225 E.0708 ; skirt
G1 X190.718 Y192.667 E.10706 ; skirt
G1 X187.925 Y194.279 E.13482 ; skirt
G1 X184.291 Y195.947 E.16717 ; skirt
G1 X181.24 Y197.014 E.13514 ; skirt
G1 X177.351 Y197.978 E.16749 ; skirt
G1 X175.586 Y198.278 E.07484 ; skirt
G1 X173.053 Y198.563 E.10658 ; skirt
G1 X169.83 Y198.683 E.13483 ; skirt
G1 X167.257 Y198.586 E.10765 ; skirt
G1 X165.745 Y198.448 E.06345 ; skirt
G1 X164.067 Y198.225 E.0708 ; skirt
G1 X161.551 Y197.749 E.10706 ; skirt
G1 X158.671 Y196.987 E.12451 ; skirt
G1 X157.071 Y196.459 E.07048 ; skirt
G1 X154.687 Y195.523 E.10706 ; skirt
G1 X151.774 Y194.121 E.13514 ; skirt
G1 X149.545 Y192.832 E.10765 ; skirt
G1 X148.145 Y191.918 E.06989 ; skirt
G1 X146.899 Y191.028 E.06405 ; skirt
G1 X144.886 Y189.422 E.10765 ; skirt
G1 X142.53 Y187.236 E.13436 ; skirt
G1 X140.79 Y185.361 E.10693 ; skirt
G1 X139.708 Y184.058 E.07079 ; skirt
G1 X138.779 Y182.84 E.06405 ; skirt
G1 X137.337 Y180.724 E.10706 ; skirt
G1 X135.724 Y177.932 E.13482 ; skirt
G1 X134.053 Y174.291 E.16749 ; skirt
G1 X133.434 Y172.623 E.07437 ; skirt
G1 X132.679 Y170.176 E.10706 ; skirt
G1 X131.977 Y167.116 E.13126 ; skirt
G1 X131.438 Y163.06 E.17105 ; skirt
G1 X131.317 Y159.834 E.13496 ; skirt
G1 X131.413 Y157.279 E.10693 ; skirt
G1 X131.569 Y155.592 E.07079 ; skirt
G1 X132.249 Y151.558 E.17105 ; skirt
G1 X133.084 Y148.44 E.13496 ; skirt
G1 X134.477 Y144.687 E.16735 ; skirt
G1 X135.885 Y141.765 E.13561 ; skirt
G1 X137.16 Y139.557 E.10659 ; skirt
G1 X138.082 Y138.146 E.07048 ; skirt
G1 X138.972 Y136.899 E.06405 ; skirt
G1 X140.569 Y134.896 E.10706 ; skirt
G1 X142.7 Y132.599 E.13102 ; skirt
G1 X143.035 Y132.909 F21000
G1 F3000
G1 X143.081 Y132.859 E.00286 ; skirt
G1 X144.945 Y131.13 E.10628 ; skirt
G1 X146.233 Y130.06 E.07001 ; skirt
G1 X148.594 Y128.33 E.12237 ; skirt
G1 X150.963 Y126.851 E.11676 ; skirt
G1 X152.23 Y126.156 E.06041 ; skirt
G1 X155.886 Y124.475 E.16823 ; skirt
G1 X158.896 Y123.422 E.13334 ; skirt
G1 X161.344 Y122.767 E.10593 ; skirt
G1 X162.977 Y122.425 E.06977 ; skirt
G1 X164.461 Y122.177 E.06288 ; skirt
G1 X166.99 Y121.892 E.10641 ; skirt
G1 X170.171 Y121.774 E.13308 ; skirt
G1 X172.703 Y121.869 E.10593 ; skirt
G1 X174.365 Y122.024 E.06977 ; skirt
G1 X175.85 Y122.224 E.06263 ; skirt
G1 X178.35 Y122.697 E.1064 ; skirt
G1 X181.431 Y123.523 E.13334 ; skirt
G1 X185.14 Y124.9 E.16539 ; skirt
G1 X188.013 Y126.284 E.13334 ; skirt
G1 X190.207 Y127.551 E.10593 ; skirt
G1 X191.604 Y128.464 E.06977 ; skirt
G1 X192.823 Y129.335 E.06263 ; skirt
G1 X194.813 Y130.922 E.1064 ; skirt
G1 X197.141 Y133.081 E.13275 ; skirt
G1 X198.87 Y134.945 E.10628 ; skirt
G1 X199.94 Y136.233 E.07002 ; skirt
G1 X200.848 Y137.424 E.06262 ; skirt
G1 X202.282 Y139.527 E.10641 ; skirt
G1 X203.868 Y142.274 E.13262 ; skirt
G1 X205.525 Y145.886 E.16612 ; skirt
G1 X206.132 Y147.52 E.07288 ; skirt
G1 X206.882 Y149.952 E.10641 ; skirt
G1 X207.575 Y152.977 E.12976 ; skirt
G1 X208.107 Y156.984 E.16897 ; skirt
G1 X208.226 Y160.157 E.13274 ; skirt
G1 X208.131 Y162.697 E.10628 ; skirt
G1 X207.976 Y164.365 E.07002 ; skirt
G1 X207.303 Y168.35 E.16897 ; skirt
G1 X206.481 Y171.417 E.13275 ; skirt
G1 X205.1 Y175.14 E.16599 ; skirt
G1 X203.716 Y178.013 E.13334 ; skirt
G1 X202.449 Y180.207 E.10593 ; skirt
G1 X201.536 Y181.604 E.06977 ; skirt
G1 X200.665 Y182.823 E.06262 ; skirt
G1 X199.078 Y184.813 E.10641 ; skirt
G1 X196.917 Y187.143 E.13287 ; skirt
G1 X195.051 Y188.874 E.1064 ; skirt
G1 X193.9 Y189.833 E.06263 ; skirt
G1 X192.571 Y190.851 E.07002 ; skirt
G1 X190.468 Y192.285 E.1064 ; skirt
G1 X187.72 Y193.871 E.13262 ; skirt
G1 X184.114 Y195.525 E.16587 ; skirt
G1 X181.115 Y196.575 E.13287 ; skirt
G1 X177.258 Y197.531 E.16612 ; skirt
G1 X175.528 Y197.824 E.07335 ; skirt
G1 X173.01 Y198.108 E.10593 ; skirt
G1 X169.84 Y198.226 E.13262 ; skirt
G1 X165.805 Y197.995 E.16897 ; skirt
G1 X164.145 Y197.775 E.07002 ; skirt
G1 X161.644 Y197.302 E.10641 ; skirt
G1 X158.814 Y196.553 E.12237 ; skirt
G1 X157.23 Y196.03 E.06977 ; skirt
G1 X154.86 Y195.1 E.10641 ; skirt
G1 X151.997 Y193.721 E.13287 ; skirt
G1 X149.781 Y192.441 E.10699 ; skirt
G1 X148.396 Y191.536 E.06918 ; skirt
G1 X147.177 Y190.665 E.06262 ; skirt
G1 X145.176 Y189.069 E.107 ; skirt
G1 X142.859 Y186.919 E.13215 ; skirt
G1 X141.13 Y185.055 E.10628 ; skirt
G1 X140.06 Y183.767 E.07002 ; skirt
G1 X139.152 Y182.576 E.06262 ; skirt
G1 X137.718 Y180.473 E.10641 ; skirt
G1 X136.132 Y177.726 E.13262 ; skirt
G1 X134.475 Y174.114 E.16612 ; skirt
G1 X133.868 Y172.48 E.07288 ; skirt
G1 X133.118 Y170.048 E.10641 ; skirt
G1 X132.425 Y167.023 E.12976 ; skirt
G1 X131.893 Y163.016 E.16897 ; skirt
G1 X131.774 Y159.843 E.13274 ; skirt
G1 X131.869 Y157.303 E.10628 ; skirt
G1 X132.024 Y155.635 E.07002 ; skirt
G1 X132.697 Y151.65 E.16897 ; skirt
G1 X133.519 Y148.583 E.13275 ; skirt
G1 X134.9 Y144.86 E.16599 ; skirt
G1 X136.284 Y141.987 E.13334 ; skirt
G1 X137.551 Y139.793 E.10593 ; skirt
G1 X138.464 Y138.396 E.06977 ; skirt
G1 X139.335 Y137.177 E.06262 ; skirt
G1 X140.922 Y135.187 E.10641 ; skirt
G1 X142.994 Y132.953 E.12738 ; skirt
G1 X143.328 Y133.264 F21000
G1 F3000
G1 X143.398 Y133.189 E.00429 ; skirt
G1 X145.25 Y131.47 E.10564 ; skirt
G1 X146.525 Y130.412 E.06924 ; skirt
G1 X148.844 Y128.712 E.12023 ; skirt
G1 X151.199 Y127.243 E.11604 ; skirt
G1 X152.449 Y126.556 E.05963 ; skirt
G1 X156.062 Y124.897 E.16622 ; skirt
G1 X159.021 Y123.862 E.13107 ; skirt
G1 X161.454 Y123.21 E.10528 ; skirt
G1 X163.071 Y122.872 E.06905 ; skirt
G1 X167.033 Y122.347 E.16709 ; skirt
G1 X170.161 Y122.231 E.13088 ; skirt
G1 X172.678 Y122.326 E.10528 ; skirt
G1 X174.322 Y122.479 E.06905 ; skirt
G1 X178.258 Y123.145 E.16689 ; skirt
G1 X181.286 Y123.957 E.13107 ; skirt
G1 X184.966 Y125.323 E.16409 ; skirt
G1 X187.791 Y126.683 E.13107 ; skirt
G1 X189.971 Y127.943 E.10528 ; skirt
G1 X191.354 Y128.847 E.06906 ; skirt
G1 X194.523 Y131.275 E.16689 ; skirt
G1 X196.811 Y133.398 E.13053 ; skirt
G1 X198.53 Y135.25 E.10563 ; skirt
G1 X199.588 Y136.525 E.06924 ; skirt
G1 X201.9 Y139.779 E.16689 ; skirt
G1 X203.46 Y142.48 E.13041 ; skirt
G1 X205.103 Y146.062 E.16475 ; skirt
G1 X205.698 Y147.663 E.07139 ; skirt
G1 X206.443 Y150.08 E.10575 ; skirt
G1 X207.128 Y153.071 E.12827 ; skirt
G1 X207.652 Y157.028 E.16689 ; skirt
G1 X207.769 Y160.148 E.13053 ; skirt
G1 X207.674 Y162.673 E.10564 ; skirt
G1 X207.521 Y164.322 E.06924 ; skirt
G1 X206.855 Y168.258 E.16689 ; skirt
G1 X206.047 Y171.274 E.13053 ; skirt
G1 X204.677 Y174.966 E.16463 ; skirt
G1 X203.317 Y177.791 E.13107 ; skirt
G1 X202.057 Y179.971 E.10528 ; skirt
