; HEADER_BLOCK_START
; generated by OrcaSlicer 1.6.2 on 2023-05-21 at 23:42:38
; total layer number: 171
; HEADER_BLOCK_END

; THUMBNAIL_BLOCK_START
; THUMBNAIL_BLOCK_END

; external perimeters extrusion width = 0.40mm
; perimeters extrusion width = 0.45mm
; infill extrusion width = 0.64mm
; solid infill extrusion width = 0.60mm
; top infill extrusion width = 0.40mm
; first layer extrusion width = 0.50mm

; EXECUTABLE_BLOCK_START
EXCLUDE_OBJECT_DEFINE NAME=RetracTest_-_2.stl_id_0_copy_0 CENTER=170,170 POLYGON=[[152.5,168],[152.504,167.843],[152.516,167.686],[152.566,167.376],[152.647,167.073],[152.759,166.78],[152.902,166.5],[153.073,166.237],[153.271,165.993],[153.493,165.771],[153.737,165.573],[154,165.402],[154.28,165.259],[154.573,165.147],[154.876,165.066],[155.186,165.016],[155.343,165.004],[155.5,165],[184.5,165],[184.657,165.004],[184.814,165.016],[185.124,165.066],[185.427,165.147],[185.72,165.259],[186,165.402],[186.263,165.573],[186.507,165.771],[186.729,165.993],[186.927,166.237],[187.098,166.5],[187.241,166.78],[187.353,167.073],[187.434,167.376],[187.484,167.686],[187.496,167.843],[187.5,168],[187.5,172],[187.496,172.157],[187.484,172.314],[187.434,172.624],[187.353,172.927],[187.241,173.22],[187.098,173.5],[186.927,173.763],[186.729,174.007],[186.507,174.229],[186.263,174.427],[186,174.598],[185.72,174.741],[185.427,174.853],[185.124,174.934],[184.814,174.984],[184.657,174.996],[184.5,175],[155.5,175],[155.343,174.996],[155.186,174.984],[154.876,174.934],[154.573,174.853],[154.28,174.741],[154,174.598],[153.737,174.427],[153.493,174.229],[153.271,174.007],[153.073,173.763],[152.902,173.5],[152.759,173.22],[152.647,172.927],[152.566,172.624],[152.516,172.314],[152.504,172.157],[152.5,172],[152.5,168]]
M73 P0 R24
;TYPE:Custom
M190 S90
M109 S220
PRINT_START EXTRUDER=220 BED=90

G90
G21
M83 ; use relative distances for extrusion
START_PRINT EXTRUDER_TEMP=220 BED_TEMP=90 SIZE=151.357_163.857_188.643_176.143
SET_PRESSURE_ADVANCE ADVANCE=0.04; Override pressure advance value
M106 S0 ; disable fan
;LAYER_CHANGE
;Z:0.2
;HEIGHT:0.2
;BEFORE_LAYER_CHANGE
;0.2
G92 E0

G1 E-2.5 F2700 ; retract
;AFTER_LAYER_CHANGE
;0.2
M204 S500 ; adjust acceleration
G1 X152.624 Y165.346 F21000 ; move to first skirt point travel_to_xyz
G1 Z.6 ; move to first skirt point travel_to_xyz
G1 Z.2 ; restore layer Z
G1 E2.5 F1800 ;  ; unretract
;TYPE:Skirt
;WIDTH:0.5
G1 F3000
G1 X153.502 Y164.635 E.04079 ; skirt
G1 X154.336 Y164.264 E.03297 ; skirt
G1 X155.5 Y164.086 E.0425 ; skirt
G1 X184.516 Y164.086 E1.04766 ; skirt
G1 X185.267 Y164.163 E.02724 ; skirt
G1 X186.048 Y164.406 E.02954 ; skirt
G1 X186.498 Y164.635 E.01824 ; skirt
G1 X187.154 Y165.124 E.02954 ; skirt
G1 X187.694 Y165.739 E.02954 ; skirt
G1 X188.055 Y166.365 E.0261 ; skirt
G1 X188.317 Y167.14 E.02954 ; skirt
G1 X188.398 Y167.656 E.01887 ; skirt
G1 X188.413 Y172.048 E.15857 ; skirt
G1 X188.207 Y173.255 E.04421 ; skirt
G1 X187.694 Y174.261 E.04079 ; skirt
G1 X187.154 Y174.876 E.02954 ; skirt
G1 X186.498 Y175.365 E.02954 ; skirt
G1 X185.664 Y175.736 E.03297 ; skirt
G1 X184.5 Y175.914 E.0425 ; skirt
G1 X155.139 Y175.896 E1.06012 ; skirt
G1 X154.245 Y175.707 E.03297 ; skirt
G1 X153.161 Y175.137 E.0442 ; skirt
G1 X152.306 Y174.261 E.0442 ; skirt
G1 X151.764 Y173.164 E.04421 ; skirt
G1 X151.586 Y172 E.0425 ; skirt
G1 X151.587 Y167.952 E.14615 ; skirt
G1 X151.764 Y166.836 E.04079 ; skirt
G1 X152.087 Y166.085 E.02954 ; skirt
G1 X152.589 Y165.395 E.03081 ; skirt
G1 X152.965 Y165.699 F21000
G1 F3000
G1 X153.169 Y165.447 E.01171 ; skirt
G1 X153.792 Y164.995 E.02781 ; skirt
G1 X154.758 Y164.624 E.03734 ; skirt
G1 X155.5 Y164.543 E.02695 ; skirt
G1 X184.516 Y164.543 E1.04766 ; skirt
G1 X185.195 Y164.614 E.02465 ; skirt
G1 X185.884 Y164.833 E.02609 ; skirt
G1 X186.831 Y165.447 E.04075 ; skirt
G1 X187.31 Y165.988 E.02609 ; skirt
G1 X187.648 Y166.572 E.02437 ; skirt
G1 X187.941 Y167.679 E.04135 ; skirt
G1 X187.956 Y172.024 E.15687 ; skirt
G1 X187.78 Y173.091 E.03905 ; skirt
G1 X187.31 Y174.012 E.03734 ; skirt
G1 X186.831 Y174.553 E.02609 ; skirt
G1 X186.208 Y175.005 E.02781 ; skirt
G1 X185.242 Y175.376 E.03734 ; skirt
G1 X184.5 Y175.457 E.02695 ; skirt
G1 X155.162 Y175.44 E1.05926 ; skirt
G1 X154.116 Y175.167 E.03905 ; skirt
G1 X153.205 Y174.585 E.03905 ; skirt
G1 X152.519 Y173.749 E.03905 ; skirt
G1 X152.124 Y172.742 E.03905 ; skirt
G1 X152.043 Y172 E.02695 ; skirt
G1 X152.043 Y168 E.14442 ; skirt
G1 X152.205 Y166.955 E.0382 ; skirt
G1 X152.519 Y166.251 E.02781 ; skirt
G1 X152.927 Y165.746 E.02346 ; skirt
; printing object RetracTest - 2.stl id:0 copy 0
EXCLUDE_OBJECT_START NAME=RetracTest_-_2.stl_id_0_copy_0
G1 E-1.75 F2700 ; retract
;WIPE_START
G1 F3000
G1 X153.169 Y165.447 E-.13695 ; wipe and retract
G1 X153.792 Y164.995 E-.27437 ; wipe and retract
G1 X154.582 Y164.692 E-.30117 ; wipe and retract
;WIPE_END
G1 E-.0375 F2700 ; retract
G1 X165.988 Y165.679 Z.8 F21000 ; move to first perimeter point travel_to_xyz
G1 X186.244 Y167.433 Z.8 ; move to first perimeter point travel_to_xyz
G1 Z.2 ; restore layer Z
G1 E2.5 F1800 ;  ; unretract
;TYPE:Inner wall
G1 F3000
G3 X186.336 Y168.03 I-1.753 J.576 E.02188 ; perimeter
G1 X186.336 Y171.97 E.14225 ; perimeter
G3 X184.47 Y173.836 I-1.846 J.02 E.10617 ; perimeter
G1 X155.53 Y173.836 E1.04487 ; perimeter
G3 X153.664 Y171.97 I-.02 J-1.846 E.10617 ; perimeter
G1 X153.664 Y168.03 E.14222 ; perimeter
G3 X155.53 Y166.164 I1.846 J-.02 E.10617 ; perimeter
G1 X184.485 Y166.165 E1.04543 ; perimeter
G3 X186.224 Y167.377 I.006 J1.845 E.08154 ; perimeter
G1 X186.678 Y167.292 F21000
G1 F3000
G3 X186.793 Y168.018 I-2.188 J.717 E.02664 ; perimeter
G1 X186.793 Y171.981 E.1431 ; perimeter
G3 X184.481 Y174.293 I-2.303 J.009 E.13123 ; perimeter
G1 X155.519 Y174.293 E1.04574 ; perimeter
G3 X153.207 Y171.981 I-.009 J-2.303 E.13123 ; perimeter
G1 X153.207 Y168.019 E.14309 ; perimeter
G3 X155.519 Y165.707 I2.303 J-.009 E.13123 ; perimeter
G1 X184.497 Y165.708 E1.0463 ; perimeter
G3 X186.659 Y167.235 I-.006 J2.302 E.10183 ; perimeter
G1 X187.113 Y167.151 F21000
;TYPE:Outer wall
G1 F3000
G3 X187.25 Y168.006 I-2.622 J.859 E.03141 ; perimeter
G1 X187.25 Y171.993 E.14396 ; perimeter
G3 X184.493 Y174.75 I-2.76 J-.003 E.15628 ; perimeter
G1 X155.507 Y174.75 E1.0466 ; perimeter
G3 X152.75 Y171.993 I.003 J-2.76 E.15628 ; perimeter
G1 X152.75 Y168.007 E.14395 ; perimeter
G3 X155.507 Y165.25 I2.755 J-.002 E.15637 ; perimeter
G1 X184.509 Y165.25 E1.04718 ; perimeter
G3 X187.094 Y167.094 I-.019 J2.759 E.12212 ; perimeter
G1 X187.075 Y167.194 ; move inwards before travel
G1 E-1.75 F2700 ; retract
;WIPE_START
G1 F3000
G1 X187.189 Y167.428 E-.12366 ; wipe and retract
G1 X187.236 Y167.728 E-.1082 ; wipe and retract
G1 X187.25 Y168.006 E-.09929 ; wipe and retract
G1 X187.25 Y169.077 E-.38134 ; wipe and retract
;WIPE_END
G1 E-.0375 F2700 ; retract
G1 X186.116 Y167.514 Z.8 F21000 ; move to first infill point travel_to_xyz
G1 Z.2 ; restore layer Z
G1 E2.5 F1800 ;  ; unretract
;TYPE:Bottom surface
;WIDTH:0.504446
G1 F6000
G1 X185.49 Y166.888 E.03229 ; infill
G2 X184.456 Y166.507 I-1.063 J1.293 E.04091 ; infill
G1 X185.983 Y168.034 E.0787 ; infill
G1 X185.985 Y168.688 E.02386 ; infill
G1 X183.804 Y166.507 E.11244 ; infill
G1 X183.151 Y166.507 E.0238 ; infill
G1 X185.986 Y169.343 E.14618 ; infill
G1 X185.988 Y169.997 E.02386 ; infill
G1 X182.498 Y166.507 E.17992 ; infill
G1 X181.846 Y166.507 E.0238 ; infill
G1 X185.99 Y170.651 E.21366 ; infill
G1 X185.991 Y171.306 E.02386 ; infill
G1 X181.193 Y166.507 E.2474 ; infill
G1 X180.54 Y166.507 E.0238 ; infill
G1 X185.992 Y171.959 E.2811 ; infill
G3 X185.92 Y172.452 I-1.553 J.025 E.01823 ; infill
G1 X185.893 Y172.513 E.00243 ; infill
G1 X179.888 Y166.507 E.30964 ; infill
G1 X179.235 Y166.507 E.0238 ; infill
M73 P1 R24
G1 X185.656 Y172.929 E.33108 ; infill
G3 X185.314 Y173.239 I-.894 J-.641 E.01697 ; infill
G1 X178.582 Y166.507 E.3471 ; infill
G1 X177.929 Y166.507 E.0238 ; infill
G1 X184.862 Y173.44 E.35744 ; infill
G1 X184.81 Y173.457 E.00198 ; infill
G3 X184.262 Y173.493 I-.453 J-2.688 E.02005 ; infill
G1 X177.277 Y166.507 E.36017 ; infill
G1 X176.624 Y166.507 E.0238 ; infill
G1 X183.61 Y173.493 E.36018 ; infill
G1 X182.957 Y173.493 E.0238 ; infill
G1 X175.971 Y166.507 E.36018 ; infill
G1 X175.319 Y166.507 E.0238 ; infill
G1 X182.304 Y173.493 E.36018 ; infill
G1 X181.652 Y173.493 E.0238 ; infill
G1 X174.666 Y166.507 E.36018 ; infill
G1 X174.013 Y166.507 E.0238 ; infill
G1 X180.999 Y173.493 E.36018 ; infill
G1 X180.346 Y173.493 E.0238 ; infill
G1 X173.36 Y166.507 E.36018 ; infill
G1 X172.708 Y166.507 E.0238 ; infill
G1 X179.694 Y173.493 E.36018 ; infill
G1 X179.041 Y173.493 E.0238 ; infill
G1 X172.055 Y166.507 E.36018 ; infill
G1 X171.402 Y166.507 E.0238 ; infill
G1 X178.388 Y173.493 E.36018 ; infill
G1 X177.736 Y173.493 E.0238 ; infill
G1 X170.75 Y166.507 E.36018 ; infill
G1 X170.097 Y166.507 E.0238 ; infill
G1 X177.083 Y173.493 E.36018 ; infill
G1 X176.43 Y173.493 E.0238 ; infill
G1 X169.444 Y166.507 E.36018 ; infill
G1 X168.792 Y166.507 E.0238 ; infill
G1 X175.777 Y173.493 E.36018 ; infill
G1 X175.125 Y173.493 E.0238 ; infill
G1 X168.139 Y166.507 E.36018 ; infill
G1 X167.486 Y166.507 E.0238 ; infill
G1 X174.472 Y173.493 E.36018 ; infill
G1 X173.819 Y173.493 E.0238 ; infill
G1 X166.833 Y166.507 E.36018 ; infill
G1 X166.181 Y166.507 E.0238 ; infill
G1 X173.167 Y173.493 E.36018 ; infill
G1 X172.514 Y173.493 E.0238 ; infill
G1 X165.528 Y166.507 E.36018 ; infill
G1 X164.875 Y166.507 E.0238 ; infill
G1 X171.861 Y173.493 E.36018 ; infill
G1 X171.209 Y173.493 E.0238 ; infill
G1 X164.223 Y166.507 E.36018 ; infill
G1 X163.57 Y166.507 E.0238 ; infill
G1 X170.556 Y173.493 E.36019 ; infill
G1 X169.903 Y173.493 E.0238 ; infill
G1 X162.917 Y166.507 E.36019 ; infill
G1 X162.264 Y166.507 E.0238 ; infill
G1 X169.25 Y173.493 E.36019 ; infill
G1 X168.598 Y173.493 E.0238 ; infill
G1 X161.612 Y166.507 E.36019 ; infill
G1 X160.959 Y166.507 E.0238 ; infill
G1 X167.945 Y173.493 E.36019 ; infill
G1 X167.292 Y173.493 E.0238 ; infill
G1 X160.306 Y166.507 E.36019 ; infill
G1 X159.654 Y166.507 E.0238 ; infill
G1 X166.64 Y173.493 E.36019 ; infill
G1 X165.987 Y173.493 E.0238 ; infill
G1 X159.001 Y166.507 E.36019 ; infill
G1 X158.348 Y166.507 E.0238 ; infill
G1 X165.334 Y173.493 E.36019 ; infill
G1 X164.682 Y173.493 E.0238 ; infill
G1 X157.696 Y166.507 E.36019 ; infill
G1 X157.043 Y166.507 E.0238 ; infill
G1 X164.029 Y173.493 E.36019 ; infill
G1 X163.376 Y173.493 E.0238 ; infill
G1 X156.39 Y166.507 E.36019 ; infill
G1 X155.737 Y166.507 E.0238 ; infill
G1 X162.723 Y173.493 E.36019 ; infill
G1 X162.071 Y173.493 E.0238 ; infill
G1 X155.134 Y166.557 E.35763 ; infill
G2 X154.681 Y166.756 I.714 J2.233 E.01808 ; infill
G1 X161.418 Y173.493 E.34734 ; infill
G1 X160.765 Y173.493 E.0238 ; infill
G1 X154.344 Y167.071 E.3311 ; infill
G2 X154.108 Y167.489 I.826 J.74 E.01761 ; infill
G1 X160.113 Y173.493 E.30957 ; infill
G1 X159.46 Y173.493 E.0238 ; infill
G1 X154.008 Y168.041 E.28111 ; infill
G1 X154.007 Y168.693 E.02377 ; infill
G1 X158.807 Y173.493 E.2475 ; infill
G1 X158.155 Y173.493 E.0238 ; infill
G1 X154.007 Y169.345 E.21385 ; infill
G1 X154.007 Y169.998 E.0238 ; infill
G1 X157.502 Y173.493 E.18019 ; infill
G1 X156.849 Y173.493 E.0238 ; infill
G1 X154.007 Y170.651 E.14654 ; infill
G1 X154.007 Y171.303 E.0238 ; infill
G1 X156.197 Y173.493 E.11289 ; infill
G1 X155.544 Y173.493 E.0238 ; infill
G1 X154.007 Y171.957 E.07922 ; infill
G2 X154.388 Y172.99 I1.527 J.024 E.04109 ; infill
G1 X155.021 Y173.623 E.03262 ; infill
; stop printing object RetracTest - 2.stl id:0 copy 0
EXCLUDE_OBJECT_END NAME=RetracTest_-_2.stl_id_0_copy_0
;LAYER_CHANGE
;Z:0.35
;HEIGHT:0.15
;BEFORE_LAYER_CHANGE
;0.35
G92 E0

G1 E-1.75 F2700 ; retract
;WIPE_START
G1 F6000
G1 X154.388 Y172.99 E-.31876 ; wipe and retract
G1 X154.205 Y172.737 E-.11134 ; wipe and retract
G1 X154.142 Y172.614 E-.04917 ; wipe and retract
G1 X154.043 Y172.31 E-.11392 ; wipe and retract
G1 X154.009 Y171.977 E-.11931 ; wipe and retract
;WIPE_END
G1 E-.0375 F2700 ; retract
;AFTER_LAYER_CHANGE
;0.35
M204 S5000 ; adjust acceleration
M104 S205 ; set nozzle temperature
M140 S80 ; set bed temperature
; printing object RetracTest - 2.stl id:0 copy 0
EXCLUDE_OBJECT_START NAME=RetracTest_-_2.stl_id_0_copy_0
M204 S6000 ; adjust acceleration
G17
G3 Z.8 I-.228 J1.811 P1  F21000 ; spiral lift Z
G1 X170 Y173.989 Z.8 ; move to first perimeter point travel_to_xyz
G1 Z.35 ; restore layer Z
G1 E2.5 F1800 ;  ; unretract
M204 S4500 ; adjust acceleration
;TYPE:Inner wall
;WIDTH:0.45
G1 F5463
G1 X155.526 Y173.989 E.35826 ; perimeter
G3 X153.511 Y171.974 I-.016 J-1.999 E.07856 ; perimeter
G1 X153.511 Y168.026 E.0977 ; perimeter
G3 X155.526 Y166.011 I2.019 J.003 E.07834 ; perimeter
G1 X184.516 Y166.012 E.71757 ; perimeter
G3 X186.489 Y168.024 I-.024 J1.998 E.07745 ; perimeter
M73 P2 R24
G1 X186.489 Y171.974 E.09775 ; perimeter
G3 X184.474 Y173.989 I-2.019 J-.003 E.07835 ; perimeter
G1 X170.06 Y173.989 E.35678 ; perimeter
M204 S5000 ; adjust acceleration
M204 S6000 ; adjust acceleration
G1 X170 Y174.407 F21000
M204 S4500 ; adjust acceleration
G1 F5463
G1 X155.516 Y174.407 E.35853 ; perimeter
G3 X153.093 Y171.984 I-.006 J-2.417 E.09426 ; perimeter
G1 X153.093 Y168.016 E.09824 ; perimeter
G3 X155.516 Y165.593 I2.415 J-.007 E.09428 ; perimeter
G1 X184.528 Y165.594 E.71814 ; perimeter
G3 X186.907 Y168.014 I-.034 J2.413 E.09318 ; perimeter
G1 X186.907 Y171.984 E.09827 ; perimeter
G3 X185.307 Y174.264 I-2.417 J.005 E.07347 ; perimeter
G1 X185.307 Y174.264 E0 ; perimeter
G3 X184.484 Y174.407 I-.814 J-2.245 E.02078 ; perimeter
G1 X170.06 Y174.407 E.35705 ; perimeter
M204 S5000 ; adjust acceleration
M204 S6000 ; adjust acceleration
G1 X170 Y174.8 F21000
M204 S3000 ; adjust acceleration
;TYPE:Outer wall
;WIDTH:0.4
G1 F5463
G1 X155.505 Y174.8 E.31585 ; perimeter
G3 X152.7 Y171.995 I.005 J-2.81 E.09598 ; perimeter
G1 X152.7 Y168.005 E.08693 ; perimeter
G3 X155.505 Y165.2 I2.811 J.005 E.09597 ; perimeter
G1 X184.539 Y165.201 E.63266 ; perimeter
G3 X187.3 Y168.005 I-.047 J2.808 E.09501 ; perimeter
G1 X187.3 Y171.995 E.08694 ; perimeter
G3 X184.495 Y174.8 I-2.809 J-.004 E.09598 ; perimeter
G1 X170.06 Y174.8 E.31454 ; perimeter
G1 X169.96 Y174.731 ; move inwards before travel
M204 S5000 ; adjust acceleration
M204 S6000 ; adjust acceleration
G1 E-1.75 F2700 ; retract
;WIPE_START
G1 F5700
G1 X168.06 Y174.8 E-.7125 ; wipe and retract
;WIPE_END
G1 E-.0375 F2700 ; retract
G1 X179.489 Y174.128 Z.95 F21000 ; move to first infill point travel_to_xyz
G1 X184.972 Y173.805 Z.95 ; move to first infill point travel_to_xyz
G1 Z.35 ; restore layer Z
G1 E2.5 F1800 ;  ; unretract
M204 S5000 ; adjust acceleration
;TYPE:Internal solid infill
;WIDTH:0.609486
G1 F5463
G1 X185.715 Y173.063 E.03592 ; infill
G2 X186.12 Y171.955 I-1.227 J-1.076 E.04127 ; infill
G1 X186.119 Y171.842 E.00388 ; infill
G1 X184.341 Y173.62 E.086 ; infill
G1 X183.525 Y173.62 E.02792 ; infill
G1 X186.117 Y171.027 E.12539 ; infill
G1 X186.115 Y170.213 E.02785 ; infill
G1 X182.709 Y173.62 E.16478 ; infill
G1 X181.892 Y173.62 E.02792 ; infill
G1 X186.113 Y169.399 E.20416 ; infill
G1 X186.111 Y168.584 E.02785 ; infill
G1 X181.076 Y173.62 E.24355 ; infill
G1 X180.259 Y173.62 E.02792 ; infill
G1 X186.101 Y167.778 E.28254 ; infill
G2 X185.883 Y167.18 I-1.869 J.342 E.02189 ; infill
G1 X179.443 Y173.62 E.31148 ; infill
G1 X178.626 Y173.62 E.02792 ; infill
G1 X185.504 Y166.742 E.33265 ; infill
G2 X184.968 Y166.462 I-.849 J.97 E.02088 ; infill
G1 X177.81 Y173.62 E.34622 ; infill
G1 X176.994 Y173.62 E.02792 ; infill
G1 X184.232 Y166.381 E.35011 ; infill
G1 X183.416 Y166.381 E.02792 ; infill
G1 X176.177 Y173.62 E.35011 ; infill
G1 X175.361 Y173.62 E.02792 ; infill
G1 X182.599 Y166.381 E.35011 ; infill
G1 X181.783 Y166.381 E.02792 ; infill
G1 X174.544 Y173.62 E.35012 ; infill
G1 X173.728 Y173.62 E.02792 ; infill
G1 X180.966 Y166.381 E.35012 ; infill
G1 X180.15 Y166.381 E.02792 ; infill
G1 X172.912 Y173.62 E.35012 ; infill
G1 X172.095 Y173.62 E.02792 ; infill
G1 X179.334 Y166.381 E.35012 ; infill
