; HEADER_BLOCK_START
; generated by OrcaSlicer 1.6.2 on 2023-05-22 at 12:10:58
; total layer number: 333
; HEADER_BLOCK_END

; THUMBNAIL_BLOCK_START
; THUMBNAIL_BLOCK_END

; external perimeters extrusion width = 0.40mm
; perimeters extrusion width = 0.45mm
; infill extrusion width = 0.64mm
; solid infill extrusion width = 0.60mm
; top infill extrusion width = 0.40mm
; first layer extrusion width = 0.50mm

; EXECUTABLE_BLOCK_START
EXCLUDE_OBJECT_DEFINE NAME=smart_compact_temp_calibration.stl_id_0_copy_0 CENTER=160,160 POLYGON=[[137.756,159.005],[137.769,158.992],[137.802,158.96],[137.823,158.94],[137.874,158.892],[137.977,158.803],[138.005,158.782],[138.28,158.581],[138.38,158.519],[138.824,158.28],[138.868,158.259],[139.349,158.064],[139.482,158.019],[139.891,157.896],[140.011,157.865],[140.208,157.818],[140.24,157.811],[140.267,157.805],[140.407,157.776],[140.409,157.776],[140.452,157.767],[140.556,157.748],[140.594,157.741],[140.704,157.723],[140.834,157.702],[140.892,157.694],[141.097,157.668],[141.143,157.662],[141.189,157.657],[141.497,157.629],[141.527,157.626],[141.609,157.621],[141.652,157.618],[141.672,157.617],[141.704,157.615],[141.715,157.614],[141.775,157.611],[141.855,157.608],[141.946,157.605],[148.255,157.4],[163.255,157.4],[182.244,157.6],[182.244,162.6],[142.215,162.6],[141.946,162.595],[141.855,162.592],[141.775,162.589],[141.715,162.586],[141.7,162.585],[141.661,162.583],[141.652,162.582],[141.609,162.579],[141.57,162.577],[141.527,162.574],[141.497,162.571],[141.3,162.554],[141.143,162.538],[141.097,162.532],[140.951,162.514],[140.842,162.498],[140.705,162.478],[140.588,162.458],[140.556,162.452],[140.523,162.446],[140.405,162.423],[140.361,162.415],[140.264,162.394],[140.243,162.39],[140.215,162.383],[140.017,162.337],[139.8,162.279],[139.558,162.206],[139.193,162.078],[139.152,162.062],[138.672,161.846],[138.644,161.831],[138.215,161.575],[138.208,161.571],[138.019,161.431],[137.899,161.33],[137.892,161.324],[137.834,161.271],[137.777,161.216],[137.759,161.197],[137.756,159.005]]
M73 P0 R51
;TYPE:Custom
M190 S90
M109 S220
PRINT_START EXTRUDER=220 BED=90

G90
G21
M83 ; use relative distances for extrusion
START_PRINT EXTRUDER_TEMP=220 BED_TEMP=90 SIZE=133.881_150.108_180.17_170.092
SET_PRESSURE_ADVANCE ADVANCE=0.04; Override pressure advance value
M106 S0 ; disable fan
;LAYER_CHANGE
;Z:0.2
;HEIGHT:0.2
;BEFORE_LAYER_CHANGE
;0.2
G92 E0

G1 E-2.5 F2700 ; retract
;AFTER_LAYER_CHANGE
;0.2
M204 S500 ; adjust acceleration
G1 X136.803 Y152.091 F21000 ; move to first skirt point travel_to_xyz
G1 Z.6 ; move to first skirt point travel_to_xyz
G1 Z.2 ; restore layer Z
G1 E2.5 F1800 ;  ; unretract
;TYPE:Skirt
;WIDTH:0.5
G1 F3000
G1 X137.543 Y151.542 E.03329 ; skirt
G1 X138.339 Y151.094 E.03299 ; skirt
G1 X139.185 Y150.749 E.03299 ; skirt
G1 X140.182 Y150.491 E.03716 ; skirt
G1 X142.213 Y150.337 E.07357 ; skirt
G1 X172.585 Y150.339 E1.09659 ; skirt
G1 X174.282 Y150.552 E.06175 ; skirt
G1 X175.262 Y150.869 E.03719 ; skirt
G1 X176.112 Y151.277 E.03406 ; skirt
G1 X176.871 Y151.754 E.03236 ; skirt
G1 X177.584 Y152.335 E.03321 ; skirt
G1 X178.286 Y153.085 E.0371 ; skirt
G1 X179.202 Y154.529 E.06175 ; skirt
G1 X179.618 Y155.606 E.04168 ; skirt
G1 X179.842 Y156.561 E.03542 ; skirt
G1 X179.941 Y157.75 E.04307 ; skirt
G1 X179.939 Y162.507 E.17176 ; skirt
G1 X179.875 Y163.418 E.03299 ; skirt
G1 X179.452 Y165.075 E.06175 ; skirt
G1 X179.001 Y166.034 E.03826 ; skirt
G1 X178.524 Y166.793 E.03236 ; skirt
G1 X177.943 Y167.506 E.03321 ; skirt
G1 X177.281 Y168.136 E.03299 ; skirt
G1 X176.546 Y168.678 E.03299 ; skirt
G1 X175.63 Y169.179 E.03768 ; skirt
G1 X174.672 Y169.54 E.03699 ; skirt
G1 X173.717 Y169.764 E.03542 ; skirt
G1 X172.528 Y169.863 E.04307 ; skirt
G1 X141.002 Y169.814 E1.13827 ; skirt
G1 X140.097 Y169.693 E.03299 ; skirt
G1 X139.213 Y169.46 E.03299 ; skirt
G1 X138.366 Y169.119 E.03299 ; skirt
G1 X136.919 Y168.206 E.06175 ; skirt
G1 X136.227 Y167.569 E.03398 ; skirt
G1 X135.55 Y166.775 E.03769 ; skirt
G1 X135.048 Y166.001 E.03329 ; skirt
G1 X134.609 Y165.072 E.0371 ; skirt
G1 X134.18 Y163.417 E.06175 ; skirt
G1 X134.11 Y162.421 E.03604 ; skirt
G1 X134.112 Y157.722 E.16966 ; skirt
G1 X134.176 Y156.811 E.03299 ; skirt
G1 X134.353 Y155.914 E.03299 ; skirt
G1 X134.641 Y155.047 E.03299 ; skirt
G1 X135.034 Y154.223 E.03299 ; skirt
G1 X135.529 Y153.453 E.03305 ; skirt
G1 X136.126 Y152.738 E.03362 ; skirt
G1 X136.759 Y152.132 E.03164 ; skirt
G1 X137.075 Y152.463 F21000
G1 F3000
G1 X137.119 Y152.421 E.00217 ; skirt
G1 X137.812 Y151.911 E.03108 ; skirt
G1 X138.56 Y151.494 E.03093 ; skirt
G1 X139.355 Y151.174 E.03093 ; skirt
G1 X140.24 Y150.944 E.03302 ; skirt
G1 X142.213 Y150.794 E.07147 ; skirt
G1 X172.556 Y150.795 E1.09556 ; skirt
G1 X174.197 Y151.001 E.05969 ; skirt
G1 X175.067 Y151.282 E.03303 ; skirt
G1 X175.869 Y151.664 E.03207 ; skirt
G1 X176.628 Y152.141 E.03236 ; skirt
G1 X177.292 Y152.687 E.03104 ; skirt
G1 X177.916 Y153.353 E.03298 ; skirt
G1 X178.802 Y154.749 E.05969 ; skirt
G1 X179.19 Y155.767 E.03934 ; skirt
G1 X179.396 Y156.662 E.03314 ; skirt
G1 X179.484 Y157.75 E.03942 ; skirt
G1 X179.483 Y162.479 E.17073 ; skirt
G1 X179.426 Y163.333 E.03093 ; skirt
G1 X179.017 Y164.935 E.05969 ; skirt
G1 X178.614 Y165.791 E.03417 ; skirt
G1 X178.137 Y166.55 E.03236 ; skirt
G1 X177.591 Y167.214 E.03104 ; skirt
G1 X176.968 Y167.802 E.03093 ; skirt
G1 X176.277 Y168.308 E.03093 ; skirt
G1 X175.469 Y168.751 E.03327 ; skirt
G1 X174.511 Y169.112 E.03699 ; skirt
G1 X173.616 Y169.318 E.03314 ; skirt
G1 X172.528 Y169.406 E.03942 ; skirt
G1 X141.059 Y169.361 E1.13621 ; skirt
G1 X140.21 Y169.25 E.03093 ; skirt
G1 X139.381 Y169.035 E.03093 ; skirt
G1 X138.585 Y168.718 E.03093 ; skirt
G1 X137.187 Y167.836 E.05969 ; skirt
G1 X136.54 Y167.235 E.03189 ; skirt
G1 X135.899 Y166.48 E.03575 ; skirt
G1 X135.434 Y165.756 E.03108 ; skirt
G1 X135.043 Y164.93 E.03298 ; skirt
G1 X134.628 Y163.33 E.05969 ; skirt
G1 X134.567 Y162.421 E.03289 ; skirt
G1 X134.568 Y157.75 E.16863 ; skirt
G1 X134.625 Y156.896 E.03093 ; skirt
G1 X134.788 Y156.055 E.03093 ; skirt
G1 X135.055 Y155.241 E.03093 ; skirt
G1 X135.421 Y154.467 E.03093 ; skirt
G1 X135.882 Y153.743 E.03096 ; skirt
G1 X136.442 Y153.068 E.03168 ; skirt
G1 X137.032 Y152.504 E.02947 ; skirt
; printing object smart_compact_temp_calibration.stl id:0 copy 0
EXCLUDE_OBJECT_START NAME=smart_compact_temp_calibration.stl_id_0_copy_0
G1 X137.506 Y152.999 F21000
;TYPE:Brim
G1 F3000
G1 X137.582 Y152.927 E.00378 ; brim
G1 X138.204 Y152.474 E.0278 ; brim
G1 X138.879 Y152.101 E.02784 ; brim
G1 X139.595 Y151.816 E.02784 ; brim
G1 X140.341 Y151.622 E.02783 ; brim
G1 X141.134 Y151.521 E.02885 ; brim
G1 X142.218 Y151.479 E.03917 ; brim
G1 X172.521 Y151.479 E1.09411 ; brim
G1 X173.297 Y151.528 E.02809 ; brim
G1 X174.055 Y151.672 E.02784 ; brim
G1 X174.788 Y151.909 E.02782 ; brim
G1 X175.516 Y152.252 E.02905 ; brim
G1 X176.25 Y152.713 E.03131 ; brim
G1 X176.843 Y153.205 E.02781 ; brim
G1 X177.37 Y153.768 E.02784 ; brim
G1 X177.823 Y154.392 E.02784 ; brim
G1 X178.193 Y155.065 E.02776 ; brim
G1 X178.543 Y155.994 E.03583 ; brim
G1 X178.724 Y156.796 E.02969 ; brim
G1 X178.798 Y157.759 E.03486 ; brim
G1 X178.798 Y162.443 E.16912 ; brim
G1 X178.75 Y163.219 E.02809 ; brim
G1 X178.606 Y163.977 E.02784 ; brim
G1 X178.369 Y164.71 E.02782 ; brim
G1 X178.026 Y165.438 E.02905 ; brim
G1 X177.565 Y166.172 E.03131 ; brim
G1 X177.073 Y166.765 E.02781 ; brim
G1 X176.51 Y167.292 E.02784 ; brim
G1 X175.886 Y167.745 E.02784 ; brim
G1 X175.212 Y168.115 E.02776 ; brim
G1 X174.284 Y168.465 E.03583 ; brim
G1 X173.482 Y168.646 E.02969 ; brim
G1 X172.519 Y168.721 E.03486 ; brim
G1 X142.22 Y168.721 E1.09397 ; brim
G1 X141.135 Y168.679 E.03922 ; brim
G1 X140.366 Y168.583 E.02799 ; brim
G1 X139.619 Y168.392 E.02784 ; brim
G1 X138.901 Y168.109 E.02784 ; brim
G1 X138.225 Y167.739 E.02784 ; brim
G1 X137.6 Y167.288 E.02783 ; brim
G1 X137.018 Y166.744 E.02878 ; brim
G1 X136.433 Y166.05 E.03276 ; brim
G1 X136.02 Y165.4 E.0278 ; brim
G1 X135.691 Y164.703 E.02784 ; brim
G1 X135.451 Y163.97 E.02784 ; brim
G1 X135.304 Y163.214 E.02783 ; brim
G1 X135.253 Y162.414 E.02895 ; brim
G1 X135.252 Y157.786 E.16708 ; brim
G1 X135.301 Y157.01 E.02809 ; brim
G1 X135.445 Y156.252 E.02784 ; brim
G1 X135.682 Y155.519 E.02784 ; brim
G1 X136.009 Y154.82 E.02784 ; brim
G1 X136.42 Y154.168 E.02783 ; brim
G1 X136.926 Y153.554 E.02873 ; brim
G1 X137.463 Y153.041 E.02682 ; brim
G1 X137.779 Y153.371 F21000
G1 F3000
G1 X137.869 Y153.285 E.0045 ; brim
G1 X138.443 Y152.865 E.02568 ; brim
G1 X139.067 Y152.52 E.02577 ; brim
G1 X139.73 Y152.254 E.02577 ; brim
G1 X140.437 Y152.071 E.02637 ; brim
G1 X141.165 Y151.977 E.02653 ; brim
G1 X142.229 Y151.937 E.03843 ; brim
G1 X172.511 Y151.937 E1.09335 ; brim
G1 X173.249 Y151.984 E.0267 ; brim
G1 X173.95 Y152.118 E.02577 ; brim
G1 X174.628 Y152.338 E.02574 ; brim
G1 X175.303 Y152.658 E.02698 ; brim
G1 X175.974 Y153.079 E.0286 ; brim
G1 X176.522 Y153.533 E.0257 ; brim
G1 X177.022 Y154.066 E.02638 ; brim
G1 X177.431 Y154.63 E.02515 ; brim
G1 X177.772 Y155.248 E.0255 ; brim
G1 X178.101 Y156.116 E.03351 ; brim
G1 X178.271 Y156.874 E.02805 ; brim
G1 X178.341 Y157.782 E.03286 ; brim
G1 X178.341 Y162.433 E.16793 ; brim
G1 X178.294 Y163.171 E.0267 ; brim
G1 X178.164 Y163.855 E.02515 ; brim
G1 X177.946 Y164.533 E.02573 ; brim
G1 X177.62 Y165.225 E.02761 ; brim
G1 X177.199 Y165.896 E.0286 ; brim
G1 X176.745 Y166.444 E.0257 ; brim
G1 X176.225 Y166.933 E.02577 ; brim
G1 X175.648 Y167.353 E.02577 ; brim
G1 X175.029 Y167.694 E.0255 ; brim
G1 X174.161 Y168.023 E.03351 ; brim
G1 X173.403 Y168.193 E.02805 ; brim
G1 X172.496 Y168.263 E.03286 ; brim
G1 X142.231 Y168.263 E1.09273 ; brim
G1 X141.166 Y168.223 E.03849 ; brim
G1 X140.443 Y168.131 E.02633 ; brim
G1 X139.752 Y167.953 E.02577 ; brim
G1 X139.088 Y167.69 E.02577 ; brim
G1 X138.462 Y167.347 E.02577 ; brim
G1 X137.898 Y166.94 E.02512 ; brim
G1 X137.345 Y166.422 E.02736 ; brim
G1 X136.808 Y165.786 E.03005 ; brim
G1 X136.426 Y165.186 E.02568 ; brim
G1 X136.113 Y164.526 E.02638 ; brim
G1 X135.897 Y163.864 E.02515 ; brim
G1 X135.76 Y163.164 E.02574 ; brim
G1 X135.71 Y162.394 E.02784 ; brim
G1 X135.71 Y157.805 E.16572 ; brim
G1 X135.755 Y157.075 E.02639 ; brim
G1 X135.891 Y156.357 E.02638 ; brim
G1 X136.112 Y155.679 E.02577 ; brim
G1 X136.415 Y155.033 E.02577 ; brim
G1 X136.796 Y154.43 E.02575 ; brim
G1 X137.267 Y153.86 E.02669 ; brim
G1 X137.735 Y153.413 E.02339 ; brim
G1 X138.051 Y153.743 F21000
G1 F3000
G1 X138.156 Y153.642 E.00525 ; brim
G1 X138.683 Y153.256 E.02356 ; brim
G1 X139.272 Y152.93 E.02431 ; brim
G1 X139.881 Y152.687 E.02369 ; brim
G1 X140.532 Y152.519 E.02427 ; brim
G1 X141.197 Y152.434 E.02422 ; brim
G1 X142.241 Y152.394 E.0377 ; brim
G1 X172.492 Y152.394 E1.09225 ; brim
G1 X173.199 Y152.44 E.0256 ; brim
G1 X173.827 Y152.56 E.02308 ; brim
G1 X174.45 Y152.761 E.02365 ; brim
G1 X175.09 Y153.064 E.02554 ; brim
G1 X175.698 Y153.446 E.02592 ; brim
G1 X176.202 Y153.861 E.02358 ; brim
G1 X176.674 Y154.365 E.02492 ; brim
G1 X177.049 Y154.883 E.02309 ; brim
G1 X177.352 Y155.432 E.02264 ; brim
G1 X177.658 Y156.239 E.03117 ; brim
G1 X177.819 Y156.952 E.0264 ; brim
G1 X177.884 Y157.805 E.03087 ; brim
G1 X177.884 Y162.423 E.16673 ; brim
G1 X177.838 Y163.122 E.0253 ; brim
G1 X177.718 Y163.75 E.02311 ; brim
G1 X177.522 Y164.357 E.02302 ; brim
G1 X177.222 Y164.998 E.02556 ; brim
G1 X176.832 Y165.62 E.0265 ; brim
G1 X176.416 Y166.124 E.0236 ; brim
G1 X175.939 Y166.574 E.0237 ; brim
G1 X175.409 Y166.962 E.0237 ; brim
G1 X174.846 Y167.274 E.02325 ; brim
G1 X174.039 Y167.581 E.03117 ; brim
G1 X173.325 Y167.741 E.0264 ; brim
G1 X172.473 Y167.806 E.03087 ; brim
G1 X142.243 Y167.806 E1.09149 ; brim
G1 X141.198 Y167.766 E.03776 ; brim
G1 X140.521 Y167.679 E.02466 ; brim
G1 X139.885 Y167.514 E.0237 ; brim
G1 X139.275 Y167.272 E.0237 ; brim
G1 X138.714 Y166.964 E.0231 ; brim
G1 X138.183 Y166.58 E.02367 ; brim
G1 X137.672 Y166.101 E.02531 ; brim
G1 X137.172 Y165.507 E.02802 ; brim
G1 X136.823 Y164.957 E.02352 ; brim
G1 X136.543 Y164.364 E.02368 ; brim
G1 X136.342 Y163.756 E.0231 ; brim
G1 X136.214 Y163.096 E.02428 ; brim
G1 X136.167 Y162.375 E.0261 ; brim
G1 X136.167 Y157.823 E.16435 ; brim
G1 X136.211 Y157.124 E.0253 ; brim
G1 X136.338 Y156.463 E.0243 ; brim
G1 X136.541 Y155.839 E.02368 ; brim
G1 X136.821 Y155.246 E.0237 ; brim
G1 X137.173 Y154.692 E.02367 ; brim
G1 X137.608 Y154.167 E.02465 ; brim
G1 X138.008 Y153.784 E.01997 ; brim
G1 X138.324 Y154.114 F21000
G1 F3000
G1 X138.444 Y153.999 E.00601 ; brim
G1 X138.922 Y153.647 E.02144 ; brim
G1 X139.46 Y153.348 E.02222 ; brim
G1 X140.032 Y153.12 E.02222 ; brim
G1 X140.627 Y152.968 E.02218 ; brim
G1 X141.229 Y152.891 E.02192 ; brim
G1 X142.252 Y152.851 E.03696 ; brim
G1 X172.472 Y152.851 E1.09113 ; brim
G1 X173.15 Y152.896 E.02451 ; brim
G1 X173.722 Y153.006 E.02103 ; brim
G1 X174.273 Y153.185 E.02094 ; brim
G1 X174.877 Y153.47 E.0241 ; brim
G1 X175.422 Y153.812 E.02325 ; brim
G1 X175.882 Y154.19 E.02146 ; brim
G1 X176.325 Y154.663 E.02344 ; brim
G1 X176.657 Y155.122 E.02042 ; brim
G1 X176.931 Y155.616 E.02042 ; brim
G1 X177.216 Y156.362 E.02883 ; brim
G1 X177.366 Y157.03 E.02473 ; brim
G1 X177.427 Y157.828 E.02887 ; brim
G1 X177.426 Y162.412 E.16553 ; brim
G1 X177.382 Y163.072 E.02388 ; brim
G1 X177.275 Y163.629 E.02047 ; brim
G1 X177.099 Y164.181 E.02094 ; brim
G1 X176.823 Y164.771 E.02352 ; brim
G1 X176.465 Y165.345 E.0244 ; brim
G1 X176.087 Y165.805 E.0215 ; brim
G1 X175.652 Y166.216 E.02163 ; brim
G1 X175.169 Y166.571 E.02163 ; brim
G1 X174.661 Y166.853 E.02099 ; brim
G1 X173.916 Y167.138 E.02882 ; brim
G1 X173.248 Y167.289 E.02473 ; brim
G1 X172.45 Y167.349 E.02887 ; brim
G1 X142.254 Y167.349 E1.09025 ; brim
G1 X141.23 Y167.309 E.03702 ; brim
G1 X140.616 Y167.23 E.02235 ; brim
G1 X140.019 Y167.076 E.02225 ; brim
G1 X139.463 Y166.853 E.02164 ; brim
G1 X138.952 Y166.572 E.02106 ; brim
G1 X138.481 Y166.232 E.02096 ; brim
G1 X137.999 Y165.779 E.02388 ; brim
G1 X137.537 Y165.228 E.02598 ; brim
G1 X137.22 Y164.728 E.02137 ; brim
G1 X136.971 Y164.202 E.02101 ; brim
G1 X136.788 Y163.649 E.02104 ; brim
G1 X136.667 Y163.029 E.02281 ; brim
G1 X136.624 Y162.356 E.02435 ; brim
G1 X136.624 Y157.842 E.16297 ; brim
G1 X136.665 Y157.19 E.02358 ; brim
G1 X136.784 Y156.569 E.02284 ; brim
G1 X136.97 Y156.001 E.0216 ; brim
G1 X137.227 Y155.459 E.02163 ; brim
G1 X137.549 Y154.955 E.02159 ; brim
G1 X137.949 Y154.473 E.02263 ; brim
G1 X138.281 Y154.156 E.01657 ; brim
G1 X138.597 Y154.486 F21000
G1 F3000
G1 X138.733 Y154.356 E.0068 ; brim
G1 X139.163 Y154.038 E.01932 ; brim
G1 X139.665 Y153.759 E.02073 ; brim
G1 X140.182 Y153.554 E.02009 ; brim
G1 X140.721 Y153.417 E.02009 ; brim
G1 X141.261 Y153.348 E.01965 ; brim
G1 X142.264 Y153.308 E.03622 ; brim
G1 X172.453 Y153.308 E1.09 ; brim
G1 X173.099 Y153.352 E.0234 ; brim
G1 X173.599 Y153.448 E.01839 ; brim
G1 X174.096 Y153.608 E.01885 ; brim
G1 X174.664 Y153.876 E.02266 ; brim
G1 X175.147 Y154.179 E.02061 ; brim
G1 X175.561 Y154.518 E.01933 ; brim
G1 X175.977 Y154.962 E.02195 ; brim
G1 X176.266 Y155.36 E.01777 ; brim
G1 X176.511 Y155.801 E.01821 ; brim
G1 X176.774 Y156.485 E.02646 ; brim
G1 X176.914 Y157.108 E.02305 ; brim
G1 X176.97 Y157.85 E.02687 ; brim
G1 X176.969 Y162.401 E.16432 ; brim
G1 X176.926 Y163.022 E.02245 ; brim
G1 X176.829 Y163.524 E.01846 ; brim
G1 X176.675 Y164.006 E.01828 ; brim
G1 X176.424 Y164.545 E.02147 ; brim
G1 X176.098 Y165.07 E.02231 ; brim
G1 X175.758 Y165.486 E.0194 ; brim
G1 X175.365 Y165.859 E.01956 ; brim
G1 X174.929 Y166.18 E.01956 ; brim
G1 X174.476 Y166.433 E.01873 ; brim
G1 X173.774 Y166.702 E.02715 ; brim
G1 X173.17 Y166.836 E.02234 ; brim
G1 X172.428 Y166.892 E.02687 ; brim
G1 X142.266 Y166.892 E1.08902 ; brim
G1 X141.262 Y166.852 E.03627 ; brim
G1 X140.694 Y166.778 E.02067 ; brim
G1 X140.154 Y166.637 E.02017 ; brim
G1 X139.651 Y166.435 E.01956 ; brim
G1 X139.204 Y166.189 E.01842 ; brim
G1 X138.78 Y165.884 E.01888 ; brim
G1 X138.326 Y165.459 E.02245 ; brim
G1 X137.902 Y164.95 E.02392 ; brim
G1 X137.618 Y164.5 E.01923 ; brim
G1 X137.4 Y164.039 E.01838 ; brim
