; HEADER_BLOCK_START
; generated by OrcaSlicer 1.6.2 on 2023-05-23 at 19:50:06
; total layer number: 200
; HEADER_BLOCK_END

; THUMBNAIL_BLOCK_START
; THUMBNAIL_BLOCK_END

; external perimeters extrusion width = 0.40mm
; perimeters extrusion width = 0.45mm
; infill extrusion width = 0.64mm
; solid infill extrusion width = 0.60mm
; top infill extrusion width = 0.40mm
; first layer extrusion width = 0.50mm

; EXECUTABLE_BLOCK_START
EXCLUDE_OBJECT_DEFINE NAME=Voron_Design_Cube_v7.stl_id_0_copy_0 CENTER=160,170 POLYGON=[[145,155],[175,155],[175,185],[145,185],[145,155]]
M73 P0 R44
;TYPE:Custom
M190 S90
M109 S215
PRINT_START EXTRUDER=215 BED=90

G90
G21
M83 ; use relative distances for extrusion
START_PRINT EXTRUDER_TEMP=215 BED_TEMP=90 SIZE=143.043_153.043_176.957_186.957
M106 S0 ; disable fan
;LAYER_CHANGE
;Z:0.2
;HEIGHT:0.2
;BEFORE_LAYER_CHANGE
;0.2
G92 E0

G1 E-2.5 F2700 ; retract
;AFTER_LAYER_CHANGE
;0.2
M204 S500 ; adjust acceleration
G1 X149.617 Y153.807 F21000 ; move to first skirt point travel_to_xyz
G1 Z.6 ; move to first skirt point travel_to_xyz
G1 Z.2 ; restore layer Z
G1 E2.5 F1800 ;  ; unretract
;TYPE:Skirt
;WIDTH:0.5
G1 F3000
G1 X150.91 Y153.272 E.0585 ; skirt
G1 X169.09 Y153.272 E.76008 ; skirt
G1 X170.383 Y153.807 E.0585 ; skirt
G1 X176.193 Y159.617 E.34349 ; skirt
G1 X176.728 Y160.91 E.0585 ; skirt
G1 X176.728 Y179.09 E.76008 ; skirt
G1 X176.193 Y180.383 E.0585 ; skirt
G1 X170.383 Y186.193 E.34349 ; skirt
G1 X169.09 Y186.728 E.0585 ; skirt
G1 X150.91 Y186.728 E.76008 ; skirt
G1 X149.617 Y186.193 E.0585 ; skirt
G1 X143.807 Y180.383 E.34349 ; skirt
G1 X143.272 Y179.09 E.0585 ; skirt
G1 X143.272 Y160.91 E.76008 ; skirt
G1 X143.807 Y159.617 E.0585 ; skirt
G1 X149.574 Y153.85 E.34098 ; skirt
G1 X149.898 Y154.173 F21000
G1 F3000
G1 X149.94 Y154.13 E.00251 ; skirt
G1 X150.91 Y153.729 E.04388 ; skirt
G1 X169.09 Y153.729 E.76008 ; skirt
G1 X170.06 Y154.13 E.04388 ; skirt
G1 X175.87 Y159.94 E.34349 ; skirt
G1 X176.271 Y160.91 E.04388 ; skirt
G1 X176.271 Y179.09 E.76008 ; skirt
G1 X175.87 Y180.06 E.04388 ; skirt
G1 X170.06 Y185.87 E.34349 ; skirt
G1 X169.09 Y186.271 E.04388 ; skirt
G1 X150.91 Y186.271 E.76008 ; skirt
G1 X149.94 Y185.87 E.04388 ; skirt
G1 X144.13 Y180.06 E.34349 ; skirt
G1 X143.729 Y179.09 E.04388 ; skirt
G1 X143.729 Y160.91 E.76008 ; skirt
G1 X144.13 Y159.94 E.04388 ; skirt
G1 X149.855 Y154.215 E.33847 ; skirt
G1 X150.178 Y154.538 F21000
G1 F3000
G1 X150.263 Y154.454 E.00502 ; skirt
G1 X150.91 Y154.186 E.02925 ; skirt
G1 X169.09 Y154.186 E.76008 ; skirt
G1 X169.737 Y154.454 E.02925 ; skirt
G1 X175.546 Y160.263 E.34349 ; skirt
G1 X175.814 Y160.91 E.02925 ; skirt
G1 X175.814 Y179.09 E.76008 ; skirt
G1 X175.546 Y179.737 E.02925 ; skirt
G1 X169.737 Y185.546 E.34349 ; skirt
G1 X169.09 Y185.814 E.02925 ; skirt
G1 X150.91 Y185.814 E.76008 ; skirt
G1 X150.263 Y185.546 E.02925 ; skirt
G1 X144.454 Y179.737 E.34349 ; skirt
G1 X144.186 Y179.09 E.02925 ; skirt
G1 X144.186 Y160.91 E.76008 ; skirt
G1 X144.454 Y160.263 E.02925 ; skirt
G1 X150.136 Y154.581 E.33596 ; skirt
G1 X150.459 Y154.904 F21000
G1 F3000
G1 X150.586 Y154.777 E.00753 ; skirt
G1 X150.91 Y154.643 E.01463 ; skirt
G1 X169.09 Y154.643 E.76008 ; skirt
G1 X169.414 Y154.777 E.01463 ; skirt
G1 X175.223 Y160.586 E.34349 ; skirt
G1 X175.357 Y160.91 E.01463 ; skirt
G1 X175.357 Y179.09 E.76008 ; skirt
G1 X175.223 Y179.414 E.01463 ; skirt
G1 X169.414 Y185.223 E.34349 ; skirt
G1 X169.09 Y185.357 E.01463 ; skirt
G1 X150.91 Y185.357 E.76008 ; skirt
G1 X150.586 Y185.223 E.01463 ; skirt
G1 X144.777 Y179.414 E.34349 ; skirt
G1 X144.643 Y179.09 E.01463 ; skirt
G1 X144.643 Y160.91 E.76008 ; skirt
G1 X144.777 Y160.586 E.01463 ; skirt
G1 X150.417 Y154.947 E.33346 ; skirt
; printing object Voron_Design_Cube_v7.stl id:0 copy 0
EXCLUDE_OBJECT_START NAME=Voron_Design_Cube_v7.stl_id_0_copy_0
G1 E-1.75 F2700 ; retract
;WIPE_START
G1 F3000
G1 X150.586 Y154.777 E-.0855 ; wipe and retract
G1 X150.91 Y154.643 E-.12463 ; wipe and retract
G1 X152.32 Y154.643 E-.50237 ; wipe and retract
;WIPE_END
G1 E-.0375 F2700 ; retract
G1 X161.841 Y161 Z.8 F21000 ; move to first perimeter point travel_to_xyz
G1 X162.516 Y161.45 Z.8 ; move to first perimeter point travel_to_xyz
G1 Z.2 ; restore layer Z
G1 E2.5 F1800 ;  ; unretract
;TYPE:Inner wall
G1 F3000
G1 X162.556 Y161.46 E.00173 ; perimeter
G3 X159.366 Y161.108 I-2.556 J8.538 E2.20634 ; perimeter
G1 X159.827 Y161.087 E.01927 ; perimeter
G3 X161.661 Y161.242 I.173 J8.911 E.07709 ; perimeter
G1 X162.458 Y161.436 E.03429 ; perimeter
G1 X162.406 Y161.894 F21000
G1 F3000
G1 X162.425 Y161.898 E.0008 ; perimeter
G3 X159.399 Y161.564 I-2.425 J8.1 E2.09317 ; perimeter
G1 X159.836 Y161.544 E.01828 ; perimeter
G3 X161.576 Y161.691 I.164 J8.454 E.07313 ; perimeter
G1 X162.348 Y161.879 E.03324 ; perimeter
G1 X161.969 Y162.257 F21000
;TYPE:Outer wall
G1 F3000
G1 X162.294 Y162.336 E.01397 ; perimeter
G3 X159.431 Y162.02 I-2.294 J7.663 E1.98001 ; perimeter
M73 P0 R43
G1 X159.844 Y162.002 E.01729 ; perimeter
G3 X161.49 Y162.14 I.155 J7.997 E.06918 ; perimeter
G1 X161.911 Y162.243 E.0181 ; perimeter
G1 X162.014 Y162.208 ; move inwards before travel
G1 E-1.75 F2700 ; retract
;WIPE_START
G1 F3000
G1 X162.294 Y162.336 E-.14038 ; wipe and retract
G1 X162.882 Y162.539 E-.22164 ; wipe and retract
G1 X163.45 Y162.783 E-.22034 ; wipe and retract
G1 X163.771 Y162.957 E-.13013 ; wipe and retract
;WIPE_END
G1 E-.0375 F2700 ; retract
G1 X173.736 Y161.392 Z.8 F21000 ; move to first perimeter point travel_to_xyz
G1 Z.2 ; restore layer Z
G1 E2.5 F1800 ;  ; unretract
;TYPE:Inner wall
G1 F3000
G1 X173.736 Y178.608 E.71976 ; perimeter
G1 X168.608 Y183.736 E.30317 ; perimeter
G1 X151.392 Y183.736 E.71976 ; perimeter
G1 X146.264 Y178.608 E.30317 ; perimeter
G1 X146.264 Y161.392 E.71976 ; perimeter
G1 X151.392 Y156.264 E.30317 ; perimeter
G1 X168.608 Y156.264 E.71976 ; perimeter
G1 X170.548 Y158.204 E.11466 ; perimeter
G1 X173.693 Y161.349 E.186 ; perimeter
G1 X174.193 Y161.203 F21000
G1 F3000
G1 X174.193 Y178.797 E.73559 ; perimeter
G1 X168.797 Y184.193 E.319 ; perimeter
G1 X151.203 Y184.193 E.73559 ; perimeter
G1 X145.807 Y178.797 E.319 ; perimeter
G1 X145.807 Y161.203 E.73559 ; perimeter
G1 X151.203 Y155.807 E.319 ; perimeter
G1 X168.797 Y155.807 E.73559 ; perimeter
G1 X170.871 Y157.88 E.12258 ; perimeter
G1 X174.15 Y161.16 E.19391 ; perimeter
G1 X174.65 Y161.013 F21000
;TYPE:Outer wall
G1 F3000
G1 X174.65 Y178.987 E.75142 ; perimeter
G1 X168.987 Y184.65 E.33483 ; perimeter
G1 X151.013 Y184.65 E.75142 ; perimeter
G1 X145.35 Y178.987 E.33483 ; perimeter
G1 X145.35 Y161.013 E.75142 ; perimeter
G1 X151.013 Y155.35 E.33483 ; perimeter
G1 X168.987 Y155.35 E.75142 ; perimeter
G1 X171.194 Y157.557 E.13049 ; perimeter
G1 X174.608 Y160.971 E.20183 ; perimeter
G1 X174.593 Y161.07 ; move inwards before travel
G1 E-1.75 F2700 ; retract
;WIPE_START
G1 F3000
G1 X174.612 Y162.971 E-.7125 ; wipe and retract
;WIPE_END
G1 E-.0375 F2700 ; retract
G1 X168.257 Y156.401 Z.8 F21000 ; move to first infill point travel_to_xyz
G1 Z.2 ; restore layer Z
G1 E2.5 F1800 ;  ; unretract
;TYPE:Bottom surface
;WIDTH:0.504253
G1 F6000
G1 X173.393 Y161.537 E.30647 ; infill
G1 X173.393 Y162.189 E.02753 ; infill
G1 X167.811 Y156.607 E.33312 ; infill
G1 X167.158 Y156.607 E.02753 ; infill
G1 X173.393 Y162.842 E.37206 ; infill
G1 X173.393 Y163.494 E.02753 ; infill
G1 X166.506 Y156.607 E.41099 ; infill
M73 P1 R43
G1 X165.853 Y156.607 E.02753 ; infill
G1 X173.393 Y164.147 E.44992 ; infill
G1 X173.393 Y164.799 E.02753 ; infill
G1 X165.201 Y156.607 E.48886 ; infill
G1 X164.549 Y156.607 E.02753 ; infill
G1 X173.393 Y165.451 E.52779 ; infill
G1 X173.393 Y166.104 E.02753 ; infill
G1 X163.896 Y156.607 E.56672 ; infill
G1 X163.244 Y156.607 E.02753 ; infill
G1 X173.393 Y166.756 E.60565 ; infill
G1 X173.393 Y167.409 E.02753 ; infill
G1 X162.591 Y156.607 E.64459 ; infill
G1 X161.939 Y156.607 E.02753 ; infill
G1 X173.393 Y168.061 E.68352 ; infill
G1 X173.393 Y168.714 E.02753 ; infill
G1 X161.286 Y156.607 E.72245 ; infill
G1 X160.634 Y156.607 E.02753 ; infill
G1 X173.393 Y169.366 E.76139 ; infill
G1 X173.393 Y170.018 E.02753 ; infill
G1 X159.982 Y156.607 E.80032 ; infill
G1 X159.329 Y156.607 E.02753 ; infill
G1 X164.853 Y162.131 E.32966 ; infill
G1 X165.236 Y162.365 E.01891 ; infill
G1 X165.996 Y162.947 E.04038 ; infill
G1 X166.692 Y163.603 E.04038 ; infill
G1 X167.317 Y164.328 E.04038 ; infill
G1 X167.9 Y165.178 E.04348 ; infill
G1 X173.393 Y170.671 E.3278 ; infill
G1 X173.393 Y171.323 E.02753 ; infill
G1 X168.561 Y166.492 E.28832 ; infill
G1 X168.851 Y167.287 E.03571 ; infill
G1 X168.9 Y167.482 E.00851 ; infill
G1 X173.393 Y171.976 E.26813 ; infill
G1 X173.393 Y172.628 E.02753 ; infill
G1 X169.101 Y168.336 E.25613 ; infill
G1 X169.21 Y169.098 E.03247 ; infill
G1 X173.393 Y173.281 E.24961 ; infill
G1 X173.393 Y173.933 E.02753 ; infill
G1 X169.252 Y169.791 E.24714 ; infill
G3 X169.24 Y170.432 I-4.934 J.229 E.02705 ; infill
G1 X173.393 Y174.585 E.24785 ; infill
G1 X173.393 Y175.238 E.02753 ; infill
G1 X169.191 Y171.036 E.25075 ; infill
G1 X169.109 Y171.606 E.02432 ; infill
G1 X173.393 Y175.89 E.25564 ; infill
G1 X173.393 Y176.543 E.02753 ; infill
G1 X168.994 Y172.143 E.26253 ; infill
G1 X168.863 Y172.665 E.02269 ; infill
G1 X173.393 Y177.195 E.27033 ; infill
G1 X173.393 Y177.848 E.02753 ; infill
G1 X168.693 Y173.147 E.28049 ; infill
G1 X168.518 Y173.624 E.02145 ; infill
G1 X173.376 Y178.483 E.28993 ; infill
G1 X173.05 Y178.809 E.01947 ; infill
G1 X168.304 Y174.063 E.2832 ; infill
G3 X168.088 Y174.5 I-2.21 J-.821 E.02059 ; infill
G1 X172.724 Y179.135 E.27662 ; infill
G1 X172.398 Y179.462 E.01947 ; infill
G1 X167.838 Y174.902 E.27207 ; infill
G3 X167.587 Y175.303 I-2.057 J-1.012 E.02 ; infill
G1 X172.071 Y179.788 E.26762 ; infill
G1 X171.745 Y180.114 E.01947 ; infill
G1 X167.302 Y175.671 E.26516 ; infill
G1 X167.017 Y176.038 E.01962 ; infill
G1 X171.419 Y180.44 E.26269 ; infill
G1 X171.093 Y180.767 E.01947 ; infill
G1 X166.698 Y176.372 E.26223 ; infill
G1 X166.379 Y176.706 E.01947 ; infill
G1 X170.766 Y181.093 E.26179 ; infill
G1 X170.44 Y181.419 E.01947 ; infill
G1 X166.037 Y177.016 E.26275 ; infill
G3 X165.671 Y177.302 I-2.024 J-2.214 E.01963 ; infill
G1 X170.114 Y181.745 E.26514 ; infill
G1 X169.788 Y182.071 E.01947 ; infill
G1 X165.301 Y177.585 E.26774 ; infill
G3 X164.903 Y177.839 I-1.423 J-1.793 E.01997 ; infill
G1 X169.462 Y182.398 E.27205 ; infill
G1 X169.135 Y182.724 E.01947 ; infill
G1 X164.498 Y178.086 E.27673 ; infill
G3 X164.064 Y178.304 I-1.264 J-1.975 E.02055 ; infill
G1 X168.809 Y183.05 E.28319 ; infill
G1 X168.483 Y183.376 E.01947 ; infill
G1 X163.622 Y178.515 E.29007 ; infill
G3 X163.147 Y178.693 I-1.096 J-2.203 E.02143 ; infill
G1 X167.847 Y183.393 E.28046 ; infill
G1 X167.195 Y183.393 E.02753 ; infill
G1 X162.666 Y178.865 E.27023 ; infill
G1 X162.143 Y178.994 E.02275 ; infill
G1 X166.543 Y183.393 E.26254 ; infill
G1 X165.89 Y183.393 E.02753 ; infill
G1 X161.608 Y179.111 E.2555 ; infill
G1 X161.034 Y179.19 E.02445 ; infill
G1 X165.238 Y183.393 E.25083 ; infill
G1 X164.585 Y183.393 E.02753 ; infill
G1 X160.428 Y179.236 E.24805 ; infill
G1 X159.794 Y179.254 E.02679 ; infill
G1 X163.933 Y183.393 E.24699 ; infill
G1 X163.28 Y183.393 E.02753 ; infill
G1 X159.091 Y179.204 E.24998 ; infill
G3 X158.328 Y179.093 I.152 J-3.732 E.0326 ; infill
G1 X162.628 Y183.393 E.25659 ; infill
G1 X161.976 Y183.393 E.02753 ; infill
G1 X157.477 Y178.894 E.26845 ; infill
G3 X156.479 Y178.549 I1.164 J-4.978 E.04463 ; infill
G1 X161.529 Y183.599 E.30133 ; infill
G1 E-1.75 F2700 ; retract
;WIPE_START
G1 F6000
G1 X160.115 Y182.185 E-.7125 ; wipe and retract
;WIPE_END
G1 E-.0375 F2700 ; retract
G1 X159.386 Y170.759 Z.8 F21000 ; move to first infill point travel_to_xyz
G1 X158.471 Y156.401 Z.8 ; move to first infill point travel_to_xyz
G1 Z.2 ; restore layer Z
G1 E2.5 F1800 ;  ; unretract
G1 F6000
G1 X163.502 Y161.433 E.30024 ; infill
G2 X162.522 Y161.104 I-2.599 J6.134 E.04368 ; infill
G1 X158.024 Y156.607 E.26837 ; infill
G1 X157.372 Y156.607 E.02753 ; infill
G1 X161.672 Y160.907 E.25661 ; infill
G2 X160.911 Y160.799 I-.902 J3.61 E.03248 ; infill
G1 X156.719 Y156.607 E.25014 ; infill
G1 X156.067 Y156.607 E.02753 ; infill
G1 X160.209 Y160.749 E.24717 ; infill
G1 X159.569 Y160.761 E.02701 ; infill
G1 X155.415 Y156.607 E.24791 ; infill
G1 X154.762 Y156.607 E.02753 ; infill
G1 X158.967 Y160.812 E.25093 ; infill
G1 X158.387 Y160.884 E.02467 ; infill
G1 X154.11 Y156.607 E.25524 ; infill
G1 X153.457 Y156.607 E.02753 ; infill
G1 X157.857 Y161.006 E.26253 ; infill
G2 X157.337 Y161.139 I.382 J2.568 E.02266 ; infill
G1 X152.805 Y156.607 E.27047 ; infill
G1 X152.152 Y156.607 E.02753 ; infill
G1 X156.851 Y161.306 E.2804 ; infill
G2 X156.381 Y161.488 I.641 J2.358 E.02133 ; infill
G1 X151.517 Y156.624 E.29024 ; infill
G1 X151.191 Y156.95 E.01947 ; infill
G1 X155.935 Y161.694 E.28309 ; infill
G2 X155.505 Y161.917 I.857 J2.182 E.02046 ; infill
G1 X150.865 Y157.276 E.27691 ; infill
G1 X150.538 Y157.602 E.01947 ; infill
G1 X155.096 Y162.16 E.27196 ; infill
G2 X154.702 Y162.418 I1.048 J2.027 E.01992 ; infill
G1 X150.212 Y157.929 E.26791 ; infill
G1 X149.886 Y158.255 E.01947 ; infill
G1 X154.328 Y162.697 E.26506 ; infill
G2 X153.967 Y162.988 I1.223 J1.885 E.01961 ; infill
G1 X149.56 Y158.581 E.26298 ; infill
G1 X149.233 Y158.907 E.01947 ; infill
G1 X153.627 Y163.301 E.26216 ; infill
G2 X153.297 Y163.623 I1.39 J1.749 E.0195 ; infill
G1 X148.907 Y159.234 E.26196 ; infill
G1 X148.581 Y159.56 E.01947 ; infill
G1 X152.991 Y163.97 E.26315 ; infill
G2 X152.693 Y164.324 I1.558 J1.613 E.01957 ; infill
G1 X148.255 Y159.886 E.26483 ; infill
G1 X147.929 Y160.212 E.01947 ; infill
G1 X152.421 Y164.704 E.26807 ; infill
G2 X152.156 Y165.092 I1.732 J1.471 E.01984 ; infill
G1 X147.602 Y160.538 E.2717 ; infill
G1 X147.276 Y160.865 E.01947 ; infill
G1 X151.919 Y165.507 E.27706 ; infill
G2 X151.69 Y165.93 I1.922 J1.317 E.02034 ; infill
G1 X146.95 Y161.191 E.28283 ; infill
G1 X146.624 Y161.517 E.01947 ; infill
G1 X151.49 Y166.384 E.29042 ; infill
G2 X151.302 Y166.847 I2.14 J1.141 E.02116 ; infill
G1 X146.607 Y162.153 E.28016 ; infill
G1 X146.607 Y162.805 E.02753 ; infill
G1 X151.143 Y167.341 E.27071 ; infill
G2 X151.004 Y167.854 I2.399 J.93 E.02246 ; infill
G1 X146.607 Y163.457 E.26236 ; infill
G1 X146.607 Y164.11 E.02753 ; infill
G1 X150.89 Y168.393 E.25561 ; infill
G2 X150.803 Y168.959 I3.592 J.844 E.02416 ; infill
G1 X146.607 Y164.762 E.2504 ; infill
G1 X146.607 Y165.415 E.02753 ; infill
G1 X150.764 Y169.572 E.24809 ; infill
G2 X150.753 Y170.213 I3.084 J.374 E.02711 ; infill
G1 X146.607 Y166.067 E.24743 ; infill
G1 X146.607 Y166.72 E.02753 ; infill
G1 X150.789 Y170.901 E.24955 ; infill
G1 X150.903 Y171.668 E.03271 ; infill
G1 X146.607 Y167.372 E.25637 ; infill
G1 X146.607 Y168.024 E.02753 ; infill
G1 X151.103 Y172.521 E.26832 ; infill
G1 X151.184 Y172.827 E.01334 ; infill
G1 X151.445 Y173.515 E.03105 ; infill
G1 X146.607 Y168.677 E.2887 ; infill
G1 X146.607 Y169.329 E.02753 ; infill
G1 X152.127 Y174.849 E.32939 ; infill
G1 X152.468 Y175.383 E.02675 ; infill
G1 X153.061 Y176.129 E.0402 ; infill
G1 X153.394 Y176.485 E.02057 ; infill
G1 X154.092 Y177.127 E.04001 ; infill
G2 X155.168 Y177.89 I5.449 J-6.542 E.05574 ; infill
G1 X160.671 Y183.393 E.32837 ; infill
G1 X160.018 Y183.393 E.02753 ; infill
G1 X146.607 Y169.982 E.80031 ; infill
G1 X146.607 Y170.634 E.02753 ; infill
G1 X159.366 Y183.393 E.76138 ; infill
G1 X158.713 Y183.393 E.02753 ; infill
G1 X146.607 Y171.287 E.72245 ; infill
G1 X146.607 Y171.939 E.02753 ; infill
G1 X158.061 Y183.393 E.68351 ; infill
G1 X157.409 Y183.393 E.02753 ; infill
G1 X146.607 Y172.591 E.64458 ; infill
G1 X146.607 Y173.244 E.02753 ; infill
G1 X156.756 Y183.393 E.60565 ; infill
M73 P2 R43
G1 X156.104 Y183.393 E.02753 ; infill
G1 X146.607 Y173.896 E.56671 ; infill
G1 X146.607 Y174.549 E.02753 ; infill
G1 X155.451 Y183.393 E.52778 ; infill
G1 X154.799 Y183.393 E.02753 ; infill
G1 X146.607 Y175.201 E.48885 ; infill
G1 X146.607 Y175.854 E.02753 ; infill
G1 X154.146 Y183.393 E.44992 ; infill
G1 X153.494 Y183.393 E.02753 ; infill
