; HEADER_BLOCK_START
; generated by OrcaSlicer 1.6.2 on 2023-05-21 at 19:35:59
; total layer number: 200
; HEADER_BLOCK_END

; THUMBNAIL_BLOCK_START
; THUMBNAIL_BLOCK_END

; external perimeters extrusion width = 0.40mm
; perimeters extrusion width = 0.45mm
; infill extrusion width = 0.64mm
; solid infill extrusion width = 0.60mm
; top infill extrusion width = 0.40mm
; first layer extrusion width = 0.50mm

; EXECUTABLE_BLOCK_START
EXCLUDE_OBJECT_DEFINE NAME=Voron_Design_Cube_v7.stl_id_0_copy_0 CENTER=164.184,167.814 POLYGON=[[149.184,152.814],[179.184,152.814],[179.184,182.814],[149.184,182.814],[149.184,152.814]]
M73 P0 R43
;TYPE:Custom
M190 S90
M109 S220
PRINT_START EXTRUDER=220 BED=90

G90
G21
M83 ; use relative distances for extrusion
START_PRINT EXTRUDER_TEMP=220 BED_TEMP=90 SIZE=148.141_151.771_180.227_183.857
SET_PRESSURE_ADVANCE ADVANCE=0.04; Override pressure advance value
M106 S0 ; disable fan
;LAYER_CHANGE
;Z:0.2
;HEIGHT:0.2
;BEFORE_LAYER_CHANGE
;0.2
G92 E0

G1 E-2 F3600 ; retract
;AFTER_LAYER_CHANGE
;0.2
M204 S500 ; adjust acceleration
G1 X153.357 Y153.357 F21000 ; move to first skirt point travel_to_xyz
G1 Z.6 ; move to first skirt point travel_to_xyz
G1 Z.2 ; restore layer Z
G1 E2 F1800 ;  ; unretract
;TYPE:Skirt
;WIDTH:0.5
G1 F3000
G1 X154.447 Y152.268 E.05564 ; skirt
G1 X155.094 Y152 E.02526 ; skirt
G1 X173.274 Y152 E.65643 ; skirt
G1 X173.921 Y152.268 E.02526 ; skirt
G1 X179.73 Y158.077 E.29665 ; skirt
G1 X179.998 Y158.724 E.02526 ; skirt
G1 X179.998 Y176.905 E.65643 ; skirt
G1 X179.73 Y177.551 E.02526 ; skirt
G1 X173.921 Y183.361 E.29665 ; skirt
G1 X173.274 Y183.628 E.02526 ; skirt
G1 X155.094 Y183.628 E.65643 ; skirt
G1 X154.447 Y183.361 E.02526 ; skirt
G1 X148.638 Y177.551 E.29665 ; skirt
G1 X148.37 Y176.905 E.02526 ; skirt
G1 X148.37 Y158.724 E.65643 ; skirt
G1 X148.638 Y158.077 E.02526 ; skirt
G1 X153.315 Y153.4 E.23884 ; skirt
G1 X153.638 Y153.723 F21000
G1 F3000
G1 X154.77 Y152.591 E.05781 ; skirt
G1 X155.094 Y152.457 E.01263 ; skirt
G1 X173.274 Y152.457 E.65643 ; skirt
G1 X173.598 Y152.591 E.01263 ; skirt
G1 X179.407 Y158.401 E.29665 ; skirt
G1 X179.541 Y158.724 E.01263 ; skirt
G1 X179.541 Y176.905 E.65643 ; skirt
G1 X179.407 Y177.228 E.01263 ; skirt
G1 X173.598 Y183.037 E.29665 ; skirt
G1 X173.274 Y183.171 E.01263 ; skirt
G1 X155.094 Y183.171 E.65643 ; skirt
G1 X154.77 Y183.037 E.01263 ; skirt
G1 X148.961 Y177.228 E.29665 ; skirt
G1 X148.827 Y176.905 E.01263 ; skirt
G1 X148.827 Y158.724 E.65643 ; skirt
G1 X148.961 Y158.401 E.01263 ; skirt
G1 X153.596 Y153.766 E.23667 ; skirt
; printing object Voron_Design_Cube_v7.stl id:0 copy 0
EXCLUDE_OBJECT_START NAME=Voron_Design_Cube_v7.stl_id_0_copy_0
G1 E-1.4 F3600 ; retract
;WIPE_START
G1 F3000
G1 X154.77 Y152.591 E-.47342 ; wipe and retract
G1 X155.084 Y152.461 E-.09658 ; wipe and retract
;WIPE_END
G1 E-.03 F3600 ; retract
G1 X164.963 Y158.247 Z.8 F21000 ; move to first perimeter point travel_to_xyz
G1 X166.7 Y159.264 Z.8 ; move to first perimeter point travel_to_xyz
G1 Z.2 ; restore layer Z
G1 E2 F1800 ;  ; unretract
;TYPE:Inner wall
G1 F3000
G1 X166.74 Y159.274 E.00149 ; perimeter
G3 X163.55 Y158.922 I-2.556 J8.538 E1.90548 ; perimeter
G1 X164.011 Y158.901 E.01664 ; perimeter
G3 X165.845 Y159.056 I.173 J8.911 E.06658 ; perimeter
G1 X166.642 Y159.25 E.02961 ; perimeter
G1 X166.59 Y159.708 F21000
G1 F3000
G1 X166.609 Y159.712 E.00069 ; perimeter
G3 X163.583 Y159.378 I-2.425 J8.1 E1.80774 ; perimeter
G1 X164.02 Y159.359 E.01579 ; perimeter
G3 X165.76 Y159.505 I.164 J8.454 E.06316 ; perimeter
G1 X166.532 Y159.693 E.02871 ; perimeter
G1 X166.153 Y160.071 F21000
;TYPE:Outer wall
G1 F3000
G1 X166.478 Y160.15 E.01206 ; perimeter
G3 X163.615 Y159.834 I-2.294 J7.663 E1.71001 ; perimeter
G1 X164.028 Y159.816 E.01493 ; perimeter
G3 X165.674 Y159.954 I.155 J7.997 E.05975 ; perimeter
G1 X166.095 Y160.057 E.01563 ; perimeter
G1 X166.198 Y160.022 ; move inwards before travel
G1 E-1.4 F3600 ; retract
;WIPE_START
G1 F3000
G1 X166.478 Y160.15 E-.11231 ; wipe and retract
G1 X167.066 Y160.353 E-.17731 ; wipe and retract
G1 X167.634 Y160.597 E-.17628 ; wipe and retract
G1 X167.955 Y160.771 E-.10411 ; wipe and retract
;WIPE_END
G1 E-.03 F3600 ; retract
G1 X177.92 Y159.206 Z.8 F21000 ; move to first perimeter point travel_to_xyz
G1 Z.2 ; restore layer Z
G1 E2 F1800 ;  ; unretract
;TYPE:Inner wall
G1 F3000
G1 X177.92 Y176.422 E.62161 ; perimeter
G1 X172.792 Y181.55 E.26183 ; perimeter
G1 X155.576 Y181.55 E.62161 ; perimeter
G1 X150.448 Y176.422 E.26183 ; perimeter
G1 X150.448 Y159.206 E.62161 ; perimeter
G1 X155.576 Y154.078 E.26183 ; perimeter
G1 X172.792 Y154.078 E.62161 ; perimeter
G1 X174.732 Y156.018 E.09903 ; perimeter
G1 X177.877 Y159.164 E.16063 ; perimeter
G1 X178.377 Y159.017 F21000
G1 F3000
G1 X178.377 Y176.612 E.63528 ; perimeter
G1 X172.981 Y182.007 E.2755 ; perimeter
G1 X155.387 Y182.007 E.63528 ; perimeter
G1 X149.991 Y176.612 E.2755 ; perimeter
G1 X149.991 Y159.017 E.63528 ; perimeter
G1 X155.387 Y153.621 E.2755 ; perimeter
G1 X172.981 Y153.621 E.63528 ; perimeter
G1 X175.055 Y155.694 E.10586 ; perimeter
G1 X178.335 Y158.974 E.16747 ; perimeter
G1 X178.834 Y158.827 F21000
;TYPE:Outer wall
G1 F3000
G1 X178.834 Y176.801 E.64896 ; perimeter
G1 X173.171 Y182.464 E.28917 ; perimeter
G1 X155.197 Y182.464 E.64896 ; perimeter
G1 X149.534 Y176.801 E.28917 ; perimeter
G1 X149.534 Y158.827 E.64896 ; perimeter
G1 X155.197 Y153.164 E.28917 ; perimeter
G1 X173.171 Y153.164 E.64896 ; perimeter
G1 X175.378 Y155.371 E.1127 ; perimeter
G1 X178.792 Y158.785 E.17431 ; perimeter
G1 X178.777 Y158.884 ; move inwards before travel
G1 E-1.4 F3600 ; retract
;WIPE_START
G1 F3000
G1 X178.796 Y160.785 E-.57 ; wipe and retract
;WIPE_END
G1 E-.03 F3600 ; retract
G1 X172.441 Y154.215 Z.8 F21000 ; move to first infill point travel_to_xyz
G1 Z.2 ; restore layer Z
G1 E2 F1800 ;  ; unretract
;TYPE:Bottom surface
;WIDTH:0.504253
G1 F6000
G1 X177.577 Y159.351 E.26467 ; infill
G1 X177.577 Y160.004 E.02378 ; infill
G1 X171.995 Y154.421 E.2877 ; infill
G1 X171.342 Y154.421 E.02378 ; infill
G1 X177.577 Y160.656 E.32132 ; infill
G1 X177.577 Y161.308 E.02378 ; infill
G1 X170.69 Y154.421 E.35495 ; infill
G1 X170.037 Y154.421 E.02378 ; infill
G1 X177.577 Y161.961 E.38857 ; infill
G1 X177.577 Y162.613 E.02378 ; infill
G1 X169.385 Y154.421 E.42219 ; infill
G1 X168.733 Y154.421 E.02378 ; infill
G1 X177.577 Y163.266 E.45582 ; infill
G1 X177.577 Y163.918 E.02378 ; infill
G1 X168.08 Y154.421 E.48944 ; infill
G1 X167.428 Y154.421 E.02378 ; infill
G1 X177.577 Y164.57 E.52306 ; infill
G1 X177.577 Y165.223 E.02378 ; infill
G1 X166.775 Y154.421 E.55669 ; infill
G1 X166.123 Y154.421 E.02378 ; infill
G1 X177.577 Y165.875 E.59031 ; infill
G1 X177.577 Y166.528 E.02378 ; infill
G1 X165.47 Y154.421 E.62394 ; infill
G1 X164.818 Y154.421 E.02378 ; infill
G1 X177.577 Y167.18 E.65756 ; infill
G1 X177.577 Y167.833 E.02378 ; infill
G1 X164.166 Y154.421 E.69118 ; infill
G1 X163.513 Y154.421 E.02378 ; infill
G1 X169.037 Y159.945 E.2847 ; infill
G1 X169.42 Y160.179 E.01633 ; infill
G1 X170.18 Y160.761 E.03488 ; infill
G1 X170.876 Y161.417 E.03488 ; infill
G1 X171.501 Y162.142 E.03487 ; infill
G1 X172.084 Y162.992 E.03755 ; infill
G1 X177.577 Y168.485 E.2831 ; infill
G1 X177.577 Y169.137 E.02378 ; infill
G1 X172.745 Y164.306 E.249 ; infill
G1 X173.035 Y165.101 E.03084 ; infill
G1 X173.084 Y165.297 E.00735 ; infill
G1 X177.577 Y169.79 E.23157 ; infill
G1 X177.577 Y170.442 E.02378 ; infill
G1 X173.285 Y166.15 E.22121 ; infill
G1 X173.394 Y166.912 E.02804 ; infill
G1 X177.577 Y171.095 E.21557 ; infill
M73 P1 R43
G1 X177.577 Y171.747 E.02378 ; infill
G1 X173.436 Y167.606 E.21344 ; infill
G3 X173.424 Y168.246 I-4.934 J.229 E.02336 ; infill
G1 X177.577 Y172.4 E.21405 ; infill
G1 X177.577 Y173.052 E.02378 ; infill
G1 X173.375 Y168.85 E.21656 ; infill
G1 X173.293 Y169.42 E.02101 ; infill
G1 X177.577 Y173.704 E.22078 ; infill
G1 X177.577 Y174.357 E.02378 ; infill
G1 X173.178 Y169.957 E.22673 ; infill
G1 X173.047 Y170.479 E.0196 ; infill
G1 X177.577 Y175.009 E.23347 ; infill
G1 X177.577 Y175.662 E.02378 ; infill
G1 X172.877 Y170.961 E.24224 ; infill
G1 X172.702 Y171.439 E.01853 ; infill
G1 X177.56 Y176.297 E.2504 ; infill
G1 X177.234 Y176.623 E.01681 ; infill
G1 X172.488 Y171.878 E.24458 ; infill
G3 X172.272 Y172.314 I-2.21 J-.821 E.01778 ; infill
G1 X176.908 Y176.95 E.2389 ; infill
G1 X176.582 Y177.276 E.01681 ; infill
G1 X172.022 Y172.717 E.23497 ; infill
G3 X171.771 Y173.117 I-2.057 J-1.012 E.01728 ; infill
G1 X176.255 Y177.602 E.23113 ; infill
G1 X175.929 Y177.928 E.01681 ; infill
G1 X171.486 Y173.485 E.229 ; infill
G1 X171.201 Y173.852 E.01695 ; infill
G1 X175.603 Y178.254 E.22687 ; infill
G1 X175.277 Y178.581 E.01681 ; infill
G1 X170.882 Y174.186 E.22647 ; infill
G1 X170.563 Y174.52 E.01682 ; infill
G1 X174.95 Y178.907 E.22609 ; infill
G1 X174.624 Y179.233 E.01681 ; infill
G1 X170.221 Y174.83 E.22692 ; infill
G3 X169.855 Y175.116 I-2.024 J-2.214 E.01696 ; infill
G1 X174.298 Y179.559 E.22899 ; infill
G1 X173.972 Y179.886 E.01681 ; infill
G1 X169.485 Y175.399 E.23123 ; infill
G3 X169.087 Y175.653 I-1.423 J-1.793 E.01725 ; infill
G1 X173.646 Y180.212 E.23495 ; infill
G1 X173.319 Y180.538 E.01681 ; infill
G1 X168.682 Y175.901 E.239 ; infill
G3 X168.248 Y176.119 I-1.264 J-1.975 E.01774 ; infill
G1 X172.993 Y180.864 E.24457 ; infill
G1 X172.667 Y181.19 E.01681 ; infill
G1 X167.806 Y176.33 E.25051 ; infill
G3 X167.331 Y176.507 I-1.096 J-2.203 E.0185 ; infill
G1 X172.031 Y181.207 E.24222 ; infill
G1 X171.379 Y181.207 E.02378 ; infill
G1 X166.85 Y176.679 E.23338 ; infill
G1 X166.327 Y176.808 E.01965 ; infill
G1 X170.727 Y181.207 E.22674 ; infill
G1 X170.074 Y181.207 E.02378 ; infill
G1 X165.792 Y176.926 E.22066 ; infill
G1 X165.218 Y177.004 E.02111 ; infill
G1 X169.422 Y181.207 E.21662 ; infill
G1 X168.769 Y181.207 E.02378 ; infill
G1 X164.612 Y177.05 E.21423 ; infill
G1 X163.978 Y177.068 E.02314 ; infill
G1 X168.117 Y181.207 E.21331 ; infill
G1 X167.464 Y181.207 E.02378 ; infill
G1 X163.275 Y177.018 E.21589 ; infill
G3 X162.512 Y176.907 I.152 J-3.732 E.02816 ; infill
G1 X166.812 Y181.207 E.2216 ; infill
G1 X166.16 Y181.207 E.02378 ; infill
G1 X161.661 Y176.709 E.23185 ; infill
G3 X160.663 Y176.363 I1.164 J-4.978 E.03854 ; infill
G1 X165.713 Y181.413 E.26024 ; infill
G1 E-1.4 F3600 ; retract
;WIPE_START
G1 F6000
G1 X164.299 Y179.999 E-.57 ; wipe and retract
;WIPE_END
G1 E-.03 F3600 ; retract
G1 X163.57 Y168.573 Z.8 F21000 ; move to first infill point travel_to_xyz
G1 X162.655 Y154.215 Z.8 ; move to first infill point travel_to_xyz
G1 Z.2 ; restore layer Z
G1 E2 F1800 ;  ; unretract
G1 F6000
G1 X167.686 Y159.247 E.2593 ; infill
G2 X166.706 Y158.918 I-2.599 J6.134 E.03773 ; infill
G1 X162.208 Y154.421 E.23178 ; infill
G1 X161.556 Y154.421 E.02378 ; infill
G1 X165.856 Y158.721 E.22161 ; infill
G2 X165.095 Y158.613 I-.902 J3.61 E.02805 ; infill
G1 X160.903 Y154.421 E.21603 ; infill
G1 X160.251 Y154.421 E.02378 ; infill
G1 X164.393 Y158.563 E.21346 ; infill
G1 X163.753 Y158.576 E.02333 ; infill
G1 X159.599 Y154.421 E.2141 ; infill
G1 X158.946 Y154.421 E.02378 ; infill
G1 X163.151 Y158.626 E.21672 ; infill
G1 X162.571 Y158.698 E.02131 ; infill
G1 X158.294 Y154.421 E.22043 ; infill
G1 X157.641 Y154.421 E.02378 ; infill
G1 X162.041 Y158.82 E.22673 ; infill
G2 X161.521 Y158.954 I.382 J2.568 E.01957 ; infill
G1 X156.989 Y154.421 E.23359 ; infill
G1 X156.337 Y154.421 E.02378 ; infill
G1 X161.035 Y159.12 E.24216 ; infill
G2 X160.565 Y159.302 I.641 J2.358 E.01842 ; infill
G1 X155.701 Y154.438 E.25066 ; infill
G1 X155.375 Y154.764 E.01681 ; infill
G1 X160.119 Y159.508 E.24448 ; infill
G2 X159.689 Y159.731 I.857 J2.182 E.01767 ; infill
G1 X155.049 Y155.09 E.23915 ; infill
G1 X154.722 Y155.417 E.01681 ; infill
G1 X159.28 Y159.974 E.23487 ; infill
G2 X158.886 Y160.232 I1.048 J2.027 E.0172 ; infill
G1 X154.396 Y155.743 E.23138 ; infill
G1 X154.07 Y156.069 E.01681 ; infill
G1 X158.512 Y160.511 E.22892 ; infill
G2 X158.151 Y160.802 I1.223 J1.885 E.01694 ; infill
G1 X153.744 Y156.395 E.22712 ; infill
G1 X153.417 Y156.721 E.01681 ; infill
G1 X157.811 Y161.115 E.22641 ; infill
M73 P1 R42
G2 X157.481 Y161.437 I1.39 J1.749 E.01684 ; infill
G1 X153.091 Y157.048 E.22624 ; infill
G1 X152.765 Y157.374 E.01681 ; infill
G1 X157.175 Y161.784 E.22727 ; infill
G2 X156.877 Y162.138 I1.558 J1.613 E.0169 ; infill
G1 X152.439 Y157.7 E.22872 ; infill
G1 X152.113 Y158.026 E.01681 ; infill
G1 X156.605 Y162.519 E.23151 ; infill
G2 X156.34 Y162.906 I1.732 J1.471 E.01713 ; infill
G1 X151.786 Y158.353 E.23465 ; infill
G1 X151.46 Y158.679 E.01681 ; infill
G1 X156.103 Y163.322 E.23928 ; infill
G2 X155.874 Y163.744 I1.922 J1.317 E.01757 ; infill
G1 X151.134 Y159.005 E.24426 ; infill
G1 X150.808 Y159.331 E.01681 ; infill
G1 X155.674 Y164.198 E.25081 ; infill
G2 X155.486 Y164.662 I2.14 J1.141 E.01828 ; infill
G1 X150.791 Y159.967 E.24196 ; infill
G1 X150.791 Y160.619 E.02378 ; infill
G1 X155.327 Y165.156 E.23379 ; infill
G2 X155.188 Y165.668 I2.399 J.93 E.0194 ; infill
G1 X150.791 Y161.272 E.22659 ; infill
G1 X150.791 Y161.924 E.02378 ; infill
G1 X155.074 Y166.207 E.22075 ; infill
G2 X154.987 Y166.773 I3.592 J.844 E.02086 ; infill
G1 X150.791 Y162.576 E.21626 ; infill
G1 X150.791 Y163.229 E.02378 ; infill
G1 X154.948 Y167.386 E.21426 ; infill
G2 X154.937 Y168.028 I3.084 J.374 E.02342 ; infill
G1 X150.791 Y163.881 E.21369 ; infill
G1 X150.791 Y164.534 E.02378 ; infill
G1 X154.973 Y168.716 E.21552 ; infill
G1 X155.087 Y169.482 E.02825 ; infill
G1 X150.791 Y165.186 E.22141 ; infill
G1 X150.791 Y165.839 E.02378 ; infill
G1 X155.287 Y170.335 E.23173 ; infill
G1 X155.368 Y170.641 E.01152 ; infill
G1 X155.629 Y171.329 E.02682 ; infill
G1 X150.791 Y166.491 E.24933 ; infill
G1 X150.791 Y167.143 E.02378 ; infill
G1 X156.311 Y172.663 E.28447 ; infill
G1 X156.652 Y173.197 E.0231 ; infill
G1 X157.245 Y173.943 E.03471 ; infill
G1 X157.578 Y174.299 E.01777 ; infill
G1 X158.276 Y174.941 E.03455 ; infill
G2 X159.352 Y175.705 I5.449 J-6.542 E.04814 ; infill
G1 X164.855 Y181.207 E.28359 ; infill
G1 X164.202 Y181.207 E.02378 ; infill
G1 X150.791 Y167.796 E.69118 ; infill
G1 X150.791 Y168.448 E.02378 ; infill
G1 X163.55 Y181.207 E.65755 ; infill
G1 X162.897 Y181.207 E.02378 ; infill
G1 X150.791 Y169.101 E.62393 ; infill
G1 X150.791 Y169.753 E.02378 ; infill
G1 X162.245 Y181.207 E.59031 ; infill
G1 X161.593 Y181.207 E.02378 ; infill
G1 X150.791 Y170.406 E.55668 ; infill
G1 X150.791 Y171.058 E.02378 ; infill
G1 X160.94 Y181.207 E.52306 ; infill
G1 X160.288 Y181.207 E.02378 ; infill
G1 X150.791 Y171.71 E.48943 ; infill
G1 X150.791 Y172.363 E.02378 ; infill
G1 X159.635 Y181.207 E.45581 ; infill
G1 X158.983 Y181.207 E.02378 ; infill
G1 X150.791 Y173.015 E.42219 ; infill
G1 X150.791 Y173.668 E.02378 ; infill
G1 X158.331 Y181.207 E.38856 ; infill
G1 X157.678 Y181.207 E.02378 ; infill
G1 X150.791 Y174.32 E.35494 ; infill
G1 X150.791 Y174.973 E.02378 ; infill
G1 X157.026 Y181.207 E.32132 ; infill
G1 X156.373 Y181.207 E.02378 ; infill
G1 X150.791 Y175.625 E.28769 ; infill
G1 X150.791 Y176.277 E.02378 ; infill
G1 X155.927 Y181.413 E.26467 ; infill
; stop printing object Voron_Design_Cube_v7.stl id:0 copy 0
EXCLUDE_OBJECT_END NAME=Voron_Design_Cube_v7.stl_id_0_copy_0
;LAYER_CHANGE
;Z:0.35
;HEIGHT:0.15
;BEFORE_LAYER_CHANGE
;0.35
G92 E0

G1 E-1.4 F3600 ; retract
;WIPE_START
G1 F6000
G1 X154.512 Y179.999 E-.57 ; wipe and retract
;WIPE_END
G1 E-.03 F3600 ; retract
;AFTER_LAYER_CHANGE
;0.35
M204 S5000 ; adjust acceleration
M104 S205 ; set nozzle temperature
M140 S80 ; set bed temperature
; printing object Voron_Design_Cube_v7.stl id:0 copy 0
EXCLUDE_OBJECT_START NAME=Voron_Design_Cube_v7.stl_id_0_copy_0
M204 S6000 ; adjust acceleration
G17
G3 Z.8 I1.583 J.909 P1  F21000 ; spiral lift Z
G1 X166.316 Y159.432 Z.8 ; move to first perimeter point travel_to_xyz
G1 Z.35 ; restore layer Z
G1 E2 F1800 ;  ; unretract
M204 S4500 ; adjust acceleration
;TYPE:Inner wall
;WIDTH:0.45
G1 F5700
G1 X166.732 Y159.536 E.01062 ; perimeter
G3 X163.622 Y159.171 I-2.547 J8.276 E1.26887 ; perimeter
