; HEADER_BLOCK_START
; generated by OrcaSlicer 1.6.2 on 2023-05-21 at 16:30:43
; total layer number: 200
; HEADER_BLOCK_END

; THUMBNAIL_BLOCK_START
; THUMBNAIL_BLOCK_END

; external perimeters extrusion width = 0.40mm
; perimeters extrusion width = 0.45mm
; infill extrusion width = 0.64mm
; solid infill extrusion width = 0.60mm
; top infill extrusion width = 0.40mm
; first layer extrusion width = 0.50mm

; EXECUTABLE_BLOCK_START
EXCLUDE_OBJECT_DEFINE NAME=Voron_Design_Cube_v7.stl_id_0_copy_0 CENTER=164.184,167.814 POLYGON=[[149.184,152.814],[179.184,152.814],[179.184,182.814],[149.184,182.814],[149.184,152.814]]
M73 P0 R42
;TYPE:Custom
M190 S90
M109 S220
PRINT_START EXTRUDER=220 BED=90

G90
G21
M83 ; use relative distances for extrusion
START_PRINT EXTRUDER_TEMP=220 BED_TEMP=90 SIZE=148.141_151.771_180.227_183.857
SET_PRESSURE_ADVANCE ADVANCE=0.04; Override pressure advance value
M106 S0 ; disable fan
;LAYER_CHANGE
;Z:0.2
;HEIGHT:0.2
;BEFORE_LAYER_CHANGE
;0.2
G92 E0

G1 E-.8 F1800 ; retract
G1 Z.4 F21000 ; lift Z
;AFTER_LAYER_CHANGE
;0.2
M204 S500 ; adjust acceleration
G1 X153.357 Y153.357
G1 Z.2 ; restore layer Z
G1 E.8 F1800 ;  ; unretract
;TYPE:Skirt
;WIDTH:0.5
G1 F3000
G1 X154.447 Y152.268 E.05564 ; skirt
G1 X155.094 Y152 E.02526 ; skirt
G1 X173.274 Y152 E.65643 ; skirt
G1 X173.921 Y152.268 E.02526 ; skirt
G1 X179.73 Y158.077 E.29665 ; skirt
G1 X179.998 Y158.724 E.02526 ; skirt
G1 X179.998 Y176.905 E.65643 ; skirt
G1 X179.73 Y177.551 E.02526 ; skirt
G1 X173.921 Y183.361 E.29665 ; skirt
G1 X173.274 Y183.628 E.02526 ; skirt
G1 X155.094 Y183.628 E.65643 ; skirt
G1 X154.447 Y183.361 E.02526 ; skirt
G1 X148.638 Y177.551 E.29665 ; skirt
G1 X148.37 Y176.905 E.02526 ; skirt
G1 X148.37 Y158.724 E.65643 ; skirt
G1 X148.638 Y158.077 E.02526 ; skirt
G1 X153.315 Y153.4 E.23884 ; skirt
G1 X153.638 Y153.723 F21000
G1 F3000
G1 X154.77 Y152.591 E.05781 ; skirt
G1 X155.094 Y152.457 E.01263 ; skirt
G1 X173.274 Y152.457 E.65643 ; skirt
G1 X173.598 Y152.591 E.01263 ; skirt
G1 X179.407 Y158.401 E.29665 ; skirt
G1 X179.541 Y158.724 E.01263 ; skirt
G1 X179.541 Y176.905 E.65643 ; skirt
G1 X179.407 Y177.228 E.01263 ; skirt
G1 X173.598 Y183.037 E.29665 ; skirt
G1 X173.274 Y183.171 E.01263 ; skirt
G1 X155.094 Y183.171 E.65643 ; skirt
G1 X154.77 Y183.037 E.01263 ; skirt
G1 X148.961 Y177.228 E.29665 ; skirt
G1 X148.827 Y176.905 E.01263 ; skirt
G1 X148.827 Y158.724 E.65643 ; skirt
G1 X148.961 Y158.401 E.01263 ; skirt
G1 X153.596 Y153.766 E.23667 ; skirt
; printing object Voron_Design_Cube_v7.stl id:0 copy 0
EXCLUDE_OBJECT_START NAME=Voron_Design_Cube_v7.stl_id_0_copy_0
G1 E-.56 F1800 ; retract
;WIPE_START
G1 F3000
G1 X154.77 Y152.591 E-.18937 ; wipe and retract
G1 X155.084 Y152.461 E-.03863 ; wipe and retract
;WIPE_END
G1 E-.012 F1800 ; retract
G1 Z.6 F21000 ; lift Z
G1 X177.92 Y159.206 Z.2 ; move to first perimeter point travel_to_xyz
G1 E.8 F1800 ;  ; unretract
;TYPE:Inner wall
;WIDTH:0.499999
G1 F3000
G1 X177.92 Y160.671 E.0529 ; perimeter
G1 X177.92 Y176.422 E.56871 ; perimeter
G1 X172.792 Y181.55 E.26183 ; perimeter
G1 X155.576 Y181.55 E.62161 ; perimeter
G1 X150.448 Y176.422 E.26183 ; perimeter
G1 X150.448 Y159.206 E.62161 ; perimeter
G1 X155.576 Y154.078 E.26183 ; perimeter
G1 X172.792 Y154.078 E.62161 ; perimeter
G1 X177.877 Y159.164 E.25966 ; perimeter
G1 X178.377 Y159.017 F21000
G1 F3000
G1 X178.377 Y160.671 E.05974 ; perimeter
G1 X178.377 Y176.612 E.57554 ; perimeter
G1 X172.981 Y182.007 E.2755 ; perimeter
G1 X155.387 Y182.007 E.63528 ; perimeter
G1 X149.991 Y176.612 E.2755 ; perimeter
G1 X149.991 Y159.017 E.63528 ; perimeter
G1 X155.387 Y153.621 E.2755 ; perimeter
G1 X172.981 Y153.621 E.63528 ; perimeter
G1 X178.335 Y158.974 E.27333 ; perimeter
G1 X178.834 Y158.864 F21000
;TYPE:Outer wall
G1 F3000
G1 X178.834 Y160.671 E.06525 ; perimeter
G1 X178.834 Y176.801 E.58238 ; perimeter
G1 X173.171 Y182.464 E.28917 ; perimeter
G1 X155.197 Y182.464 E.64895 ; perimeter
G1 X149.534 Y176.801 E.28917 ; perimeter
G1 X149.534 Y158.827 E.64895 ; perimeter
G1 X155.197 Y153.164 E.28917 ; perimeter
G1 X173.171 Y153.164 E.64895 ; perimeter
G1 X178.818 Y158.811 E.28833 ; perimeter
G1 X178.789 Y158.93 ; move inwards before travel
G1 E-.56 F1800 ; retract
;WIPE_START
G1 F3000
G1 X178.834 Y160.671 E-.21209 ; wipe and retract
G1 X178.834 Y160.811 E-.01591 ; wipe and retract
;WIPE_END
G1 E-.012 F1800 ; retract
G1 Z.6 F21000 ; lift Z
G1 X166.322 Y159.166 Z.2 ; move to first perimeter point travel_to_xyz
G1 E.8 F1800 ;  ; unretract
;TYPE:Inner wall
G1 F3000
G1 X167.119 Y159.407 E.03009 ; perimeter
G3 X168.787 Y160.182 I-2.941 J8.511 E.06653 ; perimeter
G3 X169.888 Y160.968 I-22.223 J32.296 E.04882 ; perimeter
G1 X170.686 Y161.721 E.03963 ; perimeter
G1 X171.449 Y162.654 E.04349 ; perimeter
G3 X167.233 Y176.189 I-7.264 J5.161 E.59182 ; perimeter
G1 X165.931 Y176.552 E.04882 ; perimeter
G1 X164.99 Y176.69 E.03432 ; perimeter
G3 X163.033 Y176.652 I-.807 J-8.876 E.07083 ; perimeter
G3 X159.679 Y175.504 I1.151 J-8.838 E.12886 ; perimeter
G1 X159.007 Y175.064 E.029 ; perimeter
G1 X158.195 Y174.415 E.03752 ; perimeter
G3 X156.466 Y172.272 I6.857 J-7.302 E.09976 ; perimeter
G1 X155.882 Y171.052 E.04882 ; perimeter
G1 X155.583 Y170.15 E.03432 ; perimeter
G3 X156.193 Y163.867 I8.788 J-2.318 E.23277 ; perimeter
G1 X156.883 Y162.705 E.04882 ; perimeter
G1 X157.468 Y161.955 E.03432 ; perimeter
G3 X159.577 Y160.184 I7.434 J6.714 E.09976 ; perimeter
G1 X160.785 Y159.577 E.04882 ; perimeter
G3 X166.235 Y159.151 I3.393 J8.342 E.20054 ; perimeter
G1 X166.262 Y159.156 E.001 ; perimeter
G1 X166.195 Y159.603 F21000
G1 F3000
G1 X166.988 Y159.845 E.02995 ; perimeter
G3 X168.569 Y160.584 I-2.811 J8.071 E.06312 ; perimeter
G1 X169.62 Y161.338 E.04669 ; perimeter
G1 X170.272 Y161.946 E.03219 ; perimeter
G1 X171.095 Y162.943 E.04669 ; perimeter
G3 X167.058 Y175.767 I-6.911 J4.872 E.56114 ; perimeter
G1 X165.811 Y176.111 E.04669 ; perimeter
G3 X163.112 Y176.202 I-1.63 J-8.275 E.09791 ; perimeter
G3 X159.892 Y175.1 I1.071 J-8.388 E.12375 ; perimeter
G1 X159.261 Y174.684 E.0273 ; perimeter
G1 X158.487 Y174.063 E.03581 ; perimeter
G3 X156.851 Y172.026 I6.522 J-6.912 E.09465 ; perimeter
G1 X156.296 Y170.858 E.04669 ; perimeter
G3 X156.611 Y164.051 I7.885 J-3.045 E.25324 ; perimeter
G1 X157.275 Y162.941 E.04669 ; perimeter
G3 X159.831 Y160.564 I6.9 J4.86 E.12693 ; perimeter
G1 X160.988 Y159.987 E.04669 ; perimeter
G3 X166.135 Y159.597 I3.189 J7.929 E.18935 ; perimeter
G1 X166.078 Y160.043 F21000
;TYPE:Outer wall
G1 F3000
G1 X166.857 Y160.282 E.02945 ; perimeter
G3 X168.351 Y160.986 I-2.681 J7.631 E.05971 ; perimeter
G1 X169.351 Y161.708 E.04456 ; perimeter
G1 X169.958 Y162.278 E.03006 ; perimeter
G1 X170.741 Y163.232 E.04456 ; perimeter
G3 X166.882 Y175.345 I-6.557 J4.582 E.53047 ; perimeter
G1 X165.691 Y175.67 E.04456 ; perimeter
G3 X163.192 Y175.752 I-1.508 J-7.846 E.09067 ; perimeter
G3 X159.515 Y174.303 I1.1 J-8.185 E.1441 ; perimeter
G1 X158.778 Y173.711 E.03411 ; perimeter
G3 X157.236 Y171.779 I6.188 J-6.522 E.08954 ; perimeter
G1 X156.709 Y170.663 E.04456 ; perimeter
G3 X157.03 Y164.235 I7.473 J-2.85 E.23918 ; perimeter
G1 X157.666 Y163.177 E.04456 ; perimeter
G3 X160.085 Y160.945 I6.515 J4.632 E.11969 ; perimeter
G1 X161.19 Y160.396 E.04456 ; perimeter
G3 X166.02 Y160.038 I2.986 J7.517 E.1776 ; perimeter
G1 X166.133 Y159.985 ; move inwards before travel
G1 E-.56 F1800 ; retract
;WIPE_START
G1 F3000
G1 X166.857 Y160.282 E-.0994 ; wipe and retract
G1 X167.624 Y160.592 E-.09423 ; wipe and retract
G1 X167.889 Y160.735 E-.03437 ; wipe and retract
;WIPE_END
G1 E-.012 F1800 ; retract
G1 Z.6 F21000 ; lift Z
G1 X172.441 Y154.215 Z.2 ; move to first infill point travel_to_xyz
G1 E.8 F1800 ;  ; unretract
;TYPE:Bottom surface
;WIDTH:0.504253
G1 F6000
G1 X177.577 Y159.351 E.26467 ; infill
G1 X177.577 Y160.004 E.02378 ; infill
G1 X171.995 Y154.421 E.2877 ; infill
G1 X171.342 Y154.421 E.02378 ; infill
G1 X177.577 Y160.656 E.32132 ; infill
G1 X177.577 Y161.308 E.02378 ; infill
G1 X170.69 Y154.421 E.35495 ; infill
G1 X170.037 Y154.421 E.02378 ; infill
G1 X177.577 Y161.961 E.38857 ; infill
G1 X177.577 Y162.613 E.02378 ; infill
G1 X169.385 Y154.421 E.42219 ; infill
G1 X168.733 Y154.421 E.02378 ; infill
G1 X177.577 Y163.266 E.45582 ; infill
G1 X177.577 Y163.918 E.02378 ; infill
G1 X168.08 Y154.421 E.48944 ; infill
G1 X167.428 Y154.421 E.02378 ; infill
G1 X177.577 Y164.57 E.52306 ; infill
G1 X177.577 Y165.223 E.02378 ; infill
G1 X166.775 Y154.421 E.55669 ; infill
G1 X166.123 Y154.421 E.02378 ; infill
G1 X177.577 Y165.875 E.59031 ; infill
G1 X177.577 Y166.528 E.02378 ; infill
G1 X165.47 Y154.421 E.62394 ; infill
G1 X164.818 Y154.421 E.02378 ; infill
G1 X177.577 Y167.18 E.65756 ; infill
G1 X177.577 Y167.833 E.02378 ; infill
G1 X164.166 Y154.421 E.69118 ; infill
G1 X163.513 Y154.421 E.02378 ; infill
G1 X169.028 Y159.936 E.28419 ; infill
G1 X170.094 Y160.694 E.04771 ; infill
G1 X170.855 Y161.396 E.03771 ; infill
G1 X171.822 Y162.587 E.05591 ; infill
G1 X172.046 Y162.954 E.01565 ; infill
G1 X177.577 Y168.485 E.28506 ; infill
G1 X177.577 Y169.137 E.02378 ; infill
G1 X172.747 Y164.307 E.24894 ; infill
G1 X173.084 Y165.297 E.03811 ; infill
G1 X177.577 Y169.79 E.23155 ; infill
G1 X177.577 Y170.442 E.02378 ; infill
G1 X173.286 Y166.151 E.22116 ; infill
G1 X173.388 Y166.906 E.02775 ; infill
G1 X177.577 Y171.095 E.21589 ; infill
M73 P1 R42
G1 X177.577 Y171.747 E.02378 ; infill
G1 X173.428 Y167.598 E.21383 ; infill
G3 X173.421 Y168.244 I-3.427 J.288 E.02357 ; infill
G1 X177.577 Y172.4 E.21418 ; infill
G1 X177.577 Y173.052 E.02378 ; infill
G1 X173.375 Y168.85 E.21656 ; infill
G1 X173.289 Y169.417 E.02089 ; infill
G1 X177.577 Y173.704 E.22097 ; infill
G1 X177.577 Y174.357 E.02378 ; infill
G1 X173.177 Y169.957 E.22678 ; infill
G1 X173.043 Y170.475 E.01951 ; infill
G1 X177.577 Y175.009 E.23369 ; infill
G1 X177.577 Y175.662 E.02378 ; infill
G1 X172.875 Y170.96 E.24231 ; infill
G1 X172.698 Y171.435 E.01848 ; infill
G1 X177.56 Y176.297 E.25057 ; infill
G1 X177.234 Y176.623 E.01681 ; infill
G1 X172.487 Y171.876 E.24467 ; infill
G1 X172.27 Y172.312 E.01774 ; infill
G1 X176.908 Y176.95 E.239 ; infill
G1 X176.582 Y177.276 E.01681 ; infill
G1 X172.022 Y172.716 E.23497 ; infill
G3 X171.77 Y173.117 I-2.142 J-1.066 E.01727 ; infill
G1 X176.255 Y177.602 E.23113 ; infill
G1 X175.929 Y177.928 E.01681 ; infill
G1 X171.486 Y173.485 E.22898 ; infill
G3 X171.197 Y173.849 I-1.998 J-1.292 E.01695 ; infill
G1 X175.603 Y178.254 E.22706 ; infill
G1 X175.277 Y178.581 E.01681 ; infill
G1 X170.881 Y174.185 E.22656 ; infill
G1 X170.564 Y174.52 E.01682 ; infill
G1 X174.95 Y178.907 E.22607 ; infill
G1 X174.624 Y179.233 E.01681 ; infill
G1 X170.213 Y174.822 E.22735 ; infill
G1 X169.862 Y175.123 E.01686 ; infill
G1 X174.298 Y179.559 E.22863 ; infill
G1 X173.972 Y179.886 E.01681 ; infill
G1 X169.477 Y175.391 E.23163 ; infill
G1 X169.093 Y175.659 E.01708 ; infill
G1 X173.646 Y180.212 E.23462 ; infill
G1 X173.319 Y180.538 E.01681 ; infill
G1 X168.674 Y175.893 E.23939 ; infill
G1 X168.254 Y176.125 E.01749 ; infill
G1 X172.993 Y180.864 E.24422 ; infill
G1 X172.667 Y181.19 E.01681 ; infill
G1 X167.798 Y176.321 E.25094 ; infill
G1 X167.338 Y176.514 E.01817 ; infill
G1 X172.031 Y181.207 E.24188 ; infill
G1 X171.379 Y181.207 E.02378 ; infill
G1 X166.826 Y176.655 E.23462 ; infill
G1 X166.315 Y176.796 E.01934 ; infill
G1 X170.727 Y181.207 E.22736 ; infill
G1 X170.074 Y181.207 E.02378 ; infill
G1 X165.793 Y176.926 E.22065 ; infill
G1 X165.219 Y177.005 E.02109 ; infill
G1 X169.422 Y181.207 E.21658 ; infill
G1 X168.769 Y181.207 E.02378 ; infill
G1 X164.609 Y177.047 E.2144 ; infill
G1 X163.976 Y177.066 E.0231 ; infill
G1 X168.117 Y181.207 E.21343 ; infill
G1 X167.464 Y181.207 E.02378 ; infill
G1 X163.276 Y177.019 E.21586 ; infill
G1 X163.121 Y177.008 E.00567 ; infill
G1 X162.51 Y176.906 E.02256 ; infill
G1 X166.812 Y181.207 E.22169 ; infill
G1 X166.16 Y181.207 E.02378 ; infill
G1 X161.658 Y176.706 E.232 ; infill
G3 X160.661 Y176.361 I1.161 J-4.975 E.03851 ; infill
G1 X165.713 Y181.413 E.26036 ; infill
G1 E-.56 F1800 ; retract
;WIPE_START
G1 F6000
G1 X164.299 Y179.999 E-.228 ; wipe and retract
;WIPE_END
G1 E-.012 F1800 ; retract
G1 Z.6 F21000 ; lift Z
G1 X162.655 Y154.215 Z.2 ; move to first infill point travel_to_xyz
G1 E.8 F1800 ;  ; unretract
G1 F6000
G1 X167.709 Y159.27 E.26049 ; infill
G2 X166.71 Y158.923 I-2.171 J4.641 E.03862 ; infill
G1 X162.208 Y154.421 E.23201 ; infill
G1 X161.556 Y154.421 E.02378 ; infill
G1 X165.859 Y158.724 E.22176 ; infill
G2 X165.096 Y158.614 I-.912 J3.619 E.02813 ; infill
G1 X160.903 Y154.421 E.21608 ; infill
G1 X160.251 Y154.421 E.02378 ; infill
G1 X164.392 Y158.562 E.21341 ; infill
G1 X163.757 Y158.579 E.02315 ; infill
G1 X159.599 Y154.421 E.2143 ; infill
G1 X158.946 Y154.421 E.02378 ; infill
G1 X163.151 Y158.626 E.21669 ; infill
G1 X162.572 Y158.699 E.02127 ; infill
G1 X158.294 Y154.421 E.22047 ; infill
G1 X157.641 Y154.421 E.02378 ; infill
G1 X162.04 Y158.82 E.22671 ; infill
G2 X161.525 Y158.957 I.442 J2.693 E.01946 ; infill
G1 X156.989 Y154.421 E.23378 ; infill
G1 X156.337 Y154.421 E.02378 ; infill
G1 X161.036 Y159.12 E.24219 ; infill
G2 X160.574 Y159.311 I.461 J1.769 E.01826 ; infill
G1 X155.701 Y154.438 E.25116 ; infill
G1 X155.375 Y154.764 E.01681 ; infill
G1 X160.138 Y159.527 E.24546 ; infill
G1 X159.701 Y159.743 E.01775 ; infill
G1 X155.049 Y155.09 E.23977 ; infill
G1 X154.722 Y155.417 E.01681 ; infill
G1 X159.278 Y159.973 E.23481 ; infill
G1 X158.89 Y160.236 E.01712 ; infill
G1 X154.396 Y155.743 E.23158 ; infill
G1 X154.07 Y156.069 E.01681 ; infill
G1 X158.51 Y160.509 E.22881 ; infill
G1 X158.155 Y160.806 E.01688 ; infill
G1 X153.744 Y156.395 E.22733 ; infill
G1 X153.417 Y156.721 E.01681 ; infill
G1 X157.807 Y161.111 E.22624 ; infill
G1 X157.487 Y161.443 E.01681 ; infill
G1 X153.091 Y157.048 E.22653 ; infill
G1 X152.765 Y157.374 E.01681 ; infill
G1 X157.17 Y161.779 E.22702 ; infill
G1 X156.882 Y162.143 E.01693 ; infill
G1 X152.439 Y157.7 E.22897 ; infill
G1 X152.113 Y158.026 E.01681 ; infill
G1 X156.601 Y162.515 E.23134 ; infill
G1 X156.358 Y162.924 E.01734 ; infill
G1 X151.786 Y158.353 E.2356 ; infill
G1 X151.46 Y158.679 E.01681 ; infill
G1 X156.114 Y163.333 E.23985 ; infill
G1 X155.873 Y163.744 E.01737 ; infill
G1 X151.134 Y159.005 E.24422 ; infill
G1 X150.808 Y159.331 E.01681 ; infill
G1 X155.677 Y164.2 E.25092 ; infill
G2 X155.485 Y164.661 I2.125 J1.153 E.01822 ; infill
G1 X150.791 Y159.967 E.24193 ; infill
G1 X150.791 Y160.619 E.02378 ; infill
G1 X155.33 Y165.158 E.23393 ; infill
G2 X155.188 Y165.668 I2.385 J.941 E.01933 ; infill
G1 X150.791 Y161.272 E.22658 ; infill
G1 X150.791 Y161.924 E.02378 ; infill
G1 X155.078 Y166.211 E.22094 ; infill
G2 X154.997 Y166.783 I2.714 J.674 E.02108 ; infill
G1 X150.791 Y162.576 E.21678 ; infill
G1 X150.791 Y163.229 E.02378 ; infill
G1 X154.94 Y167.378 E.21384 ; infill
G1 X154.942 Y168.033 E.02385 ; infill
G1 X150.791 Y163.881 E.21394 ; infill
G1 X150.791 Y164.534 E.02378 ; infill
G1 X154.984 Y168.727 E.21609 ; infill
G2 X155.087 Y169.482 I3.862 J-.141 E.02782 ; infill
G1 X150.791 Y165.186 E.22138 ; infill
G1 X150.791 Y165.839 E.02378 ; infill
G1 X155.288 Y170.336 E.23177 ; infill
G1 X155.504 Y171.026 E.02636 ; infill
G1 X155.661 Y171.361 E.01349 ; infill
G1 X150.791 Y166.491 E.25099 ; infill
G1 X150.791 Y167.143 E.02378 ; infill
G1 X156.307 Y172.66 E.2843 ; infill
G1 X156.633 Y173.169 E.02201 ; infill
G1 X157.297 Y173.998 E.03873 ; infill
G1 X157.973 Y174.676 E.03487 ; infill
G1 X158.688 Y175.262 E.0337 ; infill
G1 X159.335 Y175.688 E.02823 ; infill
G1 X164.855 Y181.207 E.28446 ; infill
G1 X164.202 Y181.207 E.02378 ; infill
G1 X150.791 Y167.796 E.69118 ; infill
G1 X150.791 Y168.448 E.02378 ; infill
G1 X163.55 Y181.207 E.65755 ; infill
G1 X162.897 Y181.207 E.02378 ; infill
G1 X150.791 Y169.101 E.62393 ; infill
G1 X150.791 Y169.753 E.02378 ; infill
G1 X162.245 Y181.207 E.59031 ; infill
G1 X161.593 Y181.207 E.02378 ; infill
G1 X150.791 Y170.406 E.55668 ; infill
G1 X150.791 Y171.058 E.02378 ; infill
G1 X160.94 Y181.207 E.52306 ; infill
